!!!!SEGMENT: pl-wtm--r-1647-1_stefani-jozef--dyrektorze-posluchac-chciej.krn
!!!cenid: 18xx:2044
!!!COM: Stefani, Józef
!!!COM-rismid: pe30024097
!!!CDT: 1800/04/16-1876/03/19
!!!CNT: Polish
!!!OTL: Dyrektorze, posłuchać chciej
!!!PDT: 1852
!!!AGN: Secular
!!!SMS-siglum: PL-Wtm
!!!SMS-shelfmark: R 1647/1
!!!SMS-shelfwork: W
!!!SMS-variant:
!!!SMS-altvar:
!!!NIFC-rismid: 1001114436
!!!URL-scan: http://repozytorium.nifc.pl/skany/pl-wtm-nut--r1647-1-2
!!!ONB-nifc:
!!!key:
**kern	**kern	**dynam	**kern	**text	**dynam	**kern	**text	**text	**dynam	**kern	**text	**text	**dynam	**kern	**text	**text	**dynam	**kern	**text	**text	**dynam	**kern	**text	**text	**text	**dynam
*part7	*part7	*part7	*part6	*part6	*part6	*part5	*part5	*part5	*part5	*part4	*part4	*part4	*part4	*part3	*part3	*part3	*part3	*part2	*part2	*part2	*part2	*part1	*part1	*part1	*part1	*part1
*staff8	*staff7	*	*staff6	*staff6	*	*staff5	*staff5	*staff5	*	*staff4	*staff4	*staff4	*	*staff3	*staff3	*staff3	*	*staff2	*staff2	*staff2	*	*staff1	*staff1	*staff1	*staff1	*
*Ipiano	*Ipiano	*	*Ibass	*	*	*Itenor	*	*	*	*Itenor	*	*	*	*Iempty	*	*	*	*Itenor	*	*	*	*Itenor	*	*	*	*
*I"Piano	*I"Piano	*	*I"Baſso Choro	*	*	*I"Tenore 2do Choro.	*	*	*	*I"Tenore 1o. Choro.	*	*	*	*I"Baſso. Solo.	*	*	*	*I"Tenore 2.do.	*	*	*	*I"Tenore 1o Solo	*	*	*	*
*	*	*	*I'Coro B	*	*	*I'Coro T 2	*	*	*	*I'Coro T 1	*	*	*	*I'B	*	*	*	*I'T 2	*	*	*	*I'T 1	*	*	*	*
*>[A,B,B,C]	*>[A,B,B,C]	*>[A,B,B,C]	*>[A,B,B,C]	*>[A,B,B,C]	*>[A,B,B,C]	*>[A,B,B,C]	*>[A,B,B,C]	*>[A,B,B,C]	*>[A,B,B,C]	*>[A,B,B,C]	*>[A,B,B,C]	*>[A,B,B,C]	*>[A,B,B,C]	*>[A,B,B,C]	*>[A,B,B,C]	*>[A,B,B,C]	*>[A,B,B,C]>[A,B,B,C]	*>[A,B,B,C]	*>[A,B,B,C]	*>[A,B,B,C]	*>[A,B,B,C]	*>[A,B,B,C]	*>[A,B,B,C]	*>[A,B,B,C]	*>[A,B,B,C]	*>[A,B,B,C]
*>A	*>A	*>A	*>A	*>A	*>A	*>A	*>A	*>A	*>A	*>A	*>A	*>A	*>A	*>A	*>A	*>A	*>A	*>A	*>A	*>A	*>A	*>A	*>A	*>A	*>A	*>A
*clefF4	*clefG2	*	*clefF4	*	*	*clefC4	*	*	*	*clefC4	*	*	*	*clefF4	*	*	*	*clefC4	*	*	*	*clefC4	*	*	*	*
*k[b-]	*k[b-]	*	*k[b-]	*	*	*k[b-]	*	*	*	*k[b-]	*	*	*	*k[b-]	*	*	*	*k[b-]	*	*	*	*k[b-]	*	*	*	*
*B-:	*B-:	*	*B-:	*	*	*B-:	*	*	*	*B-:	*	*	*	*B-:	*	*	*	*B-:	*	*	*	*B-:	*	*	*	*
*M2/2	*M2/2	*	*M2/2	*	*	*M2/2	*	*	*	*M2/2	*	*	*	*M2/2	*	*	*	*M2/2	*	*	*	*M2/2	*	*	*	*
*met(c|)	*met(c|)	*	*met(c|)	*	*	*met(c|)	*	*	*	*met(c|)	*	*	*	*met(c|)	*	*	*	*met(c|)	*	*	*	*met(c|)	*	*	*	*
*all\right	*all\right	*	*all\right	*	*	*all\right	*	*	*	*all\right	*	*	*	*all\right	*	*	*	*all\right	*	*	*	*all\right	*	*	*	*
!	!LO:TX:t=P:problem:partia fortepianu na podstawie skanów 0003-0007	!	!	!	!	!	!	!	!	!	!	!	!	!	!	!	!	!	!	!	!	!LO:TX:t=P:problem:partie wokalne na podstawie skanów 0008-0022	!	!	!	!
!	!LO:TX:t=P:problem:partie Tenore 1o, Tenore 2o., Baſso zapisane pomocniczo nad partią fortepianu	!LO:DY:rj	!LO:TX:a:Bi:t=Allegro	!	!LO:DY:rj:a	!LO:TX:a:Bi:t=Allegro	!	!	!LO:DY:rj:a	!LO:TX:a:Bi:t=Allegro	!	!	!LO:DY:rj:a	!LO:TX:a:Bi:t=Allegro.	!	!	!LO:DY:rj:a	!LO:TX:a:Bi:t=Allegro.	!	!	!LO:DY:rj:a	!LO:TX:a:Bi:t=Allegro	!	!	!	!LO:DY:rj:a
8.FL 8.FF/	8.ffL 8.f/	f	8.F\	Dy-	f	8.f\	Dy-	.	f	8.f\	Dy-	.	f	8.F\	Dy-	.	f	8.f\	Dy-	.	f	8.f\	Dy-	.	.	f
16EJk 16EE/	16eeJk 16e/	.	16E\	-re-	.	16e\	-re-	.	.	16e\	-re-	.	.	16E\	-re-	.	.	16e\	-re-	.	.	16en\	-re-	.	.	.
=1	=1	=1	=1	=1	=1	=1	=1	=1	=1	=1	=1	=1	=1	=1	=1	=1	=1	=1	=1	=1	=1	=1	=1	=1	=1	=1
*	*	*	*2\right	*	*	*2\right	*	*	*	*2\right	*	*	*	*2\right	*	*	*	*2\right	*	*	*	*2\right	*	*	*	*
[2F [>2FF/	2ff 2f/	.	2F\	-kto-	.	2f\	-kto-	.	.	2f\	-kto-	.	.	2F\	-kto-	.	.	2f\	-kto-	.	.	2f\	-kto-	.	.	.
8F] 8FF/]	8f/	.	8F\	-rze	.	8F/	-rze!	.	.	8F/	-rze!	.	.	8F\	-rze	.	.	8F/	-rze	.	.	8F/	-rze	.	.	.
8FL 8FF/	8f/L	.	8r	.	.	8r	.	.	.	8r	.	.	.	8F\	po-	.	.	8F/	po-	.	.	8F/	po-	.	.	.
8E 8EE/	8g 8f/	.	4r	.	.	4r	.	.	.	4r	.	.	.	8E\	-słu-	.	.	8F/	-słu-	.	.	8G/	-słu-	.	.	.
8E-XJ 8EE-X/	8aJ 8f/	.	.	.	.	.	.	.	.	.	.	.	.	8E-X\	-chać	.	.	8F/	-chać	.	.	8A/	-chaj	.	.	.
=2	=2	=2	=2	=2	=2	=2	=2	=2	=2	=2	=2	=2	=2	=2	=2	=2	=2	=2	=2	=2	=2	=2	=2	=2	=2	=2
*	*^	*	*	*	*	*	*	*	*	*	*	*	*	*	*	*	*	*	*	*	*	*	*	*	*	*
*	*2\right	*	*	*	*	*	*	*	*	*	*	*	*	*	*	*	*	*	*	*	*	*	*	*	*	*	*
!	!	!	!	!LO:TX:a:t=7.	!	!	!LO:TX:a:t=7.	!	!	!	!LO:TX:a:t=7.	!	!	!	!	!	!	!	!	!	!	!	!	!	!	!	!
2D 2DD/	2b-/	2f\	.	1r	.	.	1r	.	.	.	1r	.	.	.	2D\	chciej	.	.	2F/	chciej	.	.	2B-\	chciej	.	.	.
4.B- 4.BB-\	4.dd 4.b- 4.f/	2ryy	.	.	.	.	.	.	.	.	.	.	.	.	4.BB-/	i	.	.	4.F/	i	.	.	4.d\	i	.	.	.
8B- 8BB-\	8dd 8b- 8f/	.	.	.	.	.	.	.	.	.	.	.	.	.	8BB-/	w_pa-	.	.	8F/	w_pa-	.	.	8d\	w_pa-	.	.	.
!	!	!	!	!	!	!	!	!	!	!	!	!	!	!	!	!	!	!	!	!	!	!	!LO:LB:g=original	!	!	!	!
=3	=3	=3	=3	=3	=3	=3	=3	=3	=3	=3	=3	=3	=3	=3	=3	=3	=3	=3	=3	=3	=3	=3	=3	=3	=3	=3	=3
*2\right	*	*	*	*	*	*	*	*	*	*	*	*	*	*	*	*	*	*	*	*	*	*	*	*	*	*	*
2.c 2.C\	2.g/	4f\	.	1r	.	.	1r	.	.	.	1r	.	.	.	2.C/	-mię-	.	.	(>4F/	-mię-	.	.	2.G/	-mię-	.	.	.
.	.	8e\L	.	.	.	.	.	.	.	.	.	.	.	.	.	.	.	.	8E/L	.	.	.	.	.	.	.	.
.	.	8d\J	.	.	.	.	.	.	.	.	.	.	.	.	.	.	.	.	8D/J	.	.	.	.	.	.	.	.
.	.	4e\	.	.	.	.	.	.	.	.	.	.	.	.	.	.	.	.	4E/)	.	.	.	.	.	.	.	.
4c 4G 4C\	4cc 4g/	4e\	.	.	.	.	.	.	.	.	.	.	.	.	4C/	-ći	.	.	4E/	-ci	.	.	4c\	-ći	.	.	.
*	*v	*v	*	*	*	*	*	*	*	*	*	*	*	*	*	*	*	*	*	*	*	*	*	*	*	*	*
!	!	!	!	!	!	!	!	!	!	!	!	!	!	!LO:LB:g=original	!	!	!	!LO:LB:g=original	!	!	!	!	!	!	!	!
=4	=4	=4	=4	=4	=4	=4	=4	=4	=4	=4	=4	=4	=4	=4	=4	=4	=4	=4	=4	=4	=4	=4	=4	=4	=4	=4
2.c 2.A 2.F\	2.a 2.f/	.	1r	.	.	1r	.	.	.	1r	.	.	.	2.F\	miej	.	.	2.F/	miej	.	.	2.A\	miej,	.	.	.
!	!	!	!	!	!	!	!	!	!	!	!	!	!	!	!	!	!LO:DY:rj:a	!	!	!	!LO:DY:rj:a	!	!	!	!	!LO:DY:rj:a
4c 4G 4E\	4cc 4g/	.	.	.	.	.	.	.	.	.	.	.	.	4E\	[[choć	A	p	4G/	A	.	p	4c\	A	.	.	p
!LO:LB:g=original	!LO:LB:g=original	!	!	!	!	!	!	!	!	!	!	!	!	!	!	!	!	!	!	!	!	!	!	!	!	!
=5	=5	=5	=5	=5	=5	=5	=5	=5	=5	=5	=5	=5	=5	=5	=5	=5	=5	=5	=5	=5	=5	=5	=5	=5	=5	=5
2c 2A 2F\	2a 2f/	.	1r	.	.	1r	.	.	.	1r	.	.	.	2F\	to	choć	.	2F/	choć	.	.	2A\	choć	.	.	.
2c 2G 2E\	2cc 2g/	.	.	.	.	.	.	.	.	.	.	.	.	2E\	iest]]	to	.	2G/	to	.	.	2c\	to	.	.	.
=6	=6	=6	=6	=6	=6	=6	=6	=6	=6	=6	=6	=6	=6	=6	=6	=6	=6	=6	=6	=6	=6	=6	=6	=6	=6	=6
2c 2A 2F\	2a 2f/	.	1r	.	.	1r	.	.	.	1r	.	.	.	2F\	iest	.	.	2F/	iest	.	.	2A\	iest	.	.	.
4.c 4.G 4.E\	4.cc 4.g/	.	.	.	.	.	.	.	.	.	.	.	.	4.E\	mu-	.	.	4.G/	mu-	.	.	4.c\	mu-	.	.	.
8c 8G 8E\	8cc 8g/	.	.	.	.	.	.	.	.	.	.	.	.	8E\	-za	.	.	8G/	-za	.	.	8c\	-za	.	.	.
=7	=7	=7	=7	=7	=7	=7	=7	=7	=7	=7	=7	=7	=7	=7	=7	=7	=7	=7	=7	=7	=7	=7	=7	=7	=7	=7
2d 2D\	2ff 2a 2f/	.	1r	.	.	1r	.	.	.	1r	.	.	.	2D\	la-	.	.	2A\	la-	.	.	2f\	la-	.	.	.
8B- 8BB-\	8dd 8b- 8f/	.	.	.	.	.	.	.	.	.	.	.	.	8BB-/	-da	.	.	8B-\	-da	.	.	8d\	-da	.	.	.
!	!	!	!	!	!	!	!	!	!	!	!	!	!	!	!	!	!LO:DY:rj:a	!	!	!	!LO:DY:rj:a	!	!	!	!	!LO:DY:rj:a
8BnL 8BBn\	8ddL 8a-X 8f/	.	.	.	.	.	.	.	.	.	.	.	.	8BBn/	po-	.	f	8A-X\	po-	.	f	8d\	po-	.	.	f
8.B 8.BB\	8.ee 8.a- 8.f/	.	.	.	.	.	.	.	.	.	.	.	.	8.BB/	-zwól	.	.	8A-\	-zwól	.	.	8e\	-zwól	.	.	.
.	.	.	.	.	.	.	.	.	.	.	.	.	.	.	.	.	.	8A-\	niech	.	.	8f\	niech	.	.	.
16BJk 16BB\	16ggJk 16a- 16f/	.	.	.	.	.	.	.	.	.	.	.	.	16BB/	niech	.	.	.	.	.	.	.	.	.	.	.
!	!	!	!	!	!	!	!	!	!	!	!	!	!	!LO:LB:g=original	!	!	!	!LO:LB:g=original	!	!	!	!LO:LB:g=original	!	!	!	!
=8	=8	=8	=8	=8	=8	=8	=8	=8	=8	=8	=8	=8	=8	=8	=8	=8	=8	=8	=8	=8	=8	=8	=8	=8	=8	=8
!	!	!	!	!	!	!	!	!	!	!	!	!	!	!	!	!	!	!	!	!	!	!LO:TX:t=P:problem:skreślony łuk	!	!	!	!
4.c 4.C\	4.cc 4.an/	.	1r	.	.	1r	.	.	.	1r	.	.	.	4.C/	się	.	.	4.An/	się	.	.	4.c\	się	.	.	.
8c 8C\	8a 8f/	.	.	.	.	.	.	.	.	.	.	.	.	8C/	wy-	.	.	8F/	wy-	.	.	8A\	wy-	.	.	.
4c 4C\	4b- 4g/	.	.	.	.	.	.	.	.	.	.	.	.	2C/	-ga-	.	.	(>4G/	-ga-	.	.	(4B-\	-ga-	.	.	.
4c 4C\	4cc 4e/	.	.	.	.	.	.	.	.	.	.	.	.	.	.	.	.	4E/)	.	.	.	4c\)	.	.	.	.
!	!	!	!	!	!	!LO:LB:g=original	!	!	!	!	!	!	!	!	!	!	!	!	!	!	!	!	!	!	!	!
=9	=9	=9	=9	=9	=9	=9	=9	=9	=9	=9	=9	=9	=9	=9	=9	=9	=9	=9	=9	=9	=9	=9	=9	=9	=9	=9
*	*^	*	*	*	*	*	*	*	*	*	*	*	*	*	*	*	*	*	*	*	*	*	*	*	*	*
!	!	!	!	!	!	!	!	!	!	!	!	!	!	!	!	!	!	!LO:DY:rj:a	!	!	!	!LO:DY:rj:a	!	!	!	!	!
4F\	4f/	2ryy	.	4r	.	.	4r	.	.	.	4r	.	.	.	4F\	-da.	.	mf	4F/	-da,	.	mf	4F/	-da	.	.	.
!	!	!	!	!	!	!	!	!	!	!	!	!	!	!LO:DY:rj:a	!	!	!	!	!	!	!	!	!	!	!	!	!LO:DY:rj:a
4r	4r	.	.	8F\	A	.	8F/	A	.	.	8F/	A	.	mf	8F\	A	.	mf	8F/	A	.	.	8F/	A	.	.	mf
.	.	.	.	8F\	pa-	.	8F/	pa-	.	.	8F/	pa-	.	.	8F\	pa-	.	.	8F/	pa-	.	.	8F/	pa-	.	.	.
!LO:LB:g=original	!LO:LB:g=original	!	!LO:DY:rj:a	!	!	!	!	!	!	!	!LO:LB:g=original	!	!	!	!	!	!	!	!	!	!	!	!	!	!	!	!
2e-X 2F\	2a/	2f\	p	8F\	-no-	.	8F/	-no-	.	.	8F/	-no-	.	.	8F\	-no-	.	.	8F/	-no-	.	.	8F/	-no-	.	.	.
.	.	.	.	8F\	-wie	.	8F/	-wie	.	.	8F/	-wie	.	.	8F\	-wie	.	.	8F/	-wie	.	.	8F/	-wie	.	.	.
.	.	.	.	8F\	nie	.	8F/	nie	.	.	8F/	nie	.	.	8F\	nie	.	.	8F/	nie	.	.	8F/	nie	.	.	.
.	.	.	.	8F\	ga-	.	8F/	ga-	.	.	8F/	ga-	.	.	8F\	ga-	.	.	8F/	ga-	.	.	8F/	ga-	.	.	.
!	!	!	!	!LO:LB:g=original	!	!	!	!	!	!	!	!	!	!	!	!	!	!	!	!	!	!	!	!	!	!	!
=10	=10	=10	=10	=10	=10	=10	=10	=10	=10	=10	=10	=10	=10	=10	=10	=10	=10	=10	=10	=10	=10	=10	=10	=10	=10	=10	=10
2d 2F\	2b-/	2f\	.	8F\	-daj-	.	8F/	-daj-	.	.	8F/	-daj-	.	.	8F\	-daj-	.	.	8F/	-daj-	.	.	8F/	-daj-	.	.	.
.	.	.	.	8F\	-ćie	.	8F/	-ćie	.	.	8F/	-ćie	.	.	8F\	-ćie	.	.	8F/	-cie	.	.	8F/	-cie	.	.	.
.	.	.	.	8F\	po-	.	8F/	po-	.	.	8F/	po-	.	.	8F\	po-	.	.	8F/	po-	.	.	8F/	po-	.	.	.
.	.	.	.	8F\	-tem	.	8F/	-tem	.	.	8F/	-tem	.	.	8F\	-tem	.	.	8F/	-tem	.	.	8F/	-tem	.	.	.
2B- 2F\	2dd 2b- 2f/	2ryy	.	8F\	swo-	.	8F/	swo-	.	.	8F/	swo-	.	.	8F\	swo-	.	.	8F/	swo-	.	.	8F/	swo-	.	.	.
.	.	.	.	8F\	-ie	.	8F/	-ie	.	.	8F/	-ie	.	.	8F\	-ie	.	.	8F/	-ie	.	.	8F/	-ie	.	.	.
.	.	.	.	8F\	zda-	.	8F/	zda-	.	.	8F/	zda-	.	.	8F\	zda-	.	.	8F/	zda-	.	.	8F/	zda-	.	.	.
.	.	.	.	8F\	-nie	.	8F/	-nie	.	.	8F/	-nie	.	.	8F\	-nie	.	.	8F/	-nie	.	.	8F/	-nie	.	.	.
*	*v	*v	*	*	*	*	*	*	*	*	*	*	*	*	*	*	*	*	*	*	*	*	*	*	*	*	*
!	!	!	!	!	!	!LO:LB:g=original	!	!	!	!	!	!	!	!LO:LB:g=original	!	!	!	!LO:LB:g=original	!	!	!	!LO:LB:g=original	!	!	!	!
=11||	=11||	=11||	=11||	=11||	=11||	=11||	=11||	=11||	=11||	=11||	=11||	=11||	=11||	=11||	=11||	=11||	=11||	=11||	=11||	=11||	=11||	=11||	=11||	=11||	=11||	=11||
*k[b-e-]	*k[b-e-]	*	*k[b-e-]	*	*	*k[b-e-]	*	*	*	*k[b-e-]	*	*	*	*k[b-e-]	*	*	*	*k[b-e-]	*	*	*	*k[b-e-]	*	*	*	*
*M2/4	*M2/4	*	*M2/4	*	*	*M2/4	*	*	*	*M2/4	*	*	*	*M2/4	*	*	*	*M2/4	*	*	*	*M2/4	*	*	*	*
*	*	*	*	*	*	*	*	*	*	*^	*	*	*	*	*	*	*	*	*	*	*	*	*	*	*	*
!	!	!	!LO:TX:a:Bi:t=Andantino	!	!	!	!	!	!	!LO:TX:a:Bi:t=Andantino	!	!	!	!	!LO:TX:a:Bi:t=Andantino	!	!	!	!LO:TX:a:Bi:t=Andantino	!	!	!	!LO:TX:a:Bi:t=Andantino	!	!	!	!
8c 8A 8F\	8cc 8a 8f/	.	8F\	daj-	.	8F/	daj-	.	.	8F/	4ryy	daj-	.	.	8F\	daj-	.	.	8F/	daj-	.	.	8F/	daj-	.	.	.
8r	8r	.	8F\	-ćie	.	8F/	-ćie	.	.	8F/	.	-ćie	.	.	8F\	-ćie	.	.	8F/	-ćie	.	.	8F/	-ćie	.	.	.
(4F\	(4ff\	.	4F\	piia-	.	4f\	piia-	.	.	4f\	4rF	piia-	.	.	4F\	piia-	.	.	4F/	piia-	.	.	4F/	pi-	.	.	.
*	*	*	*	*	*	*	*	*	*	*v	*v	*	*	*	*	*	*	*	*	*	*	*	*	*	*	*	*
!	!	!	!	!	!	!	!	!	!	!LO:LB:g=original	!	!	!	!	!	!	!	!	!	!	!	!	!	!	!	!
=12	=12	=12	=12	=12	=12	=12	=12	=12	=12	=12	=12	=12	=12	=12	=12	=12	=12	=12	=12	=12	=12	=12	=12	=12	=12	=12
8FF/)	8f/)	.	4F\	-no	.	4F/	-no	.	.	4F/	-no	.	.	4F\	-no	.	.	4F/	-no	.	.	4F/	-ia-	.	.	.
8r	8r	.	.	.	.	.	.	.	.	.	.	.	.	.	.	.	.	.	.	.	.	.	.	.	.	.
(4F\	(4ff\	.	4F\	piia-	.	4f\	piia-	.	.	4f\	piia-	.	.	4F\	piia-	.	.	4F/	piia-	.	.	4F/	-no	.	.	.
!LO:PB:g=original	!LO:PB:g=original	!	!LO:LB:g=original	!	!	!	!	!	!	!	!	!	!	!	!	!	!	!	!	!	!	!	!	!	!	!
=13	=13	=13	=13	=13	=13	=13	=13	=13	=13	=13	=13	=13	=13	=13	=13	=13	=13	=13	=13	=13	=13	=13	=13	=13	=13	=13
!LO:TX:t=P:problem:brak zakończenia łuku	!LO:TX:t=P:problem:brak zakończenia łuku	!	!	!	!	!	!	!	!	!	!	!	!	!	!	!	!	!	!	!	!	!	!	!	!	!
4FF/)	4f/)	.	4F\	-no	.	4F/	-no	.	.	4F/	-no	.	.	4F\	-no	.	.	4F/	-no	.	.	4F/	pi-	.	.	.
4r	4r	.	4r	.	.	4r	.	.	.	4r	.	.	.	4F\	piia-	.	.	4F/	piia-	.	.	4F/	-ia-	.	.	.
=14	=14	=14	=14	=14	=14	=14	=14	=14	=14	=14	=14	=14	=14	=14	=14	=14	=14	=14	=14	=14	=14	=14	=14	=14	=14	=14
!	!	!	!LO:TX:a:t=1.	!	!	!LO:TX:a:t=1.	!	!	!	!LO:TX:a:t=1.	!	!	!	!	!	!	!	!	!	!	!	!	!	!	!	!
2r	2r	.	2r	.	.	2r	.	.	.	2r	.	.	.	4F\	-nis-	.	.	4F/	-niſ-	.	.	4F/	-niſ-	.	.	.
.	.	.	.	.	.	.	.	.	.	.	.	.	.	4F\	-ſi-	.	.	4F/	-si-	.	.	4F/	-si-	.	.	.
=15	=15	=15	=15	=15	=15	=15	=15	=15	=15	=15	=15	=15	=15	=15	=15	=15	=15	=15	=15	=15	=15	=15	=15	=15	=15	=15
4r	4r	.	4r	.	.	4r	.	.	.	4r	.	.	.	4F\	-mo	.	.	4F/	-mo	.	.	4F/	-mo,	.	.	.
8.r	8.r	.	8.r	.	.	8.r	.	.	.	8.r	.	.	.	8.r	.	.	.	8.r	.	.	.	8.r	.	.	.	.
!	!	!LO:DY:rj	!	!	!LO:DY:rj:a	!	!	!	!LO:DY:rj:a	!	!	!	!LO:DY:rj:a	!	!	!	!LO:DY:rj:a	!	!	!	!LO:DY:rj:a	!	!	!	!	!LO:DY:rj:a
16f 16F\	16fff 16ff\	f	16F\	for-	f	16f\	for-	.	f	16f\	for-	.	f	16F\	for-	.	f	16f\	for-	.	f	16f\	for-	.	.	f
!	!	!	!	!	!	!LO:LB:g=original	!	!	!	!	!	!	!	!LO:LB:g=original	!	!	!	!LO:LB:g=original	!	!	!	!LO:LB:g=original	!	!	!	!
=16	=16	=16	=16	=16	=16	=16	=16	=16	=16	=16	=16	=16	=16	=16	=16	=16	=16	=16	=16	=16	=16	=16	=16	=16	=16	=16
4e- 4E-\	4eee- 4ee-\	.	4e-\	-te	.	4e-\	-te	.	.	4e-\	-te	.	.	4e-\	-te	.	.	4e-\	-te	.	.	4e-\	-te	.	.	.
4c 4C\	4ccc 4cc\	.	4c\	do	.	4c\	do	.	.	4c\	do	.	.	4c\	do	.	.	4c\	do	.	.	4c\	do	.	.	.
=17	=17	=17	=17	=17	=17	=17	=17	=17	=17	=17	=17	=17	=17	=17	=17	=17	=17	=17	=17	=17	=17	=17	=17	=17	=17	=17
4A 4AA\	4aa 4a\	.	4A\	fa	.	4A\	la	.	.	4A\	la	.	.	4A\	la	.	.	4A\	la	.	.	4A\	la	.	.	.
8.r	8.r	.	4r	.	.	4r	.	.	.	4r	.	.	.	8.r	.	.	.	8.r	.	.	.	8.r	.	.	.	.
!	!	!LO:DY:rj	!	!	!	!	!	!	!	!	!	!	!	!	!	!	!LO:DY:rj:a	!	!	!	!LO:DY:rj:a	!	!	!	!	!
16c\	16cc\	p	.	.	.	.	.	.	.	.	.	.	.	16c\	piia-	.	p	16c\	piia-	.	p	16c\	pia-	.	.	.
!	!	!	!	!	!	!	!	!	!	!LO:LB:g=original	!	!	!	!	!	!	!	!	!	!	!	!	!	!	!	!
=18	=18	=18	=18	=18	=18	=18	=18	=18	=18	=18	=18	=18	=18	=18	=18	=18	=18	=18	=18	=18	=18	=18	=18	=18	=18	=18
!	!	!	!LO:TX:t=P:problem:brak taktów nr 19-20	!	!	!LO:TX:t=P:problem:brak taktów nr 19-20	!	!	!	!LO:TX:t=P:problem:brak taktów nr 19-20	!	!	!	!	!	!	!	!	!	!	!	!	!	!	!	!
4A\	4a/	.	2ryy	.	.	2ryy	.	.	.	2ryy	.	.	.	4A\	-no	.	.	4A\	-no	.	.	4A\	-no	.	.	.
4c\	4cc/	.	.	.	.	.	.	.	.	.	.	.	.	4c\	do	.	.	4c\	do	.	.	4c\	do	.	.	.
=19	=19	=19	=19	=19	=19	=19	=19	=19	=19	=19	=19	=19	=19	=19	=19	=19	=19	=19	=19	=19	=19	=19	=19	=19	=19	=19
4F\	4f/	.	2ryy	.	.	2ryy	.	.	.	2ryy	.	.	.	8F\	fa	.	.	8F/	fa	.	.	8F/	fa	[[sol]]	.	.
.	.	.	.	.	.	.	.	.	.	.	.	.	.	8r	.	.	.	8r	.	.	.	8r	.	.	.	.
!	!	!	!	!	!	!	!	!	!	!	!	!	!	!LO:TX:t=P:problem:dopisany ołówkiem pusty takt	!	!	!	!	!	!	!	!	!	!	!	!
4r	4r	.	.	.	.	.	.	.	.	.	.	.	.	4r	.	.	.	8.F/	Tam	.	.	4r	.	.	.	.
.	.	.	.	.	.	.	.	.	.	.	.	.	.	.	.	.	.	16F/	tam	.	.	.	.	.	.	.
!LO:LB:g=original	!LO:LB:g=original	!	!	!	!	!	!	!	!	!	!	!	!	!	!	!	!	!	!	!	!	!	!	!	!	!
=20	=20	=20	=20	=20	=20	=20	=20	=20	=20	=20	=20	=20	=20	=20	=20	=20	=20	=20	=20	=20	=20	=20	=20	=20	=20	=20
4r	4r	.	4r	.	.	4r	.	.	.	4r	.	.	.	4r	.	.	.	4F/	bur	.	.	4r	.	.	.	.
!	!	!LO:DY:rj	!	!	!LO:DY:rj:a	!	!	!	!LO:DY:rj:a	!	!	!	!LO:DY:rj:a	!	!	!	!LO:DY:rj:a	!	!	!	!LO:DY:rj:a	!	!	!	!	!LO:DY:rj:a
8.FL 8.FF/	8.ffL 8.f/	f	8.F\	A	f	8.F/	A	.	f	8.f\	A	.	f	8.F\	A	.	f	8.F/	A	.	f	8.f\	A	.	.	f
16FJk 16FF/	16ffJk 16f/	.	16F\	tu	.	16F/	tu	.	.	16f\	tu	.	.	16F\	tu	.	.	16F/	tu	.	.	16f\	tam	.	.	.
!	!	!	!LO:LB:g=original	!	!	!	!	!	!	!	!	!	!	!LO:LB:g=original	!	!	!	!LO:LB:g=original	!	!	!	!LO:LB:g=original	!	!	!	!
=21	=21	=21	=21	=21	=21	=21	=21	=21	=21	=21	=21	=21	=21	=21	=21	=21	=21	=21	=21	=21	=21	=21	=21	=21	=21	=21
8F 8FF/	8f/	.	8F\	las	.	8F/	las	.	.	8F/	las	.	.	8F\	las	.	.	8F/	las	.	.	8F/	las	.	.	.
4E- 4EE-/	4g-X 4e-^/	.	4E-X^\	czys-	.	4G-X^>/	czys-	[[spie-	.	4G-X/	czys-	.	.	4E-X\	czys-	.	.	4G-X/	Czys-	.	.	4G-X/	czys-	.	.	.
8E- 8EE-/	8cc 8g- 8e-/	.	8E-\	-to	.	8G-/	-to	-waj	.	8c\	-to	.	.	8E-\	-to	.	.	8G-/	-to	.	.	8c\	-to	.	.	.
=22	=22	=22	=22	=22	=22	=22	=22	=22	=22	=22	=22	=22	=22	=22	=22	=22	=22	=22	=22	=22	=22	=22	=22	=22	=22	=22
8D-XL 8DD-X/	8b-L 8f/	.	8D-X/	śpie-	.	8F/	śpie-	Kaz-	.	8B-\	spie-	.	.	8D-X/	śpie-	.	.	8F/	spie-	.	.	8B-\	spie-	.	.	.
8BB- 8BBB-/	8dd-X 8f/	.	8BB-/	-waj	.	8F/	-waj	-dy	.	8d-X\	-waj	.	.	8BB-/	-waj	.	.	8F/	-waj	.	.	8d-X\	-waj	.	.	.
8E- 8EE-/	8gg-X 8g-X/	.	8E-\	Każ-	.	8G-X/	Kaz-	czys]]	.	8g-X\	Kaz-	.	.	8E-\	Każ-	.	.	8G-X/	Każ-	.	.	8g-X\	Kaz-	.	.	.
8G-XJ 8GG-X/	8ee-J 8b-/	.	8G-X\	-dy	.	8B-\	-dy	.	.	8e-\	-dy	.	.	8G-X\	-dy	.	.	8B-\	-dy	.	.	8e-\	-dy	.	.	.
!	!	!	!	!	!	!LO:LB:g=original	!	!	!	!	!	!	!	!	!	!	!	!	!	!	!	!	!	!	!	!
=23	=23	=23	=23	=23	=23	=23	=23	=23	=23	=23	=23	=23	=23	=23	=23	=23	=23	=23	=23	=23	=23	=23	=23	=23	=23	=23
4F 4FF/	4ff 4a/	.	4F\	z_nas	.	4A\	z_nas	.	.	4f\	z_nas	.	.	4F\	z_nas	.	.	4A\	z_nas.	.	.	4f\	z_nas,	.	.	.
!	!	!LO:DY:rj	!	!	!	!	!	!	!	!	!	!	!	!LO:TX:a:i:t=dolce	!	!	!	!LO:TX:a:t=dolce	!	!	!	!	!	!	!	!LO:DY:rj:a
4F 4FF/	4ff 4a\	p	4r	.	.	4r	.	.	.	4r	.	.	.	4F\	Ah	.	.	4A\	Ah	.	.	4f\	Ah	.	.	p
!	!	!	!	!	!	!	!	!	!	!LO:LB:g=original	!	!	!	!	!	!	!	!	!	!	!	!	!	!	!	!
=24	=24	=24	=24	=24	=24	=24	=24	=24	=24	=24	=24	=24	=24	=24	=24	=24	=24	=24	=24	=24	=24	=24	=24	=24	=24	=24
4F 4FF/	4ee- 4cc\	.	4r	.	.	4r	.	.	.	4r	.	.	.	4F\	Ja-	.	.	4c\	Ja-	.	.	4e-\	Ja-	.	.	.
!	!LO:N:vis=16	!	!	!	!	!	!	!	!	!	!	!	!	!	!	!	!	!	!	!	!	!	!	!	!	!
8F 8FF/	8cc 8a\	.	8.r	.	.	8.r	.	.	.	8.r	.	.	.	8F\	-nie	.	.	8A\	-nie	.	.	8c\	-nie	.	.	.
16r	16r	.	.	.	.	.	.	.	.	.	.	.	.	16r	.	.	.	16r	.	.	.	16r	.	.	.	.
!	!	!LO:DY:rj	!	!	!	!	!	!	!	!	!	!	!LO:DY:rj:a	!	!	!	!LO:DY:rj:a	!	!	!	!LO:DY:rj:a	!	!	!	!	!LO:DY:rj:a
16F 16FF/	16f/	f	16F\	i	.	16F/	i	.	.	16F/	i	.	f	16F\	i	.	f	16F/	I	.	f	16F/	i	.	.	f
!	!	!	!LO:LB:g=original	!	!	!	!	!	!	!	!	!	!	!LO:LB:g=original	!	!	!	!LO:LB:g=original	!	!	!	!LO:LB:g=original	!	!	!	!
=25	=25	=25	=25	=25	=25	=25	=25	=25	=25	=25	=25	=25	=25	=25	=25	=25	=25	=25	=25	=25	=25	=25	=25	=25	=25	=25
4F 4FF/	4f/	.	4F\	cóż	.	4F/	cóż	.	.	4F/	cóż	.	.	4F\	cóż	.	.	4F/	cóż	.	.	4F/	cóż	.	.	.
!	!LO:TX:a:i:t=teraz Solo serie\na chóry obligacyą udziałową.	!	!	!	!	!	!	!	!	!LO:TX:a:t=Proza	!	!	!	!	!	!	!	!	!	!	!	!	!	!	!	!
4r	4r;	.	4r	.	.	4r	.	.	.	4r	.	.	.	4r	.	.	.	4r	.	.	.	4r;	.	.	.	.
!LO:LB:g=original	!LO:LB:g=original	!	!	!	!	!	!	!	!	!	!	!	!	!	!	!	!	!	!	!	!	!	!	!	!	!
=26!|:	=26!|:	=26!|:	=26!|:	=26!|:	=26!|:	=26!|:	=26!|:	=26!|:	=26!|:	=26!|:	=26!|:	=26!|:	=26!|:	=26!|:	=26!|:	=26!|:	=26!|:	=26!|:	=26!|:	=26!|:	=26!|:	=26!|:	=26!|:	=26!|:	=26!|:	=26!|:
*>B	*>B	*>B	*>B	*>B	*>B	*>B	*>B	*>B	*>B	*>B	*>B	*>B	*>B	*>B	*>B	*>B	*>B	*>B	*>B	*>B	*>B	*>B	*>B	*>B	*>B	*>B
!	!	!	!LO:TX:a:t=proza	!	!	!LO:TX:a:t=proza	!	!	!	!	!	!	!	!	!	!	!	!	!	!	!	!	!	!	!	!
!	!	!LO:DY:rj	!LO:TX:a:t=16.	!	!	!LO:TX:a:t=16.	!	!	!	!LO:TX:a:t=16.	!	!	!	!	!	!	!LO:DY:rj:a	!	!	!	!LO:DY:rj:a	!LO:TX:a:i:t=dolce	!	!	!	!LO:DY:rj:a
8dL 8B-\	8b-L 8f/	mf	2r	.	.	2r	.	.	.	2r	.	.	.	8BB-/	1.)_Nie	2.)_Zpę-	mf	8Dn/	1.)_Nie	2.)_Zpę-	mf	8B-\	1.)_Nie	2._Zpę-	.	mf
8c 8A\	8cc 8f/	.	.	.	.	.	.	.	.	.	.	.	.	8AA/	zwy-	-dził	.	8F/	zwy-	-dził	.	8c\	zwy-	-dził	.	.
8d 8B-\	8dd 8b- 8f/	.	.	.	.	.	.	.	.	.	.	.	.	8BB-/	-cza-	ży-	.	8B-\	-cza-	zy-	.	8d\	-cza-	ży-	.	.
8fJ 8B- 8G\	8ffJ 8b- 8g/	.	.	.	.	.	.	.	.	.	.	.	.	8G\	-iu	-ćia	.	8B-\	-iu	-ćia	.	8e-\	-iu	-ćia	.	.
=27	=27	=27	=27	=27	=27	=27	=27	=27	=27	=27	=27	=27	=27	=27	=27	=27	=27	=27	=27	=27	=27	=27	=27	=27	=27	=27
8c 8A 8F\	8cc 8a/	.	2r	.	.	2r	.	.	.	2r	.	.	.	4.F\	bieg	wiek	.	4.A\	bieg	wiek	.	4.c\	bieg	wiek	.	.
32r	32r	.	.	.	.	.	.	.	.	.	.	.	.	.	.	.	.	.	.	.	.	.	.	.	.	.
(8qBB-/	.	.	.	.	.	.	.	.	.	.	.	.	.	.	.	.	.	.	.	.	.	.	.	.	.	.
32AA/LLL)	32ff\LLL	.	.	.	.	.	.	.	.	.	.	.	.	.	.	.	.	.	.	.	.	.	.	.	.	.
32C/	32aa\	.	.	.	.	.	.	.	.	.	.	.	.	.	.	.	.	.	.	.	.	.	.	.	.	.
32E-/JJJ	32ccc\JJJ	.	.	.	.	.	.	.	.	.	.	.	.	.	.	.	.	.	.	.	.	.	.	.	.	.
8A/	8fff\	.	.	.	.	.	.	.	.	.	.	.	.	.	.	.	.	.	.	.	.	.	.	.	.	.
8r	8r	.	.	.	.	.	.	.	.	.	.	.	.	8r	.	.	.	8r	.	.	.	8r	.	.	.	.
=28	=28	=28	=28	=28	=28	=28	=28	=28	=28	=28	=28	=28	=28	=28	=28	=28	=28	=28	=28	=28	=28	=28	=28	=28	=28	=28
*clefF4	*	*	*	*	*	*	*	*	*	*	*	*	*	*	*	*	*	*	*	*	*	*	*	*	*	*
8dL 8B-\	8b-L 8f/	.	2r	.	.	2r	.	.	.	2r	.	.	.	8BB-/	Lecz	Jak	.	8D/	Lecz	Jak	.	8B-\	Lecz	Jak	.	.
8c 8A\	8cc 8f/	.	.	.	.	.	.	.	.	.	.	.	.	8AA/	przy-	do	.	8F/	przy-	do	.	8c\	przy-	do	.	.
8d 8B-\	8dd 8b- 8f/	.	.	.	.	.	.	.	.	.	.	.	.	8BB-/	-ia-	te-	.	8B-\	-ia-	te-	.	8d\	-ia-	te-	.	.
8e-J 8B- 8G\	8ee-J 8b- 8g/	.	.	.	.	.	.	.	.	.	.	.	.	8G\	-ćioł	-go	.	8B-\	-ćioł	-go	.	8e-\	-ćioł	-go	.	.
!	!	!	!	!	!	!	!	!	!	!	!	!	!	!LO:LB:g=original	!	!	!	!	!	!	!	!LO:LB:g=original	!	!	!	!
=29	=29	=29	=29	=29	=29	=29	=29	=29	=29	=29	=29	=29	=29	=29	=29	=29	=29	=29	=29	=29	=29	=29	=29	=29	=29	=29
8c 8A 8F\	8cc 8a/	.	2r	.	.	2r	.	.	.	2r	.	.	.	4F\	gro-	cza-	.	4A\	gro-	cza-	.	(4c\	gro-	cza-	.	.
32r	32r	.	.	.	.	.	.	.	.	.	.	.	.	.	.	.	.	.	.	.	.	.	.	.	.	.
32f>\LLL	32ff/LLL	.	.	.	.	.	.	.	.	.	.	.	.	.	.	.	.	.	.	.	.	.	.	.	.	.
32a>\	32aa/	.	.	.	.	.	.	.	.	.	.	.	.	.	.	.	.	.	.	.	.	.	.	.	.	.
32cc>\JJJ	32ccc/JJJ	.	.	.	.	.	.	.	.	.	.	.	.	.	.	.	.	.	.	.	.	.	.	.	.	.
.	.	.	.	.	.	.	.	.	.	.	.	.	.	.	.	.	.	.	.	.	.	16qqf/)	.	.	.	.
8ff>\	8fff/	.	.	.	.	.	.	.	.	.	.	.	.	8F\	-no	-su	.	8A\	-no	-su	.	8f\	-no	-su	.	.
8r	8r	.	.	.	.	.	.	.	.	.	.	.	.	8r	.	.	.	8r	.	.	.	8r	.	.	.	.
!	!	!	!	!	!	!	!	!	!	!	!	!	!	!	!	!	!	!LO:LB:g=original	!	!	!	!	!	!	!	!
=30	=30	=30	=30	=30	=30	=30	=30	=30	=30	=30	=30	=30	=30	=30	=30	=30	=30	=30	=30	=30	=30	=30	=30	=30	=30	=30
!	!	!	!	!	!	!	!	!	!	!	!	!	!	!	!	!	!LO:DY:rj:a	!	!	!	!LO:DY:rj:a	!	!	!	!	!LO:DY:rj:a
8B-L 8BB-\	8ddL 8b- 8f/	.	2r	.	.	2r	.	.	.	2r	.	.	.	8B-\	Zy-	Zy-	f	8B-\	Ży-	Zy-	f	8d\	Zy-	Ży-	.	f
8B- 8BB-\	8dd 8b- 8f/	.	.	.	.	.	.	.	.	.	.	.	.	8B-\	-czeń	-czy	.	8B-\	-czeń	-czy	.	8d\	-czeń	-czy	.	.
8A 8AA\	8ff#X 8cc 8a/	.	.	.	.	.	.	.	.	.	.	.	.	8A\	swo-	Kaz-	.	8c\	swo-	Każ-	.	8f#X\	swo-	Kaz-	.	.
8AJ 8AA\	8ddJ 8cc 8a/	.	.	.	.	.	.	.	.	.	.	.	.	8A\	-ich	-dy	.	8c\	-ich	-dy	.	8d\	-ich	-dy	.	.
=31	=31	=31	=31	=31	=31	=31	=31	=31	=31	=31	=31	=31	=31	=31	=31	=31	=31	=31	=31	=31	=31	=31	=31	=31	=31	=31
8G 8GG\	8gg 8dd 8b- 8g/	.	2r	.	.	2r	.	.	.	2r	.	.	.	4.G\	ster	człek	.	4.B-\	stek	człek	.	(4g\	stek	człek	.	.
32r	32r	.	.	.	.	.	.	.	.	.	.	.	.	.	.	.	.	.	.	.	.	.	.	.	.	.
32g>\LLL	32gg/LLL	.	.	.	.	.	.	.	.	.	.	.	.	.	.	.	.	.	.	.	.	.	.	.	.	.
32b->\	32bb-/	.	.	.	.	.	.	.	.	.	.	.	.	.	.	.	.	.	.	.	.	.	.	.	.	.
32dd>\JJJ	32ddd/JJJ	.	.	.	.	.	.	.	.	.	.	.	.	.	.	.	.	.	.	.	.	.	.	.	.	.
8gg>\	8ggg/	.	.	.	.	.	.	.	.	.	.	.	.	.	.	.	.	.	.	.	.	8d\)	.	.	.	.
8r	8r	.	.	.	.	.	.	.	.	.	.	.	.	8r	.	.	.	8r	.	.	.	8r	.	.	.	.
!LO:PB:g=original	!LO:PB:g=original	!	!	!	!	!	!	!	!	!	!	!	!	!	!	!	!	!	!	!	!	!	!	!	!	!
=32	=32	=32	=32	=32	=32	=32	=32	=32	=32	=32	=32	=32	=32	=32	=32	=32	=32	=32	=32	=32	=32	=32	=32	=32	=32	=32
!	!	!LO:DY:rj	!	!	!	!	!	!	!	!	!	!	!	!	!	!	!LO:DY:rj:a	!	!	!	!LO:DY:rj:a	!	!	!	!	!LO:DY:rj:a
8CL 8CC/	8ccL 8a 8f\	p	2r	.	.	2r	.	.	.	2r	.	.	.	8C/	skła-	z_na-	p	8A\	skła-	z_na-	p	8c\	skła-	z_na-	.	p
8C 8CC/	8ff 8a 8f\	.	.	.	.	.	.	.	.	.	.	.	.	8C/	-da	-sze-	.	8A\	-da	-sze-	.	8f\	-da	-sze-	.	.
!	!	!	!	!	!	!	!	!	!	!	!	!	!	!	!	!	!	!	!	!	!	!	!	!	!	!LO:HP:a
.	.	<	.	.	.	.	.	.	.	.	.	.	.	.	.	.	.	.	.	.	.	.	.	.	.	<
8BB- 8BBB-/	8dd 8b- 8f\	.	.	.	.	.	.	.	.	.	.	.	.	8BB-/	na	-go	.	8B-\	na	-go	.	8d\	na	-go	.	.
8CJ 8CC/	8eenJ 8b- 8g\	[[	.	.	.	.	.	.	.	.	.	.	.	8C/	Twe	par-	.	8G/	Twe	par-	.	8en\	twe	par-	.	[[
!	!	!	!	!	!	!	!	!	!	!	!	!	!	!LO:LB:g=original	!	!	!	!	!	!	!	!LO:LB:g=original	!	!	!	!
=33	=33	=33	=33	=33	=33	=33	=33	=33	=33	=33	=33	=33	=33	=33	=33	=33	=33	=33	=33	=33	=33	=33	=33	=33	=33	=33
!	!	!LO:DY:rj	!	!	!	!	!	!	!	!	!	!	!	!	!	!	!	!	!	!	!LO:DY:rj:a	!	!	!	!	!LO:DY:rj:a
8F 8FF/	8ff 8a 8f\	f	2r	.	.	2r	.	.	.	2r	.	.	.	4F\	ło-	-na-	.	4A/	ło-	-na-	f	4f\	ło-	-na-	.	f
32r	32r	.	.	.	.	.	.	.	.	.	.	.	.	.	.	.	.	.	.	.	.	.	.	.	.	.
32F\LLL	32ff\LLL	.	.	.	.	.	.	.	.	.	.	.	.	.	.	.	.	.	.	.	.	.	.	.	.	.
32C\	32cc\	.	.	.	.	.	.	.	.	.	.	.	.	.	.	.	.	.	.	.	.	.	.	.	.	.
32AA\JJJ	32a\JJJ	.	.	.	.	.	.	.	.	.	.	.	.	.	.	.	.	.	.	.	.	.	.	.	.	.
8FF/	8f/	.	.	.	.	.	.	.	.	.	.	.	.	8F\	-no	-su	.	8F/	-no	-su	.	8F/	-no	-su	.	.
8r	8r	.	.	.	.	.	.	.	.	.	.	.	.	8r	.	.	.	8r	.	.	.	8r	.	.	.	.
!	!	!	!	!	!	!	!	!	!	!	!	!	!	!	!	!	!	!LO:LB:g=original	!	!	!	!	!	!	!	!
=34	=34	=34	=34	=34	=34	=34	=34	=34	=34	=34	=34	=34	=34	=34	=34	=34	=34	=34	=34	=34	=34	=34	=34	=34	=34	=34
!	!	!LO:DY:rj	!	!	!	!	!	!	!	!	!	!	!	!	!	!	!LO:DY:rj:a	!	!	!	!LO:DY:rj:a	!	!	!	!	!LO:DY:rj:a
16C\LL	8cc\L	p	2r	.	.	2r	.	.	.	2r	.	.	.	8C/	Ja-	Przyj-	p	8B- 8G/	Ja-	Przyj-	p	8c\	Ja-	Przyj-	.	p
16c\	.	.	.	.	.	.	.	.	.	.	.	.	.	.	.	.	.	.	.	.	.	.	.	.	.	.
16B- 16G\	8cc\J	.	.	.	.	.	.	.	.	.	.	.	.	8C/	-nie	-miy	.	8B- 8G/	-nie	-mij	.	8c\	-nie	-miy	.	.
16c\JJ	.	.	.	.	.	.	.	.	.	.	.	.	.	.	.	.	.	.	.	.	.	.	.	.	.	.
.	8qeen/	.	.	.	.	.	.	.	.	.	.	.	.	.	.	.	.	.	.	.	.	8qen/	.	.	.	.
*rep	*	*	*	*	*	*	*	*	*	*	*	*	*	*	*	*	*	*	*	*	*	*	*	*	*	*
16C\LL	8dd\L	.	.	.	.	.	.	.	.	.	.	.	.	8C/	byś	więc	.	8B- 8G/	byś	więc	.	8d\	byś	więc	.	.
16c\	.	.	.	.	.	.	.	.	.	.	.	.	.	.	.	.	.	.	.	.	.	.	.	.	.	.
16B- 16G\	8cc\J	.	.	.	.	.	.	.	.	.	.	.	.	8E-\	zdrów	śpiew	.	8B- 8G/	zdrów	śpiew	.	8c\	zdrów	spiew	[[ten	.
16c\JJ	.	.	.	.	.	.	.	.	.	.	.	.	.	.	.	.	.	.	.	.	.	.	.	.	.	.
*Xrep	*	*	*	*	*	*	*	*	*	*	*	*	*	*	*	*	*	*	*	*	*	*	*	*	*	*
=35	=35	=35	=35	=35	=35	=35	=35	=35	=35	=35	=35	=35	=35	=35	=35	=35	=35	=35	=35	=35	=35	=35	=35	=35	=35	=35
16F\LL	(16ff\LL	.	2r	.	.	2r	.	.	.	2r	.	.	.	4.F\	był	ten	.	4.A/	był	ten	.	4.f\	był	ten	spiew]]	.
16c\	16gg\)	.	.	.	.	.	.	.	.	.	.	.	.	.	.	.	.	.	.	.	.	.	.	.	.	.
16A\	16aa'\	.	.	.	.	.	.	.	.	.	.	.	.	.	.	.	.	.	.	.	.	.	.	.	.	.
16c\JJ	16aa'\JJ	.	.	.	.	.	.	.	.	.	.	.	.	.	.	.	.	.	.	.	.	.	.	.	.	.
*rep	*	*	*	*	*	*	*	*	*	*	*	*	*	*	*	*	*	*	*	*	*	*	*	*	*	*
16F\LL	(16aa\LL	.	.	.	.	.	.	.	.	.	.	.	.	.	.	.	.	.	.	.	.	.	.	.	.	.
16c\	16bb-\)	.	.	.	.	.	.	.	.	.	.	.	.	.	.	.	.	.	.	.	.	.	.	.	.	.
16A\	16ccc'\	.	.	.	.	.	.	.	.	.	.	.	.	8r	.	.	.	8r	.	.	.	8r	.	.	.	.
16c\JJ	16ccc'\JJ	.	.	.	.	.	.	.	.	.	.	.	.	.	.	.	.	.	.	.	.	.	.	.	.	.
*Xrep	*	*	*	*	*	*	*	*	*	*	*	*	*	*	*	*	*	*	*	*	*	*	*	*	*	*
!LO:LB:g=original	!LO:LB:g=original	!	!	!	!	!	!	!	!	!	!	!	!	!	!	!	!	!	!	!	!	!	!	!	!	!
=36	=36	=36	=36	=36	=36	=36	=36	=36	=36	=36	=36	=36	=36	=36	=36	=36	=36	=36	=36	=36	=36	=36	=36	=36	=36	=36
16C\LL	8.eeenL 8.eeny\	.	2r	.	.	2r	.	.	.	2r	.	.	.	8.C/	za-	Ty	.	8.B-\	Zaw-	Ty	.	8.en\	Zaw-	Ty	.	.
16c\	.	.	.	.	.	.	.	.	.	.	.	.	.	.	.	.	.	.	.	.	.	.	.	.	.	.
16B- 16G\	.	.	.	.	.	.	.	.	.	.	.	.	.	.	.	.	.	.	.	.	.	.	.	.	.	.
16c\JJ	16dddK 16dd\	.	.	.	.	.	.	.	.	.	.	.	.	16C/	-wsze	sza-	.	16B-\	-sze	sza-	.	16d\	-sze	sza-	.	.
*rep	*	*	*	*	*	*	*	*	*	*	*	*	*	*	*	*	*	*	*	*	*	*	*	*	*	*
16C\LL	8ccc 8cc\	.	.	.	.	.	.	.	.	.	.	.	.	8C/	w_kaz-	-no-	.	8G/	w_Kaz-	-no-	.	8c\	w_kaz-	-no-	.	.
16c\	.	.	.	.	.	.	.	.	.	.	.	.	.	.	.	.	.	.	.	.	.	.	.	.	.	.
16B- 16G\	8bb-J 8b-\	.	.	.	.	.	.	.	.	.	.	.	.	8C/	-dej	-wny	.	8G/	-dej	-wny	.	8B-\	-dej	-wny	.	.
16c\JJ	.	.	.	.	.	.	.	.	.	.	.	.	.	.	.	.	.	.	.	.	.	.	.	.	.	.
*Xrep	*	*	*	*	*	*	*	*	*	*	*	*	*	*	*	*	*	*	*	*	*	*	*	*	*	*
!	!	!	!	!	!	!	!	!	!	!	!	!	!	!	!	!	!	!	!	!	!	!LO:LB:g=original	!	!	!	!
=37	=37	=37	=37	=37	=37	=37	=37	=37	=37	=37	=37	=37	=37	=37	=37	=37	=37	=37	=37	=37	=37	=37	=37	=37	=37	=37
16F\LL	(8.aaL 8.a\	.	2r	.	.	2r	.	.	.	2r	.	.	.	4F\	do-	Ja-	.	8.F/L	do-	Ja-	.	(8.A\L	do-	Ja-	.	.
16c\	.	.	.	.	.	.	.	.	.	.	.	.	.	.	.	.	.	.	.	.	.	.	.	.	.	.
16A\	.	.	.	.	.	.	.	.	.	.	.	.	.	.	.	.	.	.	.	.	.	.	.	.	.	.
16c\JJ	16cccJk 16cc\)	.	.	.	.	.	.	.	.	.	.	.	.	.	.	.	.	16A/Jk	.	.	.	16c\Jk)	.	.	.	.
*rep	*	*	*	*	*	*	*	*	*	*	*	*	*	*	*	*	*	*	*	*	*	*	*	*	*	*
16F\LL	4ccc 4cc\	.	.	.	.	.	.	.	.	.	.	.	.	4F\	-bie	-nie	.	4A/	-bie	-nie	.	4c\	-bie	-nie	.	.
16c\	.	.	.	.	.	.	.	.	.	.	.	.	.	.	.	.	.	.	.	.	.	.	.	.	.	.
16A\	.	.	.	.	.	.	.	.	.	.	.	.	.	.	.	.	.	.	.	.	.	.	.	.	.	.
16c\JJ	.	.	.	.	.	.	.	.	.	.	.	.	.	.	.	.	.	.	.	.	.	.	.	.	.	.
*Xrep	*	*	*	*	*	*	*	*	*	*	*	*	*	*	*	*	*	*	*	*	*	*	*	*	*	*
!	!	!	!	!	!	!	!	!	!	!	!	!	!	!LO:LB:g=original	!	!	!	!	!	!	!	!	!	!	!	!
=38	=38	=38	=38	=38	=38	=38	=38	=38	=38	=38	=38	=38	=38	=38	=38	=38	=38	=38	=38	=38	=38	=38	=38	=38	=38	=38
!	!	!	!	!	!	!	!	!	!	!	!	!	!	!LO:TX:t=P:problem:zmiana ołówkiem na 8C	!	!	!LO:DY:rj:a	!	!	!	!LO:DY:rj:a	!	!	!	!	!LO:DY:rj:a
16C\LL	8cc\L	.	2r	.	.	2r	.	.	.	2r	.	.	.	8BB-/	Do-	Bo	f	8B- 8G/	Do-	Bo	f	8c\	Do-	Bo	.	f
16c\	.	.	.	.	.	.	.	.	.	.	.	.	.	.	.	.	.	.	.	.	.	.	.	.	.	.
!	!	!	!	!	!	!	!	!	!	!	!	!	!	!LO:TX:t=P:problem:zmiana ołówkiem na 8C	!	!	!	!	!	!	!	!	!	!	!	!
16B- 16G\	8cc\	.	.	.	.	.	.	.	.	.	.	.	.	8BB-/	-brze	to	.	8B- 8G/	-brze	to	.	8c\	-brze	to	.	.
16c\JJ	.	.	.	.	.	.	.	.	.	.	.	.	.	.	.	.	.	.	.	.	.	.	.	.	.	.
.	8qeen/	.	.	.	.	.	.	.	.	.	.	.	.	.	.	.	.	.	.	.	.	8qen/	.	.	.	.
*rep	*	*	*	*	*	*	*	*	*	*	*	*	*	*	*	*	*	*	*	*	*	*	*	*	*	*
16C\LL	8dd\	.	.	.	.	.	.	.	.	.	.	.	.	8C/	iadł	nie	.	8B- 8G/	iadł	nie	.	8d\	iadł	nie	.	.
16c\	.	.	.	.	.	.	.	.	.	.	.	.	.	.	.	.	.	.	.	.	.	.	.	.	.	.
16B- 16G\	8cc\J	.	.	.	.	.	.	.	.	.	.	.	.	8C/	i	przez	.	8B- 8G/	i	przez	.	8c\	i	przez	.	.
16c\JJ	.	.	.	.	.	.	.	.	.	.	.	.	.	.	.	.	.	.	.	.	.	.	.	.	.	.
*Xrep	*	*	*	*	*	*	*	*	*	*	*	*	*	*	*	*	*	*	*	*	*	*	*	*	*	*
!	!	!	!	!	!	!	!	!	!	!	!	!	!	!	!	!	!	!LO:LB:g=original	!	!	!	!	!	!	!	!
=39	=39	=39	=39	=39	=39	=39	=39	=39	=39	=39	=39	=39	=39	=39	=39	=39	=39	=39	=39	=39	=39	=39	=39	=39	=39	=39
16D\LL	(16ff\LL	.	2r	.	.	2r	.	.	.	2r	.	.	.	4.D\	pił	sen	.	4.A/	pił	sen	.	4.f\	pił	sen	.	.
16A\	16een\	.	.	.	.	.	.	.	.	.	.	.	.	.	.	.	.	.	.	.	.	.	.	.	.	.
16F\	16ff\	.	.	.	.	.	.	.	.	.	.	.	.	.	.	.	.	.	.	.	.	.	.	.	.	.
16A\JJ	16gg\JJ	.	.	.	.	.	.	.	.	.	.	.	.	.	.	.	.	.	.	.	.	.	.	.	.	.
*rep	*	*	*	*	*	*	*	*	*	*	*	*	*	*	*	*	*	*	*	*	*	*	*	*	*	*
16D\LL	16aa\LL	.	.	.	.	.	.	.	.	.	.	.	.	.	.	.	.	.	.	.	.	.	.	.	.	.
16A\	16gg\	.	.	.	.	.	.	.	.	.	.	.	.	.	.	.	.	.	.	.	.	.	.	.	.	.
16F\	16ff\	.	.	.	.	.	.	.	.	.	.	.	.	8r	.	.	.	8r	.	.	.	8r	.	.	.	.
16A\JJ	16ee\JJ)	.	.	.	.	.	.	.	.	.	.	.	.	.	.	.	.	.	.	.	.	.	.	.	.	.
*Xrep	*	*	*	*	*	*	*	*	*	*	*	*	*	*	*	*	*	*	*	*	*	*	*	*	*	*
!LO:LB:g=original	!LO:LB:g=original	!	!	!	!	!	!	!	!	!	!	!	!	!	!	!	!	!	!	!	!	!	!	!	!	!
=40	=40	=40	=40	=40	=40	=40	=40	=40	=40	=40	=40	=40	=40	=40	=40	=40	=40	=40	=40	=40	=40	=40	=40	=40	=40	=40
!	!	!LO:DY:rj	!	!	!	!	!	!	!	!	!	!	!	!	!	!	!	!	!	!	!	!	!	!	!	!
8B-L 8BB-\	8dd\L	f	2r	.	.	2r	.	.	.	2r	.	.	.	8BB-/	Te-	Wi-	.	8B-\	Te-	Wi-	.	8d\	Te-	Wi-	.	.
8B-J 8G 8D 8BB-\	8ggJ 8dd 8b-\	.	.	.	.	.	.	.	.	.	.	.	.	8BB-/	-go	-dzisz	.	8B-\	-go	-dzisz	.	8g\	-go	-dzisz	.	.
8cL 8A 8F 8C\	8ccL 8a\	.	.	.	.	.	.	.	.	.	.	.	.	8C/	zy-	nas	.	8A\	ży-	nas	.	8c\	ży-	nas	.	.
8cJ 8G 8C\	8eenJ 8cc 8b-X 8g\	.	.	.	.	.	.	.	.	.	.	.	.	8C/	-czem	tu	.	8G\	-czem	tu	.	8en\	-czem	tu	.	.
=41	=41	=41	=41	=41	=41	=41	=41	=41	=41	=41	=41	=41	=41	=41	=41	=41	=41	=41	=41	=41	=41	=41	=41	=41	=41	=41
8c 8A 8F\	8ff 8a 8f\	.	2r	.	.	2r	.	.	.	2r	.	.	.	4F\	To-	pa-	.	4A\	To-	pa-	.	4f\	to-	Pa-	.	.
32r	32r	.	.	.	.	.	.	.	.	.	.	.	.	.	.	.	.	.	.	.	.	.	.	.	.	.
32F\LLL	32f/LLL	.	.	.	.	.	.	.	.	.	.	.	.	.	.	.	.	.	.	.	.	.	.	.	.	.
32C\	32a/	.	.	.	.	.	.	.	.	.	.	.	.	.	.	.	.	.	.	.	.	.	.	.	.	.
32AA\JJJ	32cc/JJJ	.	.	.	.	.	.	.	.	.	.	.	.	.	.	.	.	.	.	.	.	.	.	.	.	.
8FF/	8ff\	.	.	.	.	.	.	.	.	.	.	.	.	8F\	-bie	-nie.	.	8F/	-bie	-nie.	.	8F/	-bie	-nie	.	.
!	!	!	!	!	!	!	!	!	!	!	!	!	!	!LO:TX:b:t=V&colon;S&colon;	!	!	!	!LO:TX:b:t=V&colon;S&colon;	!	!	!	!LO:TX:b:t=V&colon;S&colon;	!	!	!	!
8r;	8r;	.	.	.	.	.	.	.	.	.	.	.	.	8r	.	.	.	8r	.	.	.	8r	.	.	.	.
!	!	!	!	!	!	!LO:LB:g=original	!	!	!	!LO:LB:g=original	!	!	!	!LO:PB:g=original	!	!	!	!LO:PB:g=original	!	!	!	!LO:PB:g=original	!	!	!	!
=42:|!	=42:|!	=42:|!	=42:|!	=42:|!	=42:|!	=42:|!	=42:|!	=42:|!	=42:|!	=42:|!	=42:|!	=42:|!	=42:|!	=42:|!	=42:|!	=42:|!	=42:|!	=42:|!	=42:|!	=42:|!	=42:|!	=42:|!	=42:|!	=42:|!	=42:|!	=42:|!
*>C	*>C	*>C	*>C	*>C	*>C	*>C	*>C	*>C	*>C	*>C	*>C	*>C	*>C	*>C	*>C	*>C	*>C	*>C	*>C	*>C	*>C	*>C	*>C	*>C	*>C	*>C
*M3/4	*M3/4	*	*M3/4	*	*	*M3/4	*	*	*	*M3/4	*	*	*	*M3/4	*	*	*	*M3/4	*	*	*	*M3/4	*	*	*	*
!	!	!	!	!	!LO:DY:rj:a	!LO:TX:a:B:t=All.o. modto.	!	!	!LO:DY:rj:a	!	!	!	!	!LO:TX:a:Bi:t=Allo. mod.to.	!	!	!LO:DY:rj:a	!LO:TX:a:Bi:t=Allegro moderato.	!	!	!LO:DY:rj:a	!LO:TX:a:Bi:t=Allegro moderato.	!	!	!	!LO:DY:rj:a
(8F\L	(8f/L	.	8F\L	Z_gro-	f	(8F/L	Z_Gro-	.	f	(8F/L	Z_gro-	.	.	(8F\L	Z_gro-	.	f	(8F/L	Z_gro-	.	f	(8F/L	Z_gro-	.	.	f
8G\J)	8g/J)	.	8G\J	.	.	8G/J)	.	.	.	8G/J)	.	.	.	8G\J)	.	.	.	8G/J)	.	.	.	8G/J)	.	.	.	.
(8A\L	(8a/L	.	8A\L	-mem	.	(8A/L	-mem	.	.	(8A/L	-mem	.	.	(8A\L	-mem	.	.	(8A/L	-mem	.	.	(8A/L	-mem	.	.	.
8B-\J)	8b-/J)	.	8B-\J	.	.	8B-/J)	.	.	.	8B-/J)	.	.	.	8B-\J)	.	.	.	8B-/J)	.	.	.	8B-/J)	.	.	.	.
8c\L	(8cc/L	.	8c\	chmu-	.	8c\	chmu-	.	.	8c\	chmu-	.	.	8c\	chmu-	.	.	8c\	chmu-	.	.	8c\	chmu-	.	.	.
8B-\J	8b-/J)	.	8B-\	-rą	.	8B-\	-rą	.	.	8B-\	-ro	.	.	8B-\	ro	.	.	8B-\	-ro	.	.	8B-\	-rą	.	.	.
!	!	!	!LO:LB:g=original	!	!	!	!	!	!	!	!	!	!	!	!	!	!	!	!	!	!	!	!	!	!	!
=43	=43	=43	=43	=43	=43	=43	=43	=43	=43	=43	=43	=43	=43	=43	=43	=43	=43	=43	=43	=43	=43	=43	=43	=43	=43	=43
8A\L	(8a\L	.	8A\L	nie	.	(8A\L	nie	.	.	(8A\L	nie	.	.	(8A\L	nie	.	.	(8A\L	nie	.	.	(8A\L	nie	.	.	.
8B-\J	8b-\J)	.	8B-\J	.	.	8B-\J)	.	.	.	8B-\J)	.	.	.	8B-\J)	.	.	.	8B-\J)	.	.	.	8B-\J)	.	.	.	.
8c\L	(8cc\L	.	8c\L	prze-	.	(8c\L	prze-	.	.	8c\L	prze-	.	.	(8c\L	prze-	.	.	(8c\L	prze-	.	.	(8c\L	prze-	.	.	.
8d\J	8dd\J)	.	8d\J	.	.	8d\J)	.	.	.	8d\J	.	.	.	8d\J)	.	.	.	8d\J)	.	.	.	8d\J)	.	.	.	.
8e-\L	(8ee-\L	.	8e-\	-szka-	.	8e-\	-szka-	.	.	8e-\	-szka-	.	.	8e-\	-szka-	.	.	8e-\	-szka-	.	.	8e-\	-szka-	.	.	.
8c\J	8cc\J)	.	8c\	-dzaj	.	8c\	-dzaj	.	.	8c\	-dzaj	.	.	8c\	-dzaj	.	.	8c\	-dzaj	.	.	8c\	-dzaj	.	.	.
!LO:PB:g=original	!LO:PB:g=original	!	!	!	!	!	!	!	!	!	!	!	!	!LO:LB:g=original	!	!	!	!	!	!	!	!	!	!	!	!
=44	=44	=44	=44	=44	=44	=44	=44	=44	=44	=44	=44	=44	=44	=44	=44	=44	=44	=44	=44	=44	=44	=44	=44	=44	=44	=44
*^	*^	*	*	*	*	*	*	*	*	*	*	*	*	*	*	*	*	*	*	*	*	*	*	*	*	*
!	!	!	!	!	!LO:TX:a:t=3.	!	!	!LO:TX:a:t=3.	!	!	!	!LO:TX:a:t=3.	!	!	!LO:DY:rj:a	!	!	!	!LO:DY:rj:a	!	!	!	!LO:DY:rj:a	!	!	!	!	!LO:DY:rj:a
8F\L	2ryy	8f/L	4f\	.	2.r	.	.	2.r	.	.	.	2.r	.	.	p	(8F\L	ty	.	p	4F/	Ty	.	p	8F/L	Ty	.	.	p
8En\J	.	8g/J	.	.	.	.	.	.	.	.	.	.	.	.	.	8En\J)	.	.	.	.	.	.	.	8G/J	.	.	.	.
8E-X\L	.	8a/L	4f\	.	.	.	.	.	.	.	.	.	.	.	.	(8E-X\L	ze-	.	.	4F/	ze-	.	.	(8A/L	ze-	.	.	.
8D\J	.	8b-/J	.	.	.	.	.	.	.	.	.	.	.	.	.	8D\J)	.	.	.	.	.	.	.	8B-/J)	.	.	.	.
8C/L	8C\L	8ccL 8a/	4f\	.	.	.	.	.	.	.	.	.	.	.	.	8C\	-fi-	.	.	8F/	-fi-	.	.	8c\	-fi-	.	.	.
8D/J	8BB-\J	8b-/J	.	.	.	.	.	.	.	.	.	.	.	.	.	8D\	-rze	.	.	8F/	-rze	.	.	8B-\	-rze	.	.	.
*v	*v	*	*	*	*	*	*	*	*	*	*	*	*	*	*	*	*	*	*	*	*	*	*	*	*	*	*	*
!	!	!	!	!	!	!	!	!	!	!	!	!	!	!	!	!	!	!	!LO:LB:g=original	!	!	!	!LO:LB:g=original	!	!	!	!
=45	=45	=45	=45	=45	=45	=45	=45	=45	=45	=45	=45	=45	=45	=45	=45	=45	=45	=45	=45	=45	=45	=45	=45	=45	=45	=45	=45
8E-X\L	8a/L	4f\	.	2.r	.	.	2.r	.	.	.	2.r	.	.	.	(8E-\L	nas	.	.	2F/	nas	.	.	(8A\L	nas	.	.	.
8D\J	8b-/J	.	.	.	.	.	.	.	.	.	.	.	.	.	8D\J)	.	.	.	.	.	.	.	8B-\J)	.	.	.	.
8C/L	8ccL 8a/	4f\	.	.	.	.	.	.	.	.	.	.	.	.	8C/L	o-	.	.	.	.	.	.	(8c\L	o-	.	.	.
8BB-/J	8ddJ 8b-/	.	.	.	.	.	.	.	.	.	.	.	.	.	8BB-/J	.	.	.	.	.	.	.	8d\J)	.	.	.	.
4AA/	4ee- 4cc/	4f\	.	.	.	.	.	.	.	.	.	.	.	.	(>4AA/	-chła-	.	.	4F/	o-	.	.	([4e-\	-chła-	.	.	.
*	*v	*v	*	*	*	*	*	*	*	*	*	*	*	*	*	*	*	*	*	*	*	*	*	*	*	*	*
=46	=46	=46	=46	=46	=46	=46	=46	=46	=46	=46	=46	=46	=46	=46	=46	=46	=46	=46	=46	=46	=46	=46	=46	=46	=46	=46
4AA/	4ee- 4cc 4f/	.	2.r	.	.	2.r	.	.	.	2.r	.	.	.	4AA/	.	.	.	2.F/	-chła-	.	.	4e-\]	.	.	.	.
4BB-/	4dd 4b- 4f/	.	.	.	.	.	.	.	.	.	.	.	.	4BB-/	.	.	.	.	.	.	.	4d;\	.	.	.	.
4D 4DD/	4b- 4f/	.	.	.	.	.	.	.	.	.	.	.	.	4D/)	.	.	.	.	.	.	.	4B-\)	.	.	.	.
!	!	!	!	!	!	!	!	!	!	!LO:LB:g=original	!	!	!	!LO:LB:g=original	!	!	!	!	!	!	!	!	!	!	!	!
=47	=47	=47	=47	=47	=47	=47	=47	=47	=47	=47	=47	=47	=47	=47	=47	=47	=47	=47	=47	=47	=47	=47	=47	=47	=47	=47
2.F 2.FF;/	2.cc 2.a 2.f;/	.	2.r;	.	.	2.r;	.	.	.	2.r;	.	.	.	2.F;\	-dzaj	.	.	2.A;\	-dzaj	.	.	2.c;\	-dzaj	.	.	.
!	!	!	!	!	!	!LO:LB:g=original	!	!	!	!	!	!	!	!	!	!	!	!	!	!	!	!	!	!	!	!
=48||	=48||	=48||	=48||	=48||	=48||	=48||	=48||	=48||	=48||	=48||	=48||	=48||	=48||	=48||	=48||	=48||	=48||	=48||	=48||	=48||	=48||	=48||	=48||	=48||	=48||	=48||
!	!	!	!	!	!LO:DY:rj:a	!	!	!	!LO:DY:rj:a	!	!	!	!LO:DY:rj:a	!LO:TX:a:t=Choro	!	!	!LO:DY:rj:a	!LO:TX:a:t=Choro	!	!	!LO:DY:rj:a	!LO:TX:a:t=Choro	!	!	!	!LO:DY:rj:b
8.FL 8.D 8.BB-\	8.b-L 8.B-/	.	8.BB-/	Nie-	f	8.F 8.D/	Nie-	.	f	8.B-\	Nie-	[[Wi-	f	8.BB-/	Nie-	.	f	8.F 8.D/	Nie-	.	f	8.B-\	Nie-	.	.	f
16FJk 16D 16BB-\	16ddJk 16d/	.	16BB-/	-chaj	.	16F 16D/	-chaj	.	.	16d\	-chaj	-wat	.	16BB-/	-chaj	.	.	16F 16D/	-chaj	.	.	16d\	-chaj	.	.	.
4F 4D 4BB-\	4ff 4f/	.	4BB-/	w_Ja-	.	4F 4D/	w_Ja-	.	.	4f\	w_Ja-	wi-	.	4BB-/	w_Ja-	.	.	4F 4D/	w_Ja-	.	.	4f\	w_Ja-	.	.	.
4F 4D 4BB-\	4dd 4d/	.	4BB-/	-na	.	4F 4D/	-na	.	.	4d\	-na	-wat	.	4BB-/	-na	.	.	4F 4D/	-na	.	.	4d\	-na	.	.	.
!LO:LB:g=original	!LO:LB:g=original	!	!	!	!	!	!	!	!	!	!	!	!	!	!	!	!	!	!	!	!	!LO:LB:g=original	!	!	!	!
=49	=49	=49	=49	=49	=49	=49	=49	=49	=49	=49	=49	=49	=49	=49	=49	=49	=49	=49	=49	=49	=49	=49	=49	=49	=49	=49
8.FL 8.D 8.BB-\	8.b-L 8.B-/	.	8.BB-/	i-	.	8.F 8.D/	i-	.	.	8.B-\	i-	Jan	.	8.BB-/	i-	.	.	8.F 8.D/	i-	.	.	8.B-\	i-	.	.	.
16FJk 16D 16BB-\	16ddJk 16d/	.	16BB-/	-mie-	.	16F 16D/	-mie-	.	.	16d\	-mie-	ust]]	.	16BB-/	-mie-	.	.	16F 16D/	-mie-	.	.	16d\	-mie-	.	.	.
4F 4D 4BB-\	4ff 4f/	.	4BB-/	-ni-	.	4F 4D/	-ni-	.	.	4f\	-ni-	.	.	4BB-/	-ni-	.	.	4F 4D/	-ni-	.	.	4f\	-ni-	.	.	.
4F 4D 4BB-\	4dd 4d/	.	4BB-/	-ny	.	4F 4D/	-ny	.	.	4d\	-ny	.	.	4BB-/	-ny	.	.	4F 4D/	-ny	.	.	4d\	-ny	.	.	.
!	!	!	!LO:LB:g=original	!	!	!	!	!	!	!	!	!	!	!LO:LB:g=original	!	!	!	!LO:LB:g=original	!	!	!	!	!	!	!	!
=50	=50	=50	=50	=50	=50	=50	=50	=50	=50	=50	=50	=50	=50	=50	=50	=50	=50	=50	=50	=50	=50	=50	=50	=50	=50	=50
.	8qdd/	.	.	.	.	.	.	.	.	8qd/	.	.	.	.	.	.	.	.	.	.	.	(8qd/	.	.	.	.
8.FL 8.FF\	8.cc\L	.	8.FF/	nikt	.	8.A 8.E-/	nikt	.	.	8.c\	Nikt	.	.	8.FF/	nikt	.	.	8.A 8.E-/	nikt	.	.	8.c\)	nikt	.	.	.
16AJk 16F 16E- 16C\	16bn\Jk	.	16FF/	nie	.	16A 16E-/	nie	.	.	16Bn\	nie	.	.	16FF/	nie	.	.	16A 16E-/	nie	.	.	16Bn\	nie	.	.	.
4A 4F 4E- 4C\	4cc\	.	4FF/	uj-	.	4A 4E-/	uj-	.	.	4c\	ui-	.	.	4FF/	ui-	.	.	4A 4E-/	ui-	.	.	4c\	ui-	.	.	.
4A 4F 4E- 4C\	4dd\	.	4FF/	-rzy	.	4A 4E-/	-rzy	.	.	4d\	-rzy	.	.	4FF/	-rzy	.	.	4A 4E-/	-rzy	.	.	4d\	-rzy	.	.	.
!	!	!	!	!	!	!	!	!	!	!LO:LB:g=original	!	!	!	!	!	!	!	!	!	!	!	!	!	!	!	!
=51	=51	=51	=51	=51	=51	=51	=51	=51	=51	=51	=51	=51	=51	=51	=51	=51	=51	=51	=51	=51	=51	=51	=51	=51	=51	=51
8.BB- 8.BBB-/	8.b-X\L	.	8.BB-/	Kwaś-	.	8.B- 8.D/	Kwa-	.	.	8.B-\	Kwaś-	.	.	8.BB-/	Kwaś-	.	.	8.B- 8.D/	Kwaś-	.	.	8.B-X\	Kwaś-	.	.	.
16B- 16F 16D 16BB-\	16cc\Jk	.	16BB-/	-nej	.	16F 16D/	-śnej	.	.	16c\	-nej	.	.	16BB-/	-nej	.	.	16F 16D/	-nej	.	.	16c\	-nej	.	.	.
4B- 4F 4D 4BB-\	4dd\	.	4BB-/	mi-	.	4F 4D/	mi-	.	.	4d\	mi-	.	.	4BB-/	mi-	.	.	4F 4D/	mi-	.	.	4d\	mi-	.	.	.
!	!	!	!	!	!	!LO:TX:t=P:problem:skreślone takty [2]	!	!	!	!	!	!	!	!	!	!	!	!	!	!	!	!	!	!	!	!
4B- 4F 4D 4BB-\	4f/	.	4BB-/	-ny	.	4F 4D/	-ny	.	.	4F/	-ny	.	.	4BB-/	-ny	.	.	4F 4D/	-ny	.	.	4F/	-ny	.	.	.
!	!	!	!	!	!	!LO:LB:g=original	!	!	!	!	!	!	!	!	!	!	!	!	!	!	!	!LO:LB:g=original	!	!	!	!
=52	=52	=52	=52	=52	=52	=52	=52	=52	=52	=52	=52	=52	=52	=52	=52	=52	=52	=52	=52	=52	=52	=52	=52	=52	=52	=52
*	*	*^	*	*	*	*	*	*	*	*	*	*	*	*	*	*	*	*	*	*	*	*	*	*	*	*
!	!	!	!	!LO:TX:a:t=4.	!	!	!LO:TX:a:t=4.	!	!	!	!LO:TX:a:t=4.	!	!	!	!	!	!	!LO:DY:rj:a:t=p e dolce	!	!	!	!LO:DY:rj:a	!	!	!	!	!LO:DY:rj:a:t=p e dolce
!	!	!LO:DY:rj:a	!LO:DY:rj:c	!	!	!	!LO:N:vis=00	!	!	!	!LO:N:vis=00	!	!	!	!	!	!	!	!	!	!	!	!	!	!	!	!
8.FL 8.D 8.BB-\	8.b-L 8.B-/	p	p	2.r	.	.	0.r	.	.	.	0.r	.	.	.	8.BB-/	Tak	.	p	8.F 8.D/	Tak	.	p	8.B-\	Tak	.	.	p
16FJk 16D 16BB-\	16ddJk 16d/	.	.	.	.	.	.	.	.	.	.	.	.	.	16BB-/	niech	.	.	16F 16D/	niech	.	.	16d\	niech	.	.	.
4F 4D 4BB-\	4ff 4f/	.	.	.	.	.	.	.	.	.	.	.	.	.	4BB-/	w_Ja-	.	.	4F 4D/	w_Ja-	.	.	4f\	w_ia-	.	.	.
4F 4D 4BB-\	4dd 4d/	.	.	.	.	.	.	.	.	.	.	.	.	.	4BB-/	-na	.	.	4F 4D/	-na	.	.	4d\	-na	.	.	.
*	*	*v	*v	*	*	*	*	*	*	*	*	*	*	*	*	*	*	*	*	*	*	*	*	*	*	*	*
!LO:LB:g=original	!LO:LB:g=original	!	!	!	!	!	!	!	!	!	!	!	!	!	!LO:LB:g=original	!	!	!	!LO:LB:g=original	!	!	!	!	!	!	!
=53	=53	=53	=53	=53	=53	=53	=53	=53	=53	=53	=53	=53	=53	=53	=53	=53	=53	=53	=53	=53	=53	=53	=53	=53	=53	=53
8.FL 8.D 8.BB-\	8.b-L 8.B-/	.	2.r	.	.	.	.	.	.	.	.	.	.	8.BB-/	i-	.	.	8.F 8.D/	i-	.	.	8.B-\	i-	.	.	.
16FJk 16D 16BB-\	16ddJk 16d/	.	.	.	.	.	.	.	.	.	.	.	.	16BB-/	-mie-	.	.	16F 16D/	-mie-	.	.	16d\	-mie-	.	.	.
4F 4D 4BB-\	4ff 4f/	.	.	.	.	.	.	.	.	.	.	.	.	4BB-/	-ni-	.	.	4F 4D/	-ni-	.	.	4f\	-ni-	.	.	.
4F 4D 4BB-\	4dd 4d/	.	.	.	.	.	.	.	.	.	.	.	.	4BB-/	-ny	.	.	4F 4D/	-ny	.	.	4d\	-ny	.	.	.
=54	=54	=54	=54	=54	=54	=54	=54	=54	=54	=54	=54	=54	=54	=54	=54	=54	=54	=54	=54	=54	=54	=54	=54	=54	=54	=54
8.E- 8.EE-/	8.cc\L	.	2.r	.	.	.	.	.	.	.	.	.	.	8.E-\	nikt	.	.	8.G/	nikt	.	.	8.c\	nikt	.	.	.
16c 16G 16E-\	16g\Jk	.	.	.	.	.	.	.	.	.	.	.	.	16E-\	nie	.	.	16G/	nie	.	.	16G/	nie	.	.	.
4c 4G 4E-\	4ee-\	.	.	.	.	.	.	.	.	.	.	.	.	4C\	ui-	.	.	4G/	uj-	.	.	4e-\	ui-	.	.	.
4c 4G 4E-\	4cc\	.	.	.	.	.	.	.	.	.	.	.	.	4E-\	-rzy	.	.	4G/	-rzy	.	.	4c\	-rzy	.	.	.
!	!	!	!	!	!	!	!	!	!	!	!	!	!	!	!	!	!	!	!	!	!	!LO:LB:g=original	!	!	!	!
=55	=55	=55	=55	=55	=55	=55	=55	=55	=55	=55	=55	=55	=55	=55	=55	=55	=55	=55	=55	=55	=55	=55	=55	=55	=55	=55
8.FL 8.FF/	8.aL 8.f/	.	2.r	.	.	.	.	.	.	.	.	.	.	8.F\	Kwaś-	.	.	8.F/	Kwaś-	.	.	8.A\	Kwaś-	.	.	.
16FJk 16FF/	16ccJk 16e-/	.	.	.	.	.	.	.	.	.	.	.	.	16FF/	-nej	.	.	16E-/	-nej	.	.	16c\	-nej	.	.	.
4F 4BB-/	4b- 4d/	.	.	.	.	.	.	.	.	.	.	.	.	4BB-/	mi-	.	.	4D/	mi-	.	.	4B-\	mi-	.	.	.
4F 4BB-/	4b- 4d/	.	.	.	.	.	.	.	.	.	.	.	.	4BB-/	-ny	.	.	4D/	-ny	.	.	4B-\	-ny	.	.	.
!	!	!	!	!	!	!	!	!	!	!	!	!	!	!LO:LB:g=original	!	!	!	!LO:LB:g=original	!	!	!	!	!	!	!	!
=56||	=56||	=56||	=56||	=56||	=56||	=56||	=56||	=56||	=56||	=56||	=56||	=56||	=56||	=56||	=56||	=56||	=56||	=56||	=56||	=56||	=56||	=56||	=56||	=56||	=56||	=56||
.	(>8qcc/	.	.	.	.	.	.	.	.	.	.	.	.	.	.	.	.	.	.	.	.	.	.	.	.	.
!	!	!LO:DY:rj	!	!	!LO:DY:rj:a	!	!	!	!LO:DY:rj:a	!	!	!	!LO:DY:rj:a	!	!	!	!LO:DY:rj:a	!	!	!	!LO:DY:rj:a	!	!	!	!	!LO:DY:rj:a
8E- 8EE-/	8.b-L 8.g/)	f	8.E-\	Wi-	f	8.G/	Wi-	.	f	8.B-\	Wi-	.	f	8.E-\	Wi-	.	f	8.G/	Wi-	.	f	8.B-\	Wi-	.	.	f
8r	.	.	.	.	.	.	.	.	.	.	.	.	.	.	.	.	.	.	.	.	.	.	.	.	.	.
.	16aJk 16f#X|>/	.	16E-\	-wat	.	16F#X/	-wat	.	.	16An\	-wat	.	.	16E-\	-wat	.	.	16F#X/	-wat	.	.	16An\	-wat	.	.	.
4B- 4G 4E-\	4b- 4g/|>	.	4E-\	wi-	.	4G/	wi-	.	.	4B-\	wi-	.	.	4E-\	wi-	.	.	4G/	wi-	.	.	4B-\	wi-	.	.	.
4B- 4G 4E-\	4ee- 4b- 4g/|>	.	4E-\	-wat	.	4G/	-wat	.	.	4e-\	-wat	.	.	4E-\	-wat	.	.	4G/	-wat	.	.	4e-\	-wat	.	.	.
!	!	!	!LO:LB:g=original	!	!	!LO:LB:g=original	!	!	!	!	!	!	!	!	!	!	!	!	!	!	!	!	!	!	!	!
=57	=57	=57	=57	=57	=57	=57	=57	=57	=57	=57	=57	=57	=57	=57	=57	=57	=57	=57	=57	=57	=57	=57	=57	=57	=57	=57
8E- 8EE-/	8.b-L 8.g/|>	.	8.E-\	Jan	.	8.G/	Jan	.	.	8.B-\	Jan	.	.	8.E-\	Jan	.	.	8.G/	Jan	.	.	8.B-\	Jan	.	.	.
8r	.	.	.	.	.	.	.	.	.	.	.	.	.	.	.	.	.	.	.	.	.	.	.	.	.	.
.	16b-Jk 16g/|>	.	16E-\	iest	.	16G/	iest	.	.	16B-\	iest	.	.	16E-\	iest	.	.	16G/	iest	.	.	16B-\	iest	.	.	.
!	!LO:TX:t=P:problem:diminuendolike accent	!	!	!	!	!	!	!	!	!	!	!	!	!	!	!	!	!	!	!	!	!	!	!	!	!
2B- 2G 2E-\	2gg 2ee- 2b- 2g^<\|>	.	2E-\	chwat	.	2B-\	chwat	.	.	2g\	chwat	.	.	2E-\	chwat	.	.	2B-\	chwat	.	.	2g\	chwat	.	.	.
!LO:PB:g=original	!LO:PB:g=original	!	!	!	!	!	!	!	!	!LO:LB:g=original	!	!	!	!	!	!	!	!	!	!	!	!LO:LB:g=original	!	!	!	!
=58	=58	=58	=58	=58	=58	=58	=58	=58	=58	=58	=58	=58	=58	=58	=58	=58	=58	=58	=58	=58	=58	=58	=58	=58	=58	=58
8BB-\L	8.ffL 8.a-X/	.	8.BB-/	Nie-	.	8.A-X/	Nie-	.	.	8.f\	nie-	.	.	8.BB-/	Nie-	.	.	8.A-X/	Nie-	.	.	8.f\	Nie-	.	.	.
8B-\	.	.	.	.	.	.	.	.	.	.	.	.	.	.	.	.	.	.	.	.	.	.	.	.	.	.
.	16eenJk 16g/	.	16BB-/	-chaj	.	16G/	-chaj	.	.	16en\	-chaj	.	.	16BB-/	-chaj	.	.	16G/	-chaj	.	.	16en\	-chaj	.	.	.
8A 8F\	4ff 4a-/	.	4BB-/	pi-	.	4A-/	pi-	.	.	4f\	ży-	.	.	4BB-/	pi-	.	.	4A-/	pi-	.	.	4f\	pi-	.	.	.
8B-\	.	.	.	.	.	.	.	.	.	.	.	.	.	.	.	.	.	.	.	.	.	.	.	.	.	.
8BB-\	4dd 4f/	.	4BB-/	-ie	.	4F/	-ie	.	.	4d\	-ie	.	.	4BB-/	-ie	.	.	4F/	-ie	.	.	4d\	-ie	.	.	.
8B-\J	.	.	.	.	.	.	.	.	.	.	.	.	.	.	.	.	.	.	.	.	.	.	.	.	.	.
!	!	!	!	!	!	!	!	!	!	!	!	!	!	!LO:LB:g=original	!	!	!	!LO:LB:g=original	!	!	!	!	!	!	!	!
=59	=59	=59	=59	=59	=59	=59	=59	=59	=59	=59	=59	=59	=59	=59	=59	=59	=59	=59	=59	=59	=59	=59	=59	=59	=59	=59
.	8qff 8qa-X/	.	.	.	.	(8qA-X/	.	.	.	8qf/	.	.	.	.	.	.	.	8qA-X/	.	.	.	8qf/	.	.	.	.
8E-\L	8.ee-XL 8.g/	.	8.E-\	zdrow	.	8.G/)	zdrów	.	.	8.e-X\	zna-	.	.	8.E-\	zdrów	.	.	8.G/	Zdrów	.	.	8.e-X\	zdrów	.	.	.
8B-\	.	.	.	.	.	.	.	.	.	.	.	.	.	.	.	.	.	.	.	.	.	.	.	.	.	.
.	16ddJk 16f#X/	.	16E-\	nam	.	16F#X/	nam	.	.	16d\	-mi	.	.	16E-\	nam	.	.	16F#X/	nam	.	.	16d\	nam	.	.	.
8G\	4ee- 4g/	.	4E-\	ży-	.	4G/	ży-	.	.	4e-\	pi-	.	.	4E-\	ży-	.	.	4G/	ży-	.	.	4e-\	ży-	.	.	.
8B-\	.	.	.	.	.	.	.	.	.	.	.	.	.	.	.	.	.	.	.	.	.	.	.	.	.	.
8E-\	4b- 4g/	.	4E-\	-ie	.	4G/	-ie	.	.	4B-\	-ie	.	.	4E-\	-ie	.	.	4G/	-ie	.	.	4B-\	-ie	.	.	.
8B-\J	.	.	.	.	.	.	.	.	.	.	.	.	.	.	.	.	.	.	.	.	.	.	.	.	.	.
=60	=60	=60	=60	=60	=60	=60	=60	=60	=60	=60	=60	=60	=60	=60	=60	=60	=60	=60	=60	=60	=60	=60	=60	=60	=60	=60
.	8qcc 8qa/	.	.	.	.	(8qA-X/	.	.	.	8qc/	.	.	.	.	.	.	.	8qA-X/	.	.	.	8qc/	.	.	.	.
4E- 4EE-/	8.b-L 8.g/	.	8.E-\	Wśród	.	8.G/)	Wśród	.	.	8.B-\	Wśród	.	.	8.E-\	Wśród	.	.	8.G/	Wśród	.	.	8.B-\	Wśród	.	.	.
.	16aJk 16f#X/	.	16E-\	za-	.	16F#X/	za-	.	.	16A\	za-	.	.	16E-\	za-	.	.	16F#X/	za-	.	.	16A\	za-	.	.	.
4B- 4G 4E-\	4b- 4g/	.	4E-\	-ba-	.	4G/	-ba-	.	.	4B-\	-ba-	.	.	4E-\	-ba-	.	.	4G/	-ba-	.	.	4B-\	-ba-	.	.	.
4B- 4G 4E-\	4ee- 4b- 4g/	.	4E-\	-wy	.	4G/	-wy	.	.	4e-\	-wy	.	.	4E-\	-wy	.	.	4G/	-wy	.	.	4e-\	-wy	.	.	.
!	!	!	!LO:LB:g=original	!	!	!LO:LB:g=original	!	!	!	!LO:LB:g=original	!	!	!	!	!	!	!	!	!	!	!	!LO:LB:g=original	!	!	!	!
=61	=61	=61	=61	=61	=61	=61	=61	=61	=61	=61	=61	=61	=61	=61	=61	=61	=61	=61	=61	=61	=61	=61	=61	=61	=61	=61
*rep	*	*	*	*	*	*	*	*	*	*	*	*	*	*	*	*	*	*	*	*	*	*	*	*	*	*
4E- 4EE-/	8.b-L 8.g/	.	8.E-\	i	.	8.G/	i	.	.	8.B-\	i	.	.	8.E-\	i	.	.	8.G/	i	.	.	8.B-\	i	.	.	.
.	16b-Jk 16g/	.	16E-\	ra-	.	16G/	ra-	.	.	16B-\	ra-	.	.	16E-\	ra-	.	.	16G/	ra-	.	.	16B-\	ra-	.	.	.
4B- 4G 4E-\	4.gg 4.ee- 4.b- 4.g\	.	4.E-\	-doś-	.	4.B-\	-doś-	.	.	4.g\	-doś-	.	.	4.E-\	-do-	.	.	4.B-\	-doś-	.	.	4.g\	-do-	.	.	.
4B- 4G 4E-\	.	.	.	.	.	.	.	.	.	.	.	.	.	.	.	.	.	.	.	.	.	.	.	.	.	.
.	8ee- 8b- 8g\	.	8E-\	-ci	.	8G/	-ci	.	.	8e-\	-ci	.	.	8E-\	-ści	.	.	8G/	-ci	.	.	8e-\	-ści	.	.	.
*Xrep	*	*	*	*	*	*	*	*	*	*	*	*	*	*	*	*	*	*	*	*	*	*	*	*	*	*
!LO:LB:g=original	!LO:LB:g=original	!	!	!	!	!	!	!	!	!	!	!	!	!LO:LB:g=original	!	!	!	!LO:LB:g=original	!	!	!	!	!	!	!	!
=62	=62	=62	=62	=62	=62	=62	=62	=62	=62	=62	=62	=62	=62	=62	=62	=62	=62	=62	=62	=62	=62	=62	=62	=62	=62	=62
8BB-\L	8.ffL 8.a-X/	.	8.BB-/	Nie-	.	8.A-X/	Nie-	.	.	8.f\	Nie-	.	.	8.BB-/	Nie-	.	.	8.A-X/	Nie-	.	.	8.f\	Nie-	.	.	.
8B-\	.	.	.	.	.	.	.	.	.	.	.	.	.	.	.	.	.	.	.	.	.	.	.	.	.	.
.	16eenJk 16g/	.	16BB-/	-chaj	.	16G/	-chaj	.	.	16en\	-chaj	.	.	16BB-/	-chaj	.	.	16G/	-chaj	.	.	16en\	-chaj	.	.	.
8A 8F\	4ff 4a-/	.	4BB-/	we-	.	4A-/	we-	.	.	4f\	z_na-	.	.	4BB-/	we-	.	.	4A-/	we-	.	.	4f\	we-	.	.	.
8B-\	.	.	.	.	.	.	.	.	.	.	.	.	.	.	.	.	.	.	.	.	.	.	.	.	.	.
8BB-\	4dd 4f/	.	4BB-/	-soł	.	4F/	-soł	.	.	4d\	-mi	.	.	4BB-/	-soł	.	.	4F/	-soł	.	.	4d\	-soł	.	.	.
8B-\J	.	.	.	.	.	.	.	.	.	.	.	.	.	.	.	.	.	.	.	.	.	.	.	.	.	.
=63	=63	=63	=63	=63	=63	=63	=63	=63	=63	=63	=63	=63	=63	=63	=63	=63	=63	=63	=63	=63	=63	=63	=63	=63	=63	=63
.	8qff 8qa-X/	.	.	.	.	8qA-X/	.	.	.	8qf/	.	.	.	.	.	.	.	(8qA-X/	.	.	.	8qf/	.	.	.	.
8E-\L	8.ee-L 8.g/	.	8.E-\	z_na-	.	8.G/	z_na-	.	.	8.e-X\	we-	.	.	8.E-\	z_na-	.	.	8.G/)	z_na-	.	.	8.e-X\	z_na-	.	.	.
8B-\	.	.	.	.	.	.	.	.	.	.	.	.	.	.	.	.	.	.	.	.	.	.	.	.	.	.
.	16ddJk 16f#X/	.	16E-\	-mi	.	16F#X/	-mi	.	.	16d\	-soł	.	.	16E-\	-mi	.	.	16F#X/	-mi	.	.	16d\	-mi	.	.	.
8G\	4ee- 4g/	.	4E-\	goś-	.	4G/	goś-	.	.	4e-\	goś-	.	.	4E-\	goś-	.	.	4G/	goś-	.	.	4e-\	goś-	.	.	.
8B-\J	.	.	.	.	.	.	.	.	.	.	.	.	.	.	.	.	.	.	.	.	.	.	.	.	.	.
!	!	!	!	!	!	!	!	!	!	!	!	!	!	!	!	!	!	!	!	!	!	!LO:TX:t=P:problem:fermata dopisana ołówkiem	!	!	!	!
4E-\	4ee- 4g/	.	4E-\	-ci	.	4G/	-ci	.	.	4e-\	-ci,	.	.	4E-\	-ci	.	.	4G/	-ci	.	.	4e-\	-ci	.	.	.
!	!	!	!	!	!	!	!	!	!	!LO:PB:g=original	!	!	!	!	!	!	!	!	!	!	!	!LO:LB:g=original	!	!	!	!
=64||;	=64||;	=64||	=64||;	=64||	=64||	=64||	=64||	=64||	=64||	=64||	=64||	=64||	=64||	=64||;	=64||	=64||	=64||	=64||;	=64||	=64||	=64||	=64||	=64||	=64||	=64||	=64||
!LO:TX:t=P:problem:mixed beam	!	!LO:DY:rj:t=p.	!LO:TX:a:t=1.	!	!	!LO:TX:a:t=1.	!	!	!	!LO:TX:a:t=1.	!	!	!	!LO:TX:a:i:t=rall.	!	!	!LO:DY:rj:a	!LO:TX:a:t=rall.	!	!	!LO:DY:rj:a:t=p.	!LO:TX:a:t=rall&colon;	!	!	!	!LO:DY:rj:a
!	!LO:TX:t=P:problem:kreska taktowa początek repetycji	!	!	!	!	!	!	!	!	!	!	!	!	!	!	!	!	!	!	!	!	!	!	!	!	!
8.FF/L	8.ee-L 8.cc\	p	2.r	.	.	2.r	.	.	.	2.r	.	.	.	8.F\	A	.	p	8.c\	A	.	p	8.e-X\	A	.	.	p
16F\Jk	16ddK 16b-\	.	.	.	.	.	.	.	.	.	.	.	.	16F\	więc	.	.	16B-\	więc	.	.	16d\	więc	.	.	.
*rep	*	*	*	*	*	*	*	*	*	*	*	*	*	*	*	*	*	*	*	*	*	*	*	*	*	*
!LO:TX:t=P:problem:mixed beam	!	!	!	!	!	!	!	!	!	!	!	!	!	!	!	!	!	!	!	!	!LO:DY:rj:a	!	!	!	!	!
8.FF/L	8.cc 8.a\	.	.	.	.	.	.	.	.	.	.	.	.	8.F\	dusz-	.	.	8.An\	dusz-	.	<	8.c\	dusz-	.	.	.
16F\Jk	16ddK 16b-\	.	.	.	.	.	.	.	.	.	.	.	.	16F\	-kiem	.	.	16B-\	-kiem	.	.	16d\	-kiem	.	.	.
*Xrep	*	*	*	*	*	*	*	*	*	*	*	*	*	*	*	*	*	*	*	*	*	*	*	*	*	*
*rep	*	*	*	*	*	*	*	*	*	*	*	*	*	*	*	*	*	*	*	*	*	*	*	*	*	*
!LO:TX:t=P:problem:mixed beam	!	!	!	!	!	!	!	!	!	!	!	!	!	!	!	!	!	!	!	!	!	!	!	!	!	!
8.FF/L	8.ee- 8.cc\	.	.	.	.	.	.	.	.	.	.	.	.	8.F\	Kie-	.	.	8.c\	Kie-	.	.	8.e-\	Kie-	.	.	.
16F\Jk	16eenJk 16cc#X\	.	.	.	.	.	.	.	.	.	.	.	.	16F\	-lich	.	.	16c#X\	-lich	.	[[	16en\	-lich	.	.	.
*Xrep	*	*	*	*	*	*	*	*	*	*	*	*	*	*	*	*	*	*	*	*	*	*	*	*	*	*
!LO:LB:g=original	!LO:LB:g=original	!	!LO:LB:g=original	!	!	!	!	!	!	!	!	!	!	!LO:LB:g=original	!	!	!	!LO:LB:g=original	!	!	!	!	!	!	!	!
=65	=65	=65	=65	=65	=65	=65	=65	=65	=65	=65	=65	=65	=65	=65	=65	=65	=65	=65	=65	=65	=65	=65	=65	=65	=65	=65
8.BB-\L	8.ffL 8.dd\	.	4r	.	.	4r	.	.	.	4r	.	.	.	4BB-/	łyk	.	.	2d\	łyk	.	.	(2f\	łyk	.	.	.
16F\K	16ff\Jk	.	.	.	.	.	.	.	.	.	.	.	.	.	.	.	.	.	.	.	.	.	.	.	.	.
.	8qeen/	.	.	.	.	.	.	.	.	.	.	.	.	.	.	.	.	.	.	.	.	.	.	.	.	.
8D\	4ffT\	.	8r	.	.	8r	.	.	.	8r	.	.	.	8r	.	.	.	.	.	.	.	.	.	.	.	.
!	!	!	!	!	!LO:DY:rj:a	!	!	!	!	!	!	!	!	!	!	!	!LO:DY:rj:a	!	!	!	!	!	!	!	!	!
8F\J	.	.	8B-\	łyk	f	8d\	łyk	.	.	8f\	łyk	.	.	8B-\	łyk	.	f	.	.	.	.	.	.	.	.	.
.	(<16qqee/LL	.	.	.	.	.	.	.	.	.	.	.	.	.	.	.	.	(16qqd/LL	.	.	.	.	.	.	.	.
.	16qqff/JJ	.	.	.	.	.	.	.	.	.	.	.	.	.	.	.	.	16qqc/JJ	.	.	.	.	.	.	.	.
8BB-/	8bb- 8dd\)	.	8BB-/	łyk	.	8B-\	łyk	.	.	8d\	łyk	.	.	8BB-/	łyk	.	.	8B-\)	.	.	.	8b-\)	.	.	.	.
!	!	!	!	!	!	!	!	!	!	!	!	!	!	!	!	!	!	!	!	!	!	!LO:TX:a:i:t=/&colon; wypić &colon;/	!	!	!	!
8r	8r;	.	8r;	.	.	8r;	.	.	.	8r;	.	.	.	8r;	.	.	.	8r;	.	.	.	8r;	.	.	.	.
=66	=66	=66	=66	=66	=66	=66	=66	=66	=66	=66	=66	=66	=66	=66	=66	=66	=66	=66	=66	=66	=66	=66	=66	=66	=66	=66
.	(8qdd (8qb-/	.	.	.	.	.	.	.	.	.	.	.	.	.	.	.	.	8qB-/	.	.	.	(8qd/	.	.	.	.
!	!	!	!LO:TX:a:t=1.	!	!	!LO:TX:a:t=1.	!	!	!	!LO:TX:a:t=1.	!	!	!	!LO:TX:a:i:t=(&colon; Kłaniaiąc się &colon;)	!	!	!LO:DY:rj:a	!LO:TX:a:i:t=(&colon; Kłaniaiąc się. )	!	!	!	!LO:TX:a:i:t=(&colon; Kłaniaiąc się &colon;)	!	!	!	!
8.CC/L	8.ccL 8.a/))	.	2.r	.	.	2.r	.	.	.	2.r	.	.	.	8.C/	so-	.	p	8.An/	So-	.	.	8.c\)	So-	.	.	.
16C/Jk	16b-Jk 16g/|>	.	.	.	.	.	.	.	.	.	.	.	.	16C/	-le-	.	.	16G/	-le-	.	.	16B-\	-le-	.	.	.
*rep	*	*	*	*	*	*	*	*	*	*	*	*	*	*	*	*	*	*	*	*	*	*	*	*	*	*
8.CC/L	8.aL 8.f/|>	.	.	.	.	.	.	.	.	.	.	.	.	8.C/	-ni-	.	.	8.F/	-ni-	.	.	8.A\	-ni-	.	.	.
16C/Jk	16ccJk 16a/|>	.	.	.	.	.	.	.	.	.	.	.	.	16C/	-zan-	.	.	16A/	-zan-	.	.	16c\	-zan-	.	.	.
*Xrep	*	*	*	*	*	*	*	*	*	*	*	*	*	*	*	*	*	*	*	*	*	*	*	*	*	*
*rep	*	*	*	*	*	*	*	*	*	*	*	*	*	*	*	*	*	*	*	*	*	*	*	*	*	*
8.CC/L	8.b-L 8.g/|>	.	.	.	.	.	.	.	.	.	.	.	.	8.C/	-to-	.	.	8.G/	-to-	.	.	8.B-\	-to-	.	.	.
16C/Jk	16gJk 16en/|>	.	.	.	.	.	.	.	.	.	.	.	.	16C/	-wi	.	.	16En/	-wi	.	.	16G/	-wi	.	.	.
*Xrep	*	*	*	*	*	*	*	*	*	*	*	*	*	*	*	*	*	*	*	*	*	*	*	*	*	*
=67	=67	=67	=67	=67	=67	=67	=67	=67	=67	=67	=67	=67	=67	=67	=67	=67	=67	=67	=67	=67	=67	=67	=67	=67	=67	=67
.	(16qqa/LL	.	.	.	.	(16qqA/LL	.	.	.	16qqA/LL	.	.	.	.	.	.	.	.	.	.	.	16qqA/LL	.	.	.	.
.	16qqg\JJ	.	.	.	.	16qqG/JJ	.	.	.	16qqG/JJ	.	.	.	.	.	.	.	.	.	.	.	16qqG/JJ	.	.	.	.
!	!LO:TX:t=P:problem:mixed beam	!	!	!	!	!	!	!	!	!	!	!	!	!	!	!	!	!	!	!	!	!	!	!	!	!
8FF/L	8f/L)	.	2F\	dyk	.	2F/)	dyk.	.	.	2F/	dyk	.	.	2F\	dyk	.	.	2F/	dyk	.	.	2F/	dyk	.	.	.
16r	16r	.	.	.	.	.	.	.	.	.	.	.	.	.	.	.	.	.	.	.	.	.	.	.	.	.
16F/Jk	16ff\Jk	.	.	.	.	.	.	.	.	.	.	.	.	.	.	.	.	.	.	.	.	.	.	.	.	.
4FF/	4f/	.	.	.	.	.	.	.	.	.	.	.	.	.	.	.	.	.	.	.	.	.	.	.	.	.
!	!	!	!LO:TX:b:t=V&colon;S&colon;	!	!	!	!	!	!	!	!	!	!	!	!	!	!	!	!	!	!	!	!	!	!	!
!	!LO:TX:t=P:problem:kreska taktowa koniec repetycji	!	!LO:TX:a:t=proza	!	!	!	!	!	!	!	!	!	!	!	!	!	!	!	!	!	!	!	!	!	!	!
4r;	4r;	.	4r;	.	.	4r;	.	.	.	4r;	.	.	.	4r;	.	.	.	4r;	.	.	.	4r;	.	.	.	.
!	!	!	!LO:PB:g=original	!	!	!LO:PB:g=original	!	!	!	!LO:LB:g=original	!	!	!	!LO:LB:g=original	!	!	!	!LO:LB:g=original	!	!	!	!LO:LB:g=original	!	!	!	!
=68	=68	=68	=68	=68	=68	=68	=68	=68	=68	=68	=68	=68	=68	=68	=68	=68	=68	=68	=68	=68	=68	=68	=68	=68	=68	=68
!LO:TX:t=P:problem:mixed beam	!LO:TX:t=P:problem:fragment oznaczony znakiem repetycji	!LO:DY:rj:t=p.	!LO:TX:t=P:problem:powtórzony fragment w pf	!	!	!LO:TX:t=P:problem:powtórzony fragment w pf	!	!	!	!LO:TX:t=P:problem:powtórzony fragment w pf	!	!	!	!LO:TX:t=P:problem:powtórzony fragment w pf	!	!	!	!LO:TX:t=P:problem:powtórzony fragment w pf	!	!	!	!LO:TX:t=P:problem:powtórzony fragment w pf	!	!	!	!
8.FF/Lyy	8.ee-Lyy 8.cc\yy	py	2.ryy	.	.	2.ryy	.	.	.	2.ryy	.	.	.	2.ryy	.	.	.	2.ryy	.	.	.	2.ryy	.	.	.	.
16F\Jkyy	16ddKyy 16b-\yy	.	.	.	.	.	.	.	.	.	.	.	.	.	.	.	.	.	.	.	.	.	.	.	.	.
!LO:TX:t=P:problem:mixed beam	!	!	!	!	!	!	!	!	!	!	!	!	!	!	!	!	!	!	!	!	!	!	!	!	!	!
8.FF/Lyy	8.ccyy 8.a\yy	.	.	.	.	.	.	.	.	.	.	.	.	.	.	.	.	.	.	.	.	.	.	.	.	.
16F\Jkyy	16ddKyy 16b-\yy	.	.	.	.	.	.	.	.	.	.	.	.	.	.	.	.	.	.	.	.	.	.	.	.	.
!LO:TX:t=P:problem:mixed beam	!	!	!	!	!	!	!	!	!	!	!	!	!	!	!	!	!	!	!	!	!	!	!	!	!	!
8.FF/Lyy	8.ee-yy 8.cc\yy	.	.	.	.	.	.	.	.	.	.	.	.	.	.	.	.	.	.	.	.	.	.	.	.	.
16F\Jkyy	16eenJkyy 16cc#X\yy	.	.	.	.	.	.	.	.	.	.	.	.	.	.	.	.	.	.	.	.	.	.	.	.	.
=69	=69	=69	=69	=69	=69	=69	=69	=69	=69	=69	=69	=69	=69	=69	=69	=69	=69	=69	=69	=69	=69	=69	=69	=69	=69	=69
8.BB-\Lyy	8.ffLyy 8.dd\yy	.	2.ryy	.	.	2.ryy	.	.	.	2.ryy	.	.	.	2.ryy	.	.	.	2.ryy	.	.	.	2.ryy	.	.	.	.
16F\Kyy	16ff\Jkyy	.	.	.	.	.	.	.	.	.	.	.	.	.	.	.	.	.	.	.	.	.	.	.	.	.
.	8qeen/yy	.	.	.	.	.	.	.	.	.	.	.	.	.	.	.	.	.	.	.	.	.	.	.	.	.
8D\yy	4ffT\yy	.	.	.	.	.	.	.	.	.	.	.	.	.	.	.	.	.	.	.	.	.	.	.	.	.
8F\Jyy	.	.	.	.	.	.	.	.	.	.	.	.	.	.	.	.	.	.	.	.	.	.	.	.	.	.
.	(y<16qqee/LLyy	.	.	.	.	.	.	.	.	.	.	.	.	.	.	.	.	.	.	.	.	.	.	.	.	.
.	16qqff/JJyy	.	.	.	.	.	.	.	.	.	.	.	.	.	.	.	.	.	.	.	.	.	.	.	.	.
8BB-/yy	8bb-yy 8dd\)yy	.	.	.	.	.	.	.	.	.	.	.	.	.	.	.	.	.	.	.	.	.	.	.	.	.
8ryy	8r;yy	.	.	.	.	.	.	.	.	.	.	.	.	.	.	.	.	.	.	.	.	.	.	.	.	.
=70	=70	=70	=70	=70	=70	=70	=70	=70	=70	=70	=70	=70	=70	=70	=70	=70	=70	=70	=70	=70	=70	=70	=70	=70	=70	=70
.	(y8qddyy (y8qb-/yy	.	.	.	.	.	.	.	.	.	.	.	.	.	.	.	.	.	.	.	.	.	.	.	.	.
8.CC/Lyy	8.ccLyy 8.a/))yy	.	2.ryy	.	.	2.ryy	.	.	.	2.ryy	.	.	.	2.ryy	.	.	.	2.ryy	.	.	.	2.ryy	.	.	.	.
16C/Jkyy	16b-Jkyy 16g/yy|>	.	.	.	.	.	.	.	.	.	.	.	.	.	.	.	.	.	.	.	.	.	.	.	.	.
8.CC/Lyy	8.aLyy 8.f/yy|>	.	.	.	.	.	.	.	.	.	.	.	.	.	.	.	.	.	.	.	.	.	.	.	.	.
16C/Jkyy	16ccJkyy 16a/yy|>	.	.	.	.	.	.	.	.	.	.	.	.	.	.	.	.	.	.	.	.	.	.	.	.	.
8.CC/Lyy	8.b-Lyy 8.g/yy|>	.	.	.	.	.	.	.	.	.	.	.	.	.	.	.	.	.	.	.	.	.	.	.	.	.
16C/Jkyy	16gJkyy 16en/yy|>	.	.	.	.	.	.	.	.	.	.	.	.	.	.	.	.	.	.	.	.	.	.	.	.	.
=71	=71	=71	=71	=71	=71	=71	=71	=71	=71	=71	=71	=71	=71	=71	=71	=71	=71	=71	=71	=71	=71	=71	=71	=71	=71	=71
.	(y16qqa/LLyy	.	.	.	.	.	.	.	.	.	.	.	.	.	.	.	.	.	.	.	.	.	.	.	.	.
.	16qqg/JJyy	.	.	.	.	.	.	.	.	.	.	.	.	.	.	.	.	.	.	.	.	.	.	.	.	.
!	!LO:TX:t=P:problem:mixed beam	!	!	!	!	!	!	!	!	!	!	!	!	!	!	!	!	!	!	!	!	!	!	!	!	!
8FF/Lyy	8f/L)yy	.	2.ryy	.	.	2.ryy	.	.	.	2.ryy	.	.	.	2.ryy	.	.	.	2.ryy	.	.	.	2.ryy	.	.	.	.
16ryy	16ryy	.	.	.	.	.	.	.	.	.	.	.	.	.	.	.	.	.	.	.	.	.	.	.	.	.
16F/Jkyy	16ff\Jkyy	.	.	.	.	.	.	.	.	.	.	.	.	.	.	.	.	.	.	.	.	.	.	.	.	.
4FF/yy	4f/yy	.	.	.	.	.	.	.	.	.	.	.	.	.	.	.	.	.	.	.	.	.	.	.	.	.
4r;yy	4r;yy	.	.	.	.	.	.	.	.	.	.	.	.	.	.	.	.	.	.	.	.	.	.	.	.	.
!LO:PB:g=original	!LO:PB:g=original	!	!	!	!	!	!	!	!	!	!	!	!	!	!	!	!	!	!	!	!	!	!	!	!	!
=72||	=72||	=72||	=72||	=72||	=72||	=72||	=72||	=72||	=72||	=72||	=72||	=72||	=72||	=72||	=72||	=72||	=72||	=72||	=72||	=72||	=72||	=72||	=72||	=72||	=72||	=72||
*M4/4	*M4/4	*	*M4/4	*	*	*M4/4	*	*	*	*M4/4	*	*	*	*M4/4	*	*	*	*M4/4	*	*	*	*M4/4	*	*	*	*
*met(c)	*met(c)	*	*met(c)	*	*	*met(c)	*	*	*	*met(c)	*	*	*	*met(c)	*	*	*	*met(c)	*	*	*	*met(c)	*	*	*	*
*	*	*	*cue	*	*	*clefF4	*	*	*	*clefF4	*	*	*	*	*	*	*	*	*	*	*	*clefF4	*	*	*	*
*	*	*	*	*	*	*cue	*	*	*	*cue	*	*	*	*	*	*	*	*cue	*	*	*	*cue	*	*	*	*
*	*	*	*^	*	*	*	*	*	*	*^	*	*	*	*	*	*	*	*	*	*	*	*	*	*	*	*
!	!	!	!LO:TX:a:i:t=Recit	!	!	!	!LO:TX:a:t=Recit.	!	!	!	!LO:TX:a:t=Re[[c]]cit.	!	!	!	!	!LO:TX:a:t=Recit.	!	!	!	!LO:TX:a:t=Recit.	!	!	!	!LO:TX:a:t=Recit.	!	!	!	!
1ryy	1ryy	.	16r	1rGG	.	.	16r	.	.	.	16r	1r	.	.	.	16r	.	.	.	16r	.	.	.	16r	.	.	.	.
*	*	*	*	*	*	*	*	*	*	*	*	*	*	*	*	*	*	*	*	*clefF4	*	*	*	*	*	*	*	*
.	.	.	16F/	.	.	.	16F\	.	.	.	16F/	.	.	.	.	16F\	A	.	.	16F\	.	.	.	16F\	.	.	.	.
.	.	.	16F/	.	.	.	16F\	.	.	.	16F/	.	.	.	.	16F\	ze-	.	.	16F\	.	.	.	16F\	.	.	.	.
.	.	.	16F/	.	.	.	16F\	.	.	.	16F/	.	.	.	.	16F\	-by	.	.	16F\	.	.	.	16F\	.	.	.	.
.	.	.	8G/	.	.	.	8F\	.	.	.	8G/	.	.	.	.	8F\	w_i-	.	.	8F\	.	.	.	8F\	.	.	.	.
.	.	.	8A/	.	.	.	8G\	.	.	.	8A/	.	.	.	.	8G\	-mie-	.	.	8G\	.	.	.	8G\	.	.	.	.
.	.	.	8.A/	.	.	.	8.A\	.	.	.	8.A/	.	.	.	.	8.A\	-ni-	.	.	8.A\	.	.	.	8.A\	.	.	.	.
.	.	.	16A/	.	.	.	16A\	.	.	.	16A/	.	.	.	.	16A\	-ny	.	.	16A\	.	.	.	16A\	.	.	.	.
.	.	.	8B-/	.	.	.	8B-\	.	.	.	8B-/	.	.	.	.	8B-\	[[Ja-	Ja-	.	8B-\	.	.	.	8B-\	.	.	.	.
.	.	.	8c/	.	.	.	8c\	.	.	.	8c/	.	.	.	.	8c\	-na]]	-na	.	8c\	.	.	.	8c\	.	.	.	.
!	!	!	!	!	!	!	!	!	!	!	!	!	!	!	!	!LO:PB:g=original	!	!	!	!	!	!	!	!	!	!	!	!
=73	=73	=73	=73	=73	=73	=73	=73	=73	=73	=73	=73	=73	=73	=73	=73	=73	=73	=73	=73	=73	=73	=73	=73	=73	=73	=73	=73	=73
1ryy	1ryy	.	4c/	1rGG	.	.	4c\	.	.	.	4c/	1rGG	.	.	.	4c\	u-	.	.	4c\	.	.	.	4c\	.	.	.	.
.	.	.	8F/	.	.	.	8F\	.	.	.	8F/	.	.	.	.	8F\	-żyć	.	.	8F\	.	.	.	8F\	.	.	.	.
.	.	.	8r	.	.	.	8r	.	.	.	8r	.	.	.	.	8r	.	.	.	8r	.	.	.	8r	.	.	.	.
.	.	.	8r	.	.	.	8r	.	.	.	8r	.	.	.	.	8r	.	.	.	8r	.	.	.	8r	.	.	.	.
.	.	.	8c/	.	.	.	8c\	.	.	.	8c/	.	.	.	.	8c\	War-	.	.	8c\	.	.	.	8c\	.	.	.	.
.	.	.	8c/	.	.	.	8c\	.	.	.	8c/	.	.	.	.	8c\	-to	.	.	8c\	.	.	.	8c\	.	.	.	.
.	.	.	8B-/	.	.	.	8B-\	.	.	.	8B-/	.	.	.	.	8B-\	by	.	.	8B-\	.	.	.	8B-\	.	.	.	.
!LO:LB:g=original	!LO:LB:g=original	!	!LO:LB:g=original	!	!	!	!LO:LB:g=original	!	!	!	!LO:LB:g=original	!	!	!	!	!	!	!	!	!LO:LB:g=original	!	!	!	!LO:PB:g=original	!	!	!	!
=74	=74	=74	=74	=74	=74	=74	=74	=74	=74	=74	=74	=74	=74	=74	=74	=74	=74	=74	=74	=74	=74	=74	=74	=74	=74	=74	=74	=74
*	*	*	*	*	*	*	*^	*	*	*	*	*	*	*	*	*	*	*	*	*	*	*	*	*^	*	*	*	*
1ryy	1ryy	.	4B-/	1rGG	.	.	4B-/	1rGG	.	.	.	4B-/	1rGG	.	.	.	4B-\	iesz-	.	.	4B-\	.	.	.	4B-\	1rGG	.	.	.	.
.	.	.	8A/	.	.	.	8A/	.	.	.	.	8A/	.	.	.	.	8A\	-cze	.	.	8A\	.	.	.	8A\	.	.	.	.	.
.	.	.	8A/	.	.	.	8A/	.	.	.	.	8A/	.	.	.	.	8A\	raz	.	.	8A\	.	.	.	8A\	.	.	.	.	.
.	.	.	4A/	.	.	.	4A/	.	.	.	.	4A/	.	.	.	.	4A\	dusz-	.	.	4A\	.	.	.	4A\	.	.	.	.	.
.	.	.	8G/	.	.	.	8G/	.	.	.	.	8G/	.	.	.	.	8G\	-kiem	.	.	8G\	.	.	.	8G\	.	.	.	.	.
.	.	.	8F/	.	.	.	8F/	.	.	.	.	8F/	.	.	.	.	8F\	po-	.	.	8F\	.	.	.	8F\	.	.	.	.	.
!	!	!	!	!	!	!	!	!	!	!	!	!	!	!	!	!	!LO:LB:g=original	!	!	!	!	!	!	!	!	!	!	!	!	!
=75	=75	=75	=75	=75	=75	=75	=75	=75	=75	=75	=75	=75	=75	=75	=75	=75	=75	=75	=75	=75	=75	=75	=75	=75	=75	=75	=75	=75	=75	=75
*	*	*	*	*	*	*	*	*	*	*	*	*	*	*	*	*	*^	*	*	*	*^	*	*	*	*	*	*	*	*	*
*	*	*	*	*	*	*	*	*	*	*	*	*	*	*	*	*	*	*^	*	*	*	*	*	*	*	*	*	*	*	*	*	*
8.r	8.r	.	4F/	8.r	.	.	4F/	8.rFF	.	.	.	4F/	8.r	.	.	.	4F\	8.rDD	8.ryy	-wtó-	.	.	4F\	8.rDD	.	.	.	4F/	8.r	.	.	.	.
*	*	*	*	*	*	*	*clefC4	*	*	*	*	*clefC4	*	*	*	*	*	*	*	*	*	*	*clefC4	*	*	*	*	*clefC4	*	*	*	*	*
!	!	!LO:DY:rj	!	!	!	!	!LO:TX:t=P:problem:cue notes w kluczu basowym	!	!	!	!	!LO:TX:t=P:problem:cue notes w kluczu basowym	!	!	!	!	!	!	!	!	!	!	!	!LO:TX:t=P:problem:cue notes w kluczu basowym	!	!	!	!LO:TX:t=P:problem:cue notes w kluczu basowym	!	!	!	!	!
16B- 16F 16BB-\	16b- 16f 16d/	f	.	16BB-\	gul	.	.	16F/	gul	.	.	.	16d 16B-\	gul	.	.	.	16BB-\	16BB-/	.	gól	.	.	16B-\	gól	.	.	.	16d\	gól	.	.	.
4B- 4F 4BB-\	4b- 4f 4d/	.	8B-/	4BB-\	gul	.	8B-/	4F/	gul	.	.	8B-/	4d 4B-\	gul	.	.	8B-\	4BB-/	4ryy	-rzyć	gól,	.	8B-\	4B-\	gól	.	.	8B-/	4d\	gól	.	.	.
!	!	!	!	!	!	!	!	!	!	!	!	!	!	!	!	!	!	!	!	!	!	!	!LO:N:vis=8	!	!	!	!	!	!	!	!	!	!
.	.	.	8r	.	.	.	8r	.	.	.	.	8r	.	.	.	.	8r	.	.	.	.	.	16r	.	.	.	.	8r	.	.	.	.	.
!	!	!	!	!	!	!	!	!	!	!	!	!	!	!	!	!	!	!	!	!	!	!	!LO:N:vis=8	!	!	!	!	!	!	!	!	!	!
.	.	.	.	.	.	.	.	.	.	.	.	.	.	.	.	.	.	.	.	.	.	.	16r	.	.	.	.	.	.	.	.	.	.
!	!	!	!	!	!	!	!	!	!	!	!	!LO:CL:ed	!	!	!	!	!	!	!	!	!	!	!	!	!	!	!	!LO:CL:ed	!	!	!	!	!
*	*	*	*	*	*	*	*clefF4	*	*	*	*	*clefF4	*	*	*	*	*	*	*	*	*	*	*clefF4	*	*	*	*	*clefF4	*	*	*	*	*
2r	2r	.	4B-/	2rGG	.	.	4B-/	2rC	.	.	.	4B-/	2rGG	.	.	.	4B-\	2ryy	2ryy	A	.	.	4B-\	2rAA	.	.	.	4B-/	2rC	.	.	.	.
.	.	.	8.A/	.	.	.	8.A/	.	.	.	.	8.A/	.	.	.	.	8.A\	.	.	więc	.	.	8.A\	.	.	.	.	8.A/	.	.	.	.	.
.	.	.	16B-/	.	.	.	16B-/	.	.	.	.	16B-/	.	.	.	.	16B-\	.	.	Pa-	.	.	16B-\	.	.	.	.	16B-/	.	.	.	.	.
*	*	*	*	*	*	*	*v	*v	*	*	*	*	*	*	*	*	*v	*v	*v	*	*	*	*	*	*	*	*	*	*	*	*	*	*
!	!	!	!LO:LB:g=original	!	!	!	!	!	!	!	!	!	!	!	!	!	!	!	!	!	!	!LO:PB:g=original	!	!	!	!LO:LB:g=original	!	!	!	!
=76	=76	=76	=76	=76	=76	=76	=76	=76	=76	=76	=76	=76	=76	=76	=76	=76	=76	=76	=76	=76	=76	=76	=76	=76	=76	=76	=76	=76	=76	=76
1r	1r	.	4B-\	1rGG	.	.	4B-/	.	.	.	4B-/	1ryy	.	.	.	4B-\	-no-	.	.	4B-/	1rGG	.	.	.	4B-\	1rGG	.	.	.	.
.	.	.	8BB-/	.	.	.	8BB-/	.	.	.	8BB-/	.	.	.	.	8BB-/	-wie	.	.	8BB-/	.	.	.	.	8BB-/	.	.	.	.	.
.	.	.	16r	.	.	.	16r	.	.	.	16r	.	.	.	.	16r	.	.	.	16r	.	.	.	.	16r	.	.	.	.	.
.	.	.	16B-\	.	.	.	16B-/	.	.	.	16B-/	.	.	.	.	16B-\	na-	.	.	16B-/	.	.	.	.	16B-\	.	.	.	.	.
.	.	.	4B-\	.	.	.	4B-/	.	.	.	4B-/	.	.	.	.	4B-\	-le-	.	.	4B-/	.	.	.	.	4B-\	.	.	.	.	.
.	.	.	4c\	.	.	.	4c/	.	.	.	4c/	.	.	.	.	4c\	-wać	.	.	4c/	.	.	.	.	4c\	.	.	.	.	.
!LO:LB:g=original	!LO:LB:g=original	!	!LO:LB:g=original	!	!	!	!LO:LB:g=original	!	!	!	!LO:LB:g=original	!	!	!	!	!	!	!	!	!	!	!	!	!	!	!	!	!	!	!
=77	=77	=77	=77	=77	=77	=77	=77	=77	=77	=77	=77	=77	=77	=77	=77	=77	=77	=77	=77	=77	=77	=77	=77	=77	=77	=77	=77	=77	=77	=77
*	*	*	*	*	*	*	*^	*	*	*	*	*	*	*	*	*	*	*	*	*	*	*	*	*	*	*	*	*	*	*
1r	1r	.	2d\	1rGG	.	.	2d/	1rGG	.	.	.	2d/	1rGG	.	.	.	2d\	pro-	.	.	2d/	1rGG	.	.	.	2d\	1rGG	.	.	.	.
.	.	.	8D\	.	.	.	8D/	.	.	.	.	8D/	.	.	.	.	8D\	-szę	.	.	8D/	.	.	.	.	8D\	.	.	.	.	.
.	.	.	8B-\	.	.	.	8B-/	.	.	.	.	8B-/	.	.	.	.	8B-\	Bo	.	.	8B-/	.	.	.	.	8B-\	.	.	.	.	.
.	.	.	8A\	.	.	.	8A/	.	.	.	.	8A/	.	.	.	.	8A\	ja	.	.	8A/	.	.	.	.	8A\	.	.	.	.	.
.	.	.	8G\	.	.	.	8G/	.	.	.	.	8G/	.	.	.	.	8G\	na-	.	.	8G/	.	.	.	.	8G\	.	.	.	.	.
!	!	!	!	!	!	!	!	!	!	!	!	!	!	!	!	!	!LO:LB:g=original	!	!	!	!	!	!	!	!	!	!	!	!	!	!
=78	=78	=78	=78	=78	=78	=78	=78	=78	=78	=78	=78	=78	=78	=78	=78	=78	=78	=78	=78	=78	=78	=78	=78	=78	=78	=78	=78	=78	=78	=78	=78
*	*	*	*	*	*	*	*	*	*	*	*	*	*	*	*	*	*^	*	*	*	*	*^	*	*	*	*	*^	*	*	*	*
2r	2r	.	4d\	2rC	.	.	4d/	2r	.	.	.	4d/	2r	.	.	.	4d\	2rGG	-tych-	.	.	4d/	2r	2r	.	.	.	4d\|	2r	2ryy	.	.	.	.
.	.	.	4c\	.	.	.	4c/	.	.	.	.	4c/	.	.	.	.	4c\	.	-miast	.	.	4c/	.	.	.	.	.	4c\|	.	.	.	.	.	.
*	*	*	*	*	*	*	*clefC4	*	*	*	*	*clefC4	*	*	*	*	*	*	*	*	*	*clefC4	*	*	*	*	*	*clefC4	*	*	*	*	*	*
!	!	!	!	!	!	!	!	!	!	!	!	!	!	!	!	!	!	!	!	!	!	!	!LO:TX:t=P:problem:cue notes w kluczu basowym	!	!	!	!	!	!LO:TX:t=P:problem:cue notes w kluczu basowym	!	!	!	!	!
4C 4CC\	4en 4c 4B- 4G</	.	4r	4C\	gul	.	4r	4G\	gul	.	.	4ryy	4en 4B-\	gul	.	.	4r	4C\	.	.	.	4r	4B-/	4G\	gól	.	.	4ryy	4en\	4r	gul	.	.	.
!	!	!	!	!	!	!	!	!	!	!	!	!	!	!	!	!	!	!	!	!	!	!	!	!	!	!	!	!LO:CL:ed	!LO:CL:ed	!	!	!	!	!
*	*	*	*	*	*	*	*clefF4	*	*	*	*	*clefF4	*	*	*	*	*	*	*	*	*	*clefF4	*	*	*	*	*	*clefF4	*clefF4	*	*	*	*	*
4r	4r	.	8G\	4rEE	.	.	8G/	4r	.	.	.	8G/	4ryy	.	.	.	8G\	4rCC	to-	.	.	8G/	4rEE	4ryy	.	.	.	8G/	8G\	4rCC	.	.	.	.
.	.	.	8A\	.	.	.	8A/	.	.	.	.	8A/	.	.	.	.	8A\	.	-ast	.	.	8A/	.	.	.	.	.	8A/	8A\	.	.	.	.	.
*	*	*	*v	*v	*	*	*	*	*	*	*	*v	*v	*	*	*	*v	*v	*	*	*	*v	*v	*v	*	*	*	*v	*v	*v	*	*	*	*
*	*	*	*	*	*	*v	*v	*	*	*	*	*	*	*	*	*	*	*	*	*	*	*	*	*	*	*	*
!	!	!	!LO:LB:g=original	!	!	!	!	!	!	!LO:LB:g=original	!	!	!	!	!	!	!	!LO:LB:g=original	!	!	!	!LO:LB:g=original	!	!	!	!
=79||	=79||	=79||	=79||	=79||	=79||	=79||	=79||	=79||	=79||	=79||	=79||	=79||	=79||	=79||	=79||	=79||	=79||	=79||	=79||	=79||	=79||	=79||	=79||	=79||	=79||	=79||
*M3/4	*M3/4	*	*M3/4	*	*	*M3/4	*	*	*	*M3/4	*	*	*	*M3/4	*	*	*	*M3/4	*	*	*	*M3/4	*	*	*	*
!	!	!	!	!	!	!LO:CL:ed	!	!	!	!LO:CL:ed	!	!	!	!	!	!	!	!	!	!	!	!	!	!	!	!
*	*	*	*	*	*	*clefC4	*	*	*	*clefC4	*	*	*	*	*	*	*	*clefC4	*	*	*	*clefC4	*	*	*	*
*	*	*	*	*	*	*Xcue	*	*	*	*	*	*	*	*	*	*	*	*	*	*	*	*Xcue	*	*	*	*
*	*	*	*^	*	*	*	*	*	*	*^	*	*	*	*^	*	*	*	*^	*	*	*	*^	*	*	*	*
*	*	*	*	*	*	*	*	*	*	*	*	*	*	*	*	*	*	*	*	*	*	*	*	*	*	*	*cue	*	*	*	*
!	!	!	!	!	!	!	!	!	!	!	!	!	!	!	!	!	!	!	!	!	!	!	!	!	!	!LO:TX:t=P:problem:mixed bem	!	!	!	!	!
!	!LO:TX:t=P:problem:skreślony takt [1]	!	!	!	!	!	!	!	!	!	!LO:TX:t=P:problem:cue notes w kluczu basowym	!	!	!	!	!	!	!	!	!	!LO:TX:t=P:problem:cue notes w kluczu basowym	!	!	!	!	!LO:TX:t=P:problem:cue notes w kluczu basowym	!	!	!	!	!
!LO:TX:t=P:problem:mixed beam	!LO:TX:t=P:problem:mixed beam	!	!LO:TX:a:i:t=a Tempo	!	!	!	!LO:TX:a:i:t=a Tempo	!	!	!	!LO:TX:a:i:t=a Tempo	!	!	!	!	!LO:TX:a:i:t=a Tempo	!	!	!	!	!LO:TX:a:i:t=a Tempo	!	!	!	!	!LO:TX:a:i:t=a Tempo	!	!	!	!	!
8FF/L	8ff\L	.	4G/	4F\	lei	.	(8F\L	lei	.	.	4G/	4c\	lei	.	.	4G/	4ryy	wno-	.	.	4G/	(>8F\L	lei	.	.	(8f\L	4G/	lei	.	.	.
8F\J	8f/J	.	.	.	.	.	8f\J)	.	.	.	.	.	.	.	.	.	.	.	.	.	.	8f\J)	.	.	.	8F/J)	.	.	.	.	.
*rep	*rep	*	*	*	*	*	*	*	*	*	*	*	*	*	*	*	*	*	*	*	*	*	*	*	*	*	*	*	*	*	*
!LO:TX:t=P:problem:mixed beam	!LO:TX:t=P:problem:mixed beam	!	!	!	!	!	!	!	!	!	!	!	!	!	!	!	!	!	!	!	!	!	!	!	!	!LO:TX:t=P:problem:mixed bem	!	!	!	!	!
8FF/L	8ff\L	.	8F/	4F\	lei	.	(8F\L	lei	.	.	8F/	4c\	lei	.	.	8F/	4F\	-szę	lei	.	8F/	(>8F\L	lei	.	.	(8f\L	8F/	lei	.	.	.
*	*	*	*Xcue	*	*	*	*	*	*	*	*Xcue	*	*	*	*	*	*	*	*	*	*Xcue	*	*	*	*	*	*Xcue	*	*	*	*
8F\J	8f/J	.	8ryy	.	.	.	8f\J)	.	.	.	8ryy	.	.	.	.	8ryy	.	.	.	.	8ryy	8f\J)	.	.	.	8F/J)	8ryy	.	.	.	.
*Xrep	*Xrep	*	*	*	*	*	*	*	*	*	*	*	*	*	*	*	*	*	*	*	*	*	*	*	*	*	*	*	*	*	*
*rep	*rep	*	*	*	*	*	*	*	*	*	*	*	*	*	*	*	*	*	*	*	*	*	*	*	*	*	*	*	*	*	*
!LO:TX:t=P:problem:mixed beam	!LO:TX:t=P:problem:mixed beam	!	!	!	!	!	!	!	!	!	!	!	!	!	!	!	!	!	!	!	!	!	!	!	!	!LO:TX:t=P:problem:mixed bem	!	!	!	!	!
8FF/L	8ff\L	.	4ryy	4F\	lei	.	(8F\L	lei	.	.	4ryy	4c\	lei	.	.	4r	8F\	lei	.	.	4ryy	(>8F\L	lei	.	.	(8f\L	4ryy	lei	.	.	.
8F\J	8f/J	.	.	.	.	.	8f\J)	.	.	.	.	.	.	.	.	.	8F\	lei	.	.	.	8f\J)	.	.	.	8F/J)	.	.	.	.	.
*Xrep	*Xrep	*	*	*	*	*	*	*	*	*	*	*	*	*	*	*	*	*	*	*	*	*	*	*	*	*	*	*	*	*	*
*	*	*	*	*	*	*	*	*	*	*	*v	*v	*	*	*	*	*	*	*	*	*v	*v	*	*	*	*v	*v	*	*	*	*
*	*	*	*v	*v	*	*	*	*	*	*	*	*	*	*	*v	*v	*	*	*	*	*	*	*	*	*	*	*	*
!LO:PB:g=original	!LO:PB:g=original	!	!	!	!	!LO:LB:g=original	!	!	!	!	!	!	!	!LO:LB:g=original	!	!	!	!	!	!	!	!	!	!	!	!
=80	=80	=80	=80	=80	=80	=80	=80	=80	=80	=80	=80	=80	=80	=80	=80	=80	=80	=80;	=80	=80	=80	=80	=80	=80	=80	=80
!	!	!	!	!	!	!LO:TX:a:t=rall&colon;	!	!	!	!	!	!	!	!	!	!	!	!	!	!	!	!	!	!	!	!
!LO:TX:t=P:problem:mixed beam	!	!	!LO:TX:a:t=1.	!	!	!LO:TX:a:t=1.	!	!	!	!LO:TX:a:t=1.	!	!	!	!	!	!	!LO:DY:rj:a	!	!	!	!LO:DY:rj:a	!	!	!	!	!LO:DY:rj:a
8.FF/L	8.ee-L 8.cc\	p	2.r	.	.	2.r	.	.	.	2.r	.	.	.	8.F\	Więc	.	p	8.c\	[[A	Więc	p	8.e-\	Więc	.	.	p
16F\Jk	16ddJk 16b-\	.	.	.	.	.	.	.	.	.	.	.	.	16F\	da	.	.	16B-\	więc	da	.	16d\	da	.	.	.
*rep	*	*	*	*	*	*	*	*	*	*	*	*	*	*	*	*	*	*	*	*	*	*	*	*	*	*
!LO:TX:t=P:problem:mixed beam	!	!	!	!	!	!	!	!	!	!	!	!	!	!	!	!	!	!	!	!	!	!	!	!	!	!
8.FF/L	8.ccL 8.a\	.	.	.	.	.	.	.	.	.	.	.	.	8.F\	ca-	.	.	8.A\	dusz-	ca-	.	8.c\	ca-	.	.	.
16F\Jk	16ddJk 16b-\	.	.	.	.	.	.	.	.	.	.	.	.	16F\	-po	.	.	16B-\	-kiem]]	-po	.	16d\	-po	.	.	<
*Xrep	*	*	*	*	*	*	*	*	*	*	*	*	*	*	*	*	*	*	*	*	*	*	*	*	*	*
*rep	*	*	*	*	*	*	*	*	*	*	*	*	*	*	*	*	*	*	*	*	*	*	*	*	*	*
!LO:TX:t=P:problem:mixed beam	!	!	!	!	!	!	!	!	!	!	!	!	!	!	!	!	!	!	!	!	!	!	!	!	!	!
8.FF/L	8.ee-L 8.cc\	.	.	.	.	.	.	.	.	.	.	.	.	8.F\	Kie-	.	.	8.c\	.	Kie-	.	8.e-\	Kie-	.	.	.
16F\Jk	16eenJk 16cc#X\	.	.	.	.	.	.	.	.	.	.	.	.	16F\	-lich	.	.	16c#X\	.	-lich	.	16en\	-lich	.	.	[[
*Xrep	*	*	*	*	*	*	*	*	*	*	*	*	*	*	*	*	*	*	*	*	*	*	*	*	*	*
!	!	!	!	!	!	!	!	!	!	!	!	!	!	!	!	!	!	!LO:LB:g=original	!	!	!	!LO:LB:g=original	!	!	!	!
=81	=81	=81	=81	=81	=81	=81	=81	=81	=81	=81	=81	=81	=81	=81	=81	=81	=81	=81	=81	=81	=81	=81	=81	=81	=81	=81
8.BB-\L	8ffL 8dd\	.	4r	.	.	4r	.	.	.	4r	.	.	.	4BB-/	łyk	.	.	2d\	.	łyk!	.	(2f\	łyk!	.	.	.
.	16r	.	.	.	.	.	.	.	.	.	.	.	.	.	.	.	.	.	.	.	.	.	.	.	.	.
16F\K	16ff\Jk	.	.	.	.	.	.	.	.	.	.	.	.	.	.	.	.	.	.	.	.	.	.	.	.	.
8D\	(<4ffT<\	.	8r	.	.	8r	.	.	.	8r	.	.	.	8r	.	.	.	.	.	.	.	.	.	.	.	.
8F\J	.	.	8B-\	łyk	.	8d\	łyk	.	.	8f\	łyk	.	.	8B-\	łyk	.	.	.	.	.	.	.	.	.	.	.
.	.	.	.	.	.	.	.	.	.	.	.	.	.	.	.	.	.	(16qqd/LL	.	.	.	.	.	.	.	.
.	.	.	.	.	.	.	.	.	.	.	.	.	.	.	.	.	.	16qqc/JJ	.	.	.	.	.	.	.	.
8BB-/	8bb-\)	.	8BB-/	łyk	.	8B-\	łyk	.	.	8d\	łyk	.	.	8BB-/	łyk	.	.	8B-\)	.	.	.	8b-\)	.	.	.	.
8r;	8r;	.	8r;	.	.	8r;	.	.	.	8r;	.	.	.	8r;	.	.	.	8r;	.	.	.	8r;	.	.	.	.
!	!	!	!	!	!	!	!	!	!	!LO:LB:g=original	!	!	!	!LO:LB:g=original	!	!	!	!	!	!	!	!	!	!	!	!
=82	=82	=82	=82	=82	=82	=82	=82	=82	=82	=82	=82	=82	=82	=82	=82	=82	=82	=82	=82	=82	=82	=82	=82	=82	=82	=82
.	(8qdd 8qb-/	.	.	.	.	.	.	.	.	.	.	.	.	.	.	.	.	(8qB-/	.	.	.	8qd/	.	.	.	.
!	!	!	!LO:TX:a:t=1.	!	!	!LO:TX:a:t=1.	!	!	!	!LO:TX:t=P:problem:brak taktu nr 82	!	!	!	!	!	!	!	!	!	!	!	!	!	!	!	!
8.CC/L	8.ccL 8.a/)	.	2.r	.	.	2.r	.	.	.	2.ryy	.	.	.	8.C/	So-	.	.	8.A/)	So-	.	.	8.c\	So-	.	.	.
16C/Jk	16b-Jk 16g/	.	.	.	.	.	.	.	.	.	.	.	.	16C/	-le-	.	.	16G/	-le-	.	.	16B-\	-le-	.	.	.
*rep	*	*	*	*	*	*	*	*	*	*	*	*	*	*	*	*	*	*	*	*	*	*	*	*	*	*
8.CC/L	8.aL 8.f/	.	.	.	.	.	.	.	.	.	.	.	.	8.C/	-ni-	.	.	8.F/	-ni-	.	.	8.A\	-ni-	.	.	.
16C/Jk	16ccJk 16a/	.	.	.	.	.	.	.	.	.	.	.	.	16C/	-zan-	.	.	16A/	-zan-	.	.	16c\	-zan-	.	.	.
*Xrep	*	*	*	*	*	*	*	*	*	*	*	*	*	*	*	*	*	*	*	*	*	*	*	*	*	*
*rep	*	*	*	*	*	*	*	*	*	*	*	*	*	*	*	*	*	*	*	*	*	*	*	*	*	*
8.CC/L	8.b-L 8.g/	.	.	.	.	.	.	.	.	.	.	.	.	8.C/	-to-	.	.	8.G/	-to-	.	.	8.B-\	-to-	.	.	.
16C/Jk	16gJk 16en/	.	.	.	.	.	.	.	.	.	.	.	.	16C/	-wi	.	.	16En/	-wi	.	.	16G/	-wi	.	.	.
*Xrep	*	*	*	*	*	*	*	*	*	*	*	*	*	*	*	*	*	*	*	*	*	*	*	*	*	*
!LO:LB:g=original	!LO:LB:g=original	!	!LO:LB:g=original	!	!	!	!	!	!	!	!	!	!	!	!	!	!	!	!	!	!	!	!	!	!	!
=83	=83	=83	=83	=83	=83	=83	=83	=83	=83	=83	=83	=83	=83	=83	=83	=83	=83	=83	=83	=83	=83	=83	=83	=83	=83	=83
.	(16qqa/LL	.	.	.	.	.	.	.	.	16qqD/LL	.	.	.	.	.	.	.	.	.	.	.	(16qqA/LL	.	.	.	.
.	16qqg/JJ)	.	.	.	.	.	.	.	.	16qqC/JJ	.	.	.	.	.	.	.	.	.	.	.	16qqG/JJ	.	.	.	.
!LO:TX:t=P:problem:mixed beam	!LO:TX:t=P:problem:mixed beam	!	!	!	!	!	!	!	!	!	!	!	!	!	!	!	!	!	!	!	!	!	!	!	!	!
8F/L	8f/L	.	2F\	dyk	.	2F/	dyk	.	.	2BB-/	dyk	.	.	2F\	dyk	.	.	2F/	dyk.	.	.	2F/)	dyk	.	.	.
16r	16r	.	.	.	.	.	.	.	.	.	.	.	.	.	.	.	.	.	.	.	.	.	.	.	.	.
!	!	!LO:DY:rj	!	!	!	!	!	!	!	!	!	!	!	!	!	!	!	!	!	!	!	!	!	!	!	!
16F\Jk	16ff\Jk	f	.	.	.	.	.	.	.	.	.	.	.	.	.	.	.	.	.	.	.	.	.	.	.	.
4FF/	4f/	.	.	.	.	.	.	.	.	.	.	.	.	.	.	.	.	.	.	.	.	.	.	.	.	.
4r;	4r;	.	4r;	.	.	4r	.	.	.	4r;	.	.	.	4r;	.	.	.	4r;	.	.	.	4r;	.	.	.	.
!	!	!	!	!	!	!LO:LB:g=original	!	!	!	!	!	!	!	!	!	!	!	!LO:LB:g=original	!	!	!	!LO:LB:g=original	!	!	!	!
=84||	=84||	=84||	=84||	=84||	=84||	=84||	=84||	=84||	=84||	=84||	=84||	=84||	=84||	=84||	=84||	=84||	=84||	=84||	=84||	=84||	=84||	=84||	=84||	=84||	=84||	=84||
*M4/4	*M4/4	*	*M4/4	*	*	*M4/4	*	*	*	*M4/4	*	*	*	*M4/4	*	*	*	*M4/4	*	*	*	*M4/4	*	*	*	*
*met(c)	*met(c)	*	*met(c)	*	*	*met(c)	*	*	*	*met(c)	*	*	*	*met(c)	*	*	*	*met(c)	*	*	*	*met(c)	*	*	*	*
*	*	*	*	*	*	*	*	*	*	*	*	*	*	*	*	*	*	*clefF4	*	*	*	*clefF4	*	*	*	*
*	*tremolo	*	*	*	*	*	*	*	*	*	*	*	*	*cue	*	*	*	*cue	*	*	*	*cue	*	*	*	*
!	!	!LO:DY:rj	!	!	!	!	!	!	!	!	!	!	!	!LO:TX:a:i:t=/&colon; By trzecie powtórzenie	!	!	!	!	!	!	!	!LO:TX:a:i:t=/&colon; By trzecie powtórzenie Nie zrobiło w oczach ciemi	!	!	!	!
2E-X 2EE-X/	32cLLL 32A/	fp	1r	.	.	1r	.	.	.	1r	.	.	.	2E-X\	.	.	.	2E-X\	.	.	.	2E-X\	.	.	.	.
.	32g-X/	.	.	.	.	.	.	.	.	.	.	.	.	.	.	.	.	.	.	.	.	.	.	.	.	.
.	32c 32A/	.	.	.	.	.	.	.	.	.	.	.	.	.	.	.	.	.	.	.	.	.	.	.	.	.
.	32g-/	.	.	.	.	.	.	.	.	.	.	.	.	.	.	.	.	.	.	.	.	.	.	.	.	.
.	32c 32A/	.	.	.	.	.	.	.	.	.	.	.	.	.	.	.	.	.	.	.	.	.	.	.	.	.
.	32g-/	.	.	.	.	.	.	.	.	.	.	.	.	.	.	.	.	.	.	.	.	.	.	.	.	.
.	32c 32A/	.	.	.	.	.	.	.	.	.	.	.	.	.	.	.	.	.	.	.	.	.	.	.	.	.
.	32g-/	.	.	.	.	.	.	.	.	.	.	.	.	.	.	.	.	.	.	.	.	.	.	.	.	.
.	32c 32A/	.	.	.	.	.	.	.	.	.	.	.	.	.	.	.	.	.	.	.	.	.	.	.	.	.
.	32g-/	.	.	.	.	.	.	.	.	.	.	.	.	.	.	.	.	.	.	.	.	.	.	.	.	.
.	32c 32A/	.	.	.	.	.	.	.	.	.	.	.	.	.	.	.	.	.	.	.	.	.	.	.	.	.
.	32g-/	.	.	.	.	.	.	.	.	.	.	.	.	.	.	.	.	.	.	.	.	.	.	.	.	.
.	32c 32A/	.	.	.	.	.	.	.	.	.	.	.	.	.	.	.	.	.	.	.	.	.	.	.	.	.
.	32g-/	.	.	.	.	.	.	.	.	.	.	.	.	.	.	.	.	.	.	.	.	.	.	.	.	.
.	32c 32A/	.	.	.	.	.	.	.	.	.	.	.	.	.	.	.	.	.	.	.	.	.	.	.	.	.
.	32g-X/JJJ	.	.	.	.	.	.	.	.	.	.	.	.	.	.	.	.	.	.	.	.	.	.	.	.	.
*	*rep	*	*	*	*	*	*	*	*	*	*	*	*	*	*	*	*	*	*	*	*	*	*	*	*	*
4.E- 4.EE-/	32cLLL 32A/	fpy	.	.	.	.	.	.	.	.	.	.	.	4.E-\	.	.	.	4.E-\	.	.	.	4.E-\	.	.	.	.
.	32g-/	.	.	.	.	.	.	.	.	.	.	.	.	.	.	.	.	.	.	.	.	.	.	.	.	.
.	32c 32A/	.	.	.	.	.	.	.	.	.	.	.	.	.	.	.	.	.	.	.	.	.	.	.	.	.
.	32g-/	.	.	.	.	.	.	.	.	.	.	.	.	.	.	.	.	.	.	.	.	.	.	.	.	.
.	32c 32A/	.	.	.	.	.	.	.	.	.	.	.	.	.	.	.	.	.	.	.	.	.	.	.	.	.
.	32g-/	.	.	.	.	.	.	.	.	.	.	.	.	.	.	.	.	.	.	.	.	.	.	.	.	.
.	32c 32A/	.	.	.	.	.	.	.	.	.	.	.	.	.	.	.	.	.	.	.	.	.	.	.	.	.
.	32g-/	.	.	.	.	.	.	.	.	.	.	.	.	.	.	.	.	.	.	.	.	.	.	.	.	.
.	32c 32A/	.	.	.	.	.	.	.	.	.	.	.	.	.	.	.	.	.	.	.	.	.	.	.	.	.
.	32g-/	.	.	.	.	.	.	.	.	.	.	.	.	.	.	.	.	.	.	.	.	.	.	.	.	.
.	32c 32A/	.	.	.	.	.	.	.	.	.	.	.	.	.	.	.	.	.	.	.	.	.	.	.	.	.
.	32g-/	.	.	.	.	.	.	.	.	.	.	.	.	.	.	.	.	.	.	.	.	.	.	.	.	.
8E- 8EE-/	32c 32A/	.	.	.	.	.	.	.	.	.	.	.	.	8E-\	.	.	.	8E-\	.	.	.	8E-\	.	.	.	.
.	32g-/	.	.	.	.	.	.	.	.	.	.	.	.	.	.	.	.	.	.	.	.	.	.	.	.	.
.	32c 32A/	.	.	.	.	.	.	.	.	.	.	.	.	.	.	.	.	.	.	.	.	.	.	.	.	.
.	32g-/JJJ	.	.	.	.	.	.	.	.	.	.	.	.	.	.	.	.	.	.	.	.	.	.	.	.	.
*	*Xrep	*	*	*	*	*	*	*	*	*	*	*	*	*	*	*	*	*	*	*	*	*	*	*	*	*
!	!	!	!	!	!	!	!	!	!	!	!	!	!	!LO:LB:g=original	!	!	!	!	!	!	!	!	!	!	!	!
=85	=85	=85	=85	=85	=85	=85	=85	=85	=85	=85	=85	=85	=85	=85	=85	=85	=85	=85	=85	=85	=85	=85	=85	=85	=85	=85
!	!	!LO:DY:rj	!	!	!	!	!	!	!	!	!	!	!	!LO:TX:a:i:t=Nie zrobiło w oczach cienie	!	!	!	!	!	!	!	!	!	!	!	!
2D-X 2DD-X/	32d-XLLL 32B-/	f	1r	.	.	1r	.	.	.	1r	.	.	.	2D-X\	.	.	.	2D-X/	.	.	.	2D-X\	.	.	.	.
.	32f/	.	.	.	.	.	.	.	.	.	.	.	.	.	.	.	.	.	.	.	.	.	.	.	.	.
.	32d- 32B-/	.	.	.	.	.	.	.	.	.	.	.	.	.	.	.	.	.	.	.	.	.	.	.	.	.
.	32f/	.	.	.	.	.	.	.	.	.	.	.	.	.	.	.	.	.	.	.	.	.	.	.	.	.
.	32d- 32B-/	.	.	.	.	.	.	.	.	.	.	.	.	.	.	.	.	.	.	.	.	.	.	.	.	.
.	32f/	.	.	.	.	.	.	.	.	.	.	.	.	.	.	.	.	.	.	.	.	.	.	.	.	.
.	32d- 32B-/	.	.	.	.	.	.	.	.	.	.	.	.	.	.	.	.	.	.	.	.	.	.	.	.	.
.	32f/	p	.	.	.	.	.	.	.	.	.	.	.	.	.	.	.	.	.	.	.	.	.	.	.	.
.	32d- 32B-/	.	.	.	.	.	.	.	.	.	.	.	.	.	.	.	.	.	.	.	.	.	.	.	.	.
.	32f/	.	.	.	.	.	.	.	.	.	.	.	.	.	.	.	.	.	.	.	.	.	.	.	.	.
.	32d- 32B-/	.	.	.	.	.	.	.	.	.	.	.	.	.	.	.	.	.	.	.	.	.	.	.	.	.
.	32f/	.	.	.	.	.	.	.	.	.	.	.	.	.	.	.	.	.	.	.	.	.	.	.	.	.
.	32d- 32B-/	.	.	.	.	.	.	.	.	.	.	.	.	.	.	.	.	.	.	.	.	.	.	.	.	.
.	32f/	.	.	.	.	.	.	.	.	.	.	.	.	.	.	.	.	.	.	.	.	.	.	.	.	.
.	32d- 32B-/	.	.	.	.	.	.	.	.	.	.	.	.	.	.	.	.	.	.	.	.	.	.	.	.	.
.	32f/JJJ	.	.	.	.	.	.	.	.	.	.	.	.	.	.	.	.	.	.	.	.	.	.	.	.	.
*	*rep	*	*	*	*	*	*	*	*	*	*	*	*	*	*	*	*	*	*	*	*	*	*	*	*	*
4.D- 4.DD-/	32d-LLL 32B-/	fy	.	.	.	.	.	.	.	.	.	.	.	4.D-\	.	.	.	4.D-/	.	.	.	4.D-\	.	.	.	.
.	32f/	.	.	.	.	.	.	.	.	.	.	.	.	.	.	.	.	.	.	.	.	.	.	.	.	.
.	32d- 32B-/	.	.	.	.	.	.	.	.	.	.	.	.	.	.	.	.	.	.	.	.	.	.	.	.	.
.	32f/	.	.	.	.	.	.	.	.	.	.	.	.	.	.	.	.	.	.	.	.	.	.	.	.	.
.	32d- 32B-/	.	.	.	.	.	.	.	.	.	.	.	.	.	.	.	.	.	.	.	.	.	.	.	.	.
.	32f/	.	.	.	.	.	.	.	.	.	.	.	.	.	.	.	.	.	.	.	.	.	.	.	.	.
.	32d- 32B-/	.	.	.	.	.	.	.	.	.	.	.	.	.	.	.	.	.	.	.	.	.	.	.	.	.
.	32f/	py	.	.	.	.	.	.	.	.	.	.	.	.	.	.	.	.	.	.	.	.	.	.	.	.
.	32d- 32B-/	.	.	.	.	.	.	.	.	.	.	.	.	.	.	.	.	.	.	.	.	.	.	.	.	.
.	32f/	.	.	.	.	.	.	.	.	.	.	.	.	.	.	.	.	.	.	.	.	.	.	.	.	.
.	32d- 32B-/	.	.	.	.	.	.	.	.	.	.	.	.	.	.	.	.	.	.	.	.	.	.	.	.	.
.	32f/	.	.	.	.	.	.	.	.	.	.	.	.	.	.	.	.	.	.	.	.	.	.	.	.	.
8D- 8DD-/	32d- 32B-/	.	.	.	.	.	.	.	.	.	.	.	.	8D-\	.	.	.	8D-/	.	.	.	8D-\	.	.	.	.
.	32f/	.	.	.	.	.	.	.	.	.	.	.	.	.	.	.	.	.	.	.	.	.	.	.	.	.
.	32d- 32B-/	.	.	.	.	.	.	.	.	.	.	.	.	.	.	.	.	.	.	.	.	.	.	.	.	.
.	32f/JJJ	.	.	.	.	.	.	.	.	.	.	.	.	.	.	.	.	.	.	.	.	.	.	.	.	.
*	*Xrep	*	*	*	*	*	*	*	*	*	*	*	*	*	*	*	*	*	*	*	*	*	*	*	*	*
!LO:LB:g=original	!LO:LB:g=original	!	!	!	!	!	!	!	!	!	!	!	!	!	!	!	!	!	!	!	!	!	!	!	!	!
=86	=86	=86	=86	=86	=86	=86	=86	=86	=86	=86	=86	=86	=86	=86	=86	=86	=86	=86	=86	=86	=86	=86	=86	=86	=86	=86
!	!	!LO:DY:rj	!	!	!	!	!	!	!	!	!	!	!	!	!	!	!	!	!	!	!	!	!	!	!	!
2C 2CC\	32A<LLL 32F</	f	1r	.	.	1r	.	.	.	1r	.	.	.	2C/	.	.	.	2C/	.	.	.	2C/	.	.	.	.
.	32e-X/	.	.	.	.	.	.	.	.	.	.	.	.	.	.	.	.	.	.	.	.	.	.	.	.	.
.	32A< 32F</	.	.	.	.	.	.	.	.	.	.	.	.	.	.	.	.	.	.	.	.	.	.	.	.	.
.	32e-/	.	.	.	.	.	.	.	.	.	.	.	.	.	.	.	.	.	.	.	.	.	.	.	.	.
.	32A< 32F</	.	.	.	.	.	.	.	.	.	.	.	.	.	.	.	.	.	.	.	.	.	.	.	.	.
.	32e-/	.	.	.	.	.	.	.	.	.	.	.	.	.	.	.	.	.	.	.	.	.	.	.	.	.
.	32A< 32F</	.	.	.	.	.	.	.	.	.	.	.	.	.	.	.	.	.	.	.	.	.	.	.	.	.
.	32e-/	p	.	.	.	.	.	.	.	.	.	.	.	.	.	.	.	.	.	.	.	.	.	.	.	.
.	32A< 32F</	.	.	.	.	.	.	.	.	.	.	.	.	.	.	.	.	.	.	.	.	.	.	.	.	.
.	32e-/	.	.	.	.	.	.	.	.	.	.	.	.	.	.	.	.	.	.	.	.	.	.	.	.	.
.	32A< 32F</	.	.	.	.	.	.	.	.	.	.	.	.	.	.	.	.	.	.	.	.	.	.	.	.	.
.	32e-/	.	.	.	.	.	.	.	.	.	.	.	.	.	.	.	.	.	.	.	.	.	.	.	.	.
.	32A< 32F</	.	.	.	.	.	.	.	.	.	.	.	.	.	.	.	.	.	.	.	.	.	.	.	.	.
.	32e-/	.	.	.	.	.	.	.	.	.	.	.	.	.	.	.	.	.	.	.	.	.	.	.	.	.
.	32A< 32F</	.	.	.	.	.	.	.	.	.	.	.	.	.	.	.	.	.	.	.	.	.	.	.	.	.
.	32e-X/JJJ	.	.	.	.	.	.	.	.	.	.	.	.	.	.	.	.	.	.	.	.	.	.	.	.	.
*	*rep	*	*	*	*	*	*	*	*	*	*	*	*	*	*	*	*	*	*	*	*	*	*	*	*	*
4.C 4.CC\	32A<LLL 32<F/	fy	.	.	.	.	.	.	.	.	.	.	.	4.C/	.	.	.	4.C/	.	.	.	4.C/	.	.	.	.
.	32e-/	.	.	.	.	.	.	.	.	.	.	.	.	.	.	.	.	.	.	.	.	.	.	.	.	.
.	32A< 32F</	.	.	.	.	.	.	.	.	.	.	.	.	.	.	.	.	.	.	.	.	.	.	.	.	.
.	32e-/	.	.	.	.	.	.	.	.	.	.	.	.	.	.	.	.	.	.	.	.	.	.	.	.	.
.	32A< 32F</	.	.	.	.	.	.	.	.	.	.	.	.	.	.	.	.	.	.	.	.	.	.	.	.	.
.	32e-/	.	.	.	.	.	.	.	.	.	.	.	.	.	.	.	.	.	.	.	.	.	.	.	.	.
.	32A< 32F</	.	.	.	.	.	.	.	.	.	.	.	.	.	.	.	.	.	.	.	.	.	.	.	.	.
.	32e-/	py	.	.	.	.	.	.	.	.	.	.	.	.	.	.	.	.	.	.	.	.	.	.	.	.
.	32A< 32F</	.	.	.	.	.	.	.	.	.	.	.	.	.	.	.	.	.	.	.	.	.	.	.	.	.
.	32e-/	.	.	.	.	.	.	.	.	.	.	.	.	.	.	.	.	.	.	.	.	.	.	.	.	.
.	32A< 32F</	.	.	.	.	.	.	.	.	.	.	.	.	.	.	.	.	.	.	.	.	.	.	.	.	.
.	32e-/	.	.	.	.	.	.	.	.	.	.	.	.	.	.	.	.	.	.	.	.	.	.	.	.	.
8C 8CC\	32A< 32F</	.	.	.	.	.	.	.	.	.	.	.	.	8C/	.	.	.	8C/	.	.	.	8C/	.	.	.	.
.	32e-/	.	.	.	.	.	.	.	.	.	.	.	.	.	.	.	.	.	.	.	.	.	.	.	.	.
.	32A< 32F</	.	.	.	.	.	.	.	.	.	.	.	.	.	.	.	.	.	.	.	.	.	.	.	.	.
.	32e-/JJJ	.	.	.	.	.	.	.	.	.	.	.	.	.	.	.	.	.	.	.	.	.	.	.	.	.
*	*Xrep	*	*	*	*	*	*	*	*	*	*	*	*	*	*	*	*	*	*	*	*	*	*	*	*	*
=87	=87	=87	=87	=87	=87	=87	=87	=87	=87	=87	=87	=87	=87	=87	=87	=87	=87	=87	=87	=87	=87	=87	=87	=87	=87	=87
!	!	!LO:DY:rj	!	!	!	!	!	!	!	!	!	!	!	!LO:TX:a:i:t=Bo wszak głowa\nnie ze stali	!	!	!	!	!	!	!	!	!	!	!	!
2BB- 2BBB-\	32B-<LLL 32F</	f	1r	.	.	1r	.	.	.	1r	.	.	.	2BB-/	.	.	.	2BB-/	.	.	.	2BB-/	.	.	.	.
.	32d-X/	.	.	.	.	.	.	.	.	.	.	.	.	.	.	.	.	.	.	.	.	.	.	.	.	.
.	32B-< 32F</	.	.	.	.	.	.	.	.	.	.	.	.	.	.	.	.	.	.	.	.	.	.	.	.	.
.	32d-/	.	.	.	.	.	.	.	.	.	.	.	.	.	.	.	.	.	.	.	.	.	.	.	.	.
.	32B-< 32F</	.	.	.	.	.	.	.	.	.	.	.	.	.	.	.	.	.	.	.	.	.	.	.	.	.
.	32d-/	.	.	.	.	.	.	.	.	.	.	.	.	.	.	.	.	.	.	.	.	.	.	.	.	.
.	32B-< 32F</	.	.	.	.	.	.	.	.	.	.	.	.	.	.	.	.	.	.	.	.	.	.	.	.	.
.	32d-/	p	.	.	.	.	.	.	.	.	.	.	.	.	.	.	.	.	.	.	.	.	.	.	.	.
.	32B-< 32F</	.	.	.	.	.	.	.	.	.	.	.	.	.	.	.	.	.	.	.	.	.	.	.	.	.
.	32d-/	.	.	.	.	.	.	.	.	.	.	.	.	.	.	.	.	.	.	.	.	.	.	.	.	.
.	32B-< 32F</	.	.	.	.	.	.	.	.	.	.	.	.	.	.	.	.	.	.	.	.	.	.	.	.	.
.	32d-/	.	.	.	.	.	.	.	.	.	.	.	.	.	.	.	.	.	.	.	.	.	.	.	.	.
.	32B-< 32F</	.	.	.	.	.	.	.	.	.	.	.	.	.	.	.	.	.	.	.	.	.	.	.	.	.
.	32d-/	.	.	.	.	.	.	.	.	.	.	.	.	.	.	.	.	.	.	.	.	.	.	.	.	.
.	32B-< 32F</	.	.	.	.	.	.	.	.	.	.	.	.	.	.	.	.	.	.	.	.	.	.	.	.	.
.	32d-X/JJJ	.	.	.	.	.	.	.	.	.	.	.	.	.	.	.	.	.	.	.	.	.	.	.	.	.
*	*rep	*	*	*	*	*	*	*	*	*	*	*	*	*	*	*	*	*	*	*	*	*	*	*	*	*
4.BB- 4.BBB-\	32B-<LLL 32F</	fy	.	.	.	.	.	.	.	.	.	.	.	4.BB-/	.	.	.	4.BB-/	.	.	.	4.BB-/	.	.	.	.
.	32d-/	.	.	.	.	.	.	.	.	.	.	.	.	.	.	.	.	.	.	.	.	.	.	.	.	.
.	32B-< 32F</	.	.	.	.	.	.	.	.	.	.	.	.	.	.	.	.	.	.	.	.	.	.	.	.	.
.	32d-/	.	.	.	.	.	.	.	.	.	.	.	.	.	.	.	.	.	.	.	.	.	.	.	.	.
.	32B-< 32F</	.	.	.	.	.	.	.	.	.	.	.	.	.	.	.	.	.	.	.	.	.	.	.	.	.
.	32d-/	.	.	.	.	.	.	.	.	.	.	.	.	.	.	.	.	.	.	.	.	.	.	.	.	.
.	32B-< 32F</	.	.	.	.	.	.	.	.	.	.	.	.	.	.	.	.	.	.	.	.	.	.	.	.	.
.	32d-/	py	.	.	.	.	.	.	.	.	.	.	.	.	.	.	.	.	.	.	.	.	.	.	.	.
.	32B-< 32F</	.	.	.	.	.	.	.	.	.	.	.	.	.	.	.	.	.	.	.	.	.	.	.	.	.
.	32d-/	.	.	.	.	.	.	.	.	.	.	.	.	.	.	.	.	.	.	.	.	.	.	.	.	.
.	32B-< 32F</	.	.	.	.	.	.	.	.	.	.	.	.	.	.	.	.	.	.	.	.	.	.	.	.	.
.	32d-/	.	.	.	.	.	.	.	.	.	.	.	.	.	.	.	.	.	.	.	.	.	.	.	.	.
8BB- 8BBB-\	32B-< 32F</	.	.	.	.	.	.	.	.	.	.	.	.	8BB-/	.	.	.	8BB-/	.	.	.	8BB-/	.	.	.	.
.	32d-/	.	.	.	.	.	.	.	.	.	.	.	.	.	.	.	.	.	.	.	.	.	.	.	.	.
.	32B-< 32F</	.	.	.	.	.	.	.	.	.	.	.	.	.	.	.	.	.	.	.	.	.	.	.	.	.
.	32d-/JJJ	.	.	.	.	.	.	.	.	.	.	.	.	.	.	.	.	.	.	.	.	.	.	.	.	.
*	*Xrep	*	*	*	*	*	*	*	*	*	*	*	*	*	*	*	*	*	*	*	*	*	*	*	*	*
*	*Xtremolo	*	*	*	*	*	*	*	*	*	*	*	*	*	*	*	*	*	*	*	*	*	*	*	*	*
!	!	!	!	!	!	!	!	!	!	!	!	!	!	!	!	!	!	!LO:LB:g=original	!	!	!	!LO:LB:g=original	!	!	!	!
=88	=88	=88	=88	=88	=88	=88	=88	=88	=88	=88	=88	=88	=88	=88	=88	=88	=88	=88	=88	=88	=88	=88	=88	=88	=88	=88
!	!	!LO:DY:rj	!	!	!	!	!	!	!	!	!	!	!	!LO:TX:a:i:t=Odpocząwszy nućmy dalej	!	!	!	!LO:TX:a:i:t=odpocząwszy nućmy dalej	!	!	!	!LO:TX:a:i:t=Bo wszak głowa nie ze stali\nodpocząwszy nućmy dalej	!	!	!	!
8E- 8EE-\	8c 8B-< 8G-X</	f	1r	.	.	1r	.	.	.	1r	.	.	.	8E-X\	.	.	.	8E-X\	.	.	.	8E-\	.	.	.	.
16r	16r	.	.	.	.	.	.	.	.	.	.	.	.	16r	.	.	.	16r	.	.	.	16r	.	.	.	.
16E- 16EE-\	16g-X 16c/	.	.	.	.	.	.	.	.	.	.	.	.	16E-\	.	.	.	16E-\	.	.	.	16E-\	.	.	.	.
4E- 4EE-\	4g- 4c/	.	.	.	.	.	.	.	.	.	.	.	.	4E-\	.	.	.	4E-\	.	.	.	4E-\	.	.	.	.
8En 8EEn\	8c 8B-< 8Gn</	.	.	.	.	.	.	.	.	.	.	.	.	8En\	.	.	.	8E-\	.	.	.	8En\	.	.	.	.
16r	16r	.	.	.	.	.	.	.	.	.	.	.	.	16r	.	.	.	16r	.	.	.	16r	.	.	.	.
16E 16EE\	16gn 16c 16B-/	.	.	.	.	.	.	.	.	.	.	.	.	16E\	.	.	.	16E-\	.	.	.	16E\	.	.	.	.
!	!	!	!	!	!	!	!	!	!	!	!	!	!	!	!	!	!	!LO:TX:t=P:problem:fermata po kresce taktowej	!	!	!	!	!	!	!	!
4E 4EE\	4g 4c 4B-/	.	.	.	.	.	.	.	.	.	.	.	.	4E\	.	.	.	4E-\	.	.	.	4E\	.	.	.	.
*	*	*	*	*	*	*	*	*	*	*	*	*	*	*Xcue	*	*	*	*Xcue	*	*	*	*Xcue	*	*	*	*
!LO:LB:g=original	!LO:LB:g=original	!	!	!	!	!	!	!	!	!	!	!	!	!LO:LB:g=original	!	!	!	!	!	!	!	!	!	!	!	!
=89||	=89||	=89||	=89||	=89||	=89||	=89||	=89||	=89||	=89||	=89||	=89||	=89||	=89||	=89||;	=89||	=89||	=89||	=89||;	=89||	=89||	=89||	=89||	=89||	=89||	=89||	=89||
*M3/4	*M3/4	*	*M3/4	*	*	*M3/4	*	*	*	*M3/4	*	*	*	*M3/4	*	*	*	*M3/4	*	*	*	*M3/4	*	*	*	*
!	!	!	!	!	!	!	!	!	!	!	!	!	!	!	!	!	!	!LO:CL:ed	!	!	!	!LO:CL:ed	!	!	!	!
*	*	*	*	*	*	*	*	*	*	*	*	*	*	*	*	*	*	*clefC4	*	*	*	*clefC4	*	*	*	*
!	!	!	!LO:SIC:v:s=8F\	!	!	!	!	!	!	!	!	!	!	!	!	!	!	!	!	!	!	!	!	!	!	!
!	!	!	!LO:TX:a:i:t=Tempo 1o.	!	!	!LO:TX:a:i:t=a Tempo 1o.	!	!	!LO:DY:rj:a	!LO:TX:a:i:t=a Tempo 1o.	!	!	!LO:DY:rj:a	!LO:TX:a:i:t=a Tempo 1o.	!	!	!	!LO:TX:a:i:t=a Tempo 1o.	!	!	!	!	!	!	!	!
8FL 8FF/	8ffL 8f\	.	8B-\	la	.	8f\	la	.	f	8f\	la	.	f	8F\	la	.	.	8c\	la	.	.	8f\	la	.	.	.
!	!	!	!LO:SIC:v:s=8F\	!	!	!	!	!	!	!	!	!	!	!	!	!	!	!	!	!	!	!	!	!	!	!
8FJ 8FF/	8ffJ 8f\	.	8B-\	la	.	8f\	la	.	.	8f\	la	.	.	8F\	la	.	.	8c\	la	.	.	8f\	la	.	.	.
!	!	!	!LO:SIC:v:s=4F\	!	!	!	!	!	!	!	!	!	!	!	!	!	!	!	!	!	!	!	!	!	!	!
4F 4FF/	4ff 4f\	.	4B-\	la	.	4f\	la	.	.	4f\	la	.	.	4F\	la	.	.	4c\	la	.	.	4f\	la	.	.	.
!	!	!	!LO:SIC:v:s=4F\	!	!	!	!	!	!	!	!	!	!	!	!	!	!	!	!	!	!	!	!	!	!	!
4F 4FF/	4ff 4f\	.	4B-\	la	.	4f\	la	.	.	4f\	la	.	.	4F\	la	.	.	4c\	la	.	.	4f\	la	.	.	.
!	!	!	!LO:LB:g=original	!	!	!	!	!	!	!LO:LB:g=original	!	!	!	!	!	!	!	!	!	!	!	!	!	!	!	!
=90	=90	=90	=90	=90	=90	=90	=90	=90	=90	=90	=90	=90	=90	=90	=90	=90	=90	=90	=90	=90	=90	=90	=90	=90	=90	=90
*	*	*	*	*	*	*	*ij	*	*	*	*	*	*	*	*ij	*	*	*	*ij	*	*	*	*ij	*	*	*
!	!	!	!LO:SIC:v:s=8F	!	!	!	!	!	!	!	!	!	!	!	!	!	!	!	!	!	!	!	!	!	!	!
8FL 8FF/	8ffL 8f\	.	8B-\	la	.	8f\	la	.	.	8f\	la	.	.	8F\	la	.	.	8c\	la	.	.	8f\	la	.	.	.
!	!	!	!LO:SIC:v:s=8F	!	!	!	!	!	!	!	!	!	!	!	!	!	!	!	!	!	!	!	!	!	!	!
8FJ 8FF/	8ffJ 8f\	.	8B-\	la	.	8f\	la	.	.	8f\	la	.	.	8F\	la	.	.	8c\	la	.	.	8f\	la	.	.	.
!	!	!	!LO:SIC:v:s=4F	!	!	!	!	!	!	!	!	!	!	!	!	!	!	!	!	!	!	!	!	!	!	!
4F 4FF/	4ff 4f\	.	4B-\	la	.	4f\	la	.	.	4f\	la	.	.	4F\	la	.	.	4c\	la	.	.	4f\	la	.	.	.
!	!	!	!LO:SIC:v:s=4F	!	!	!	!	!	!	!	!	!	!	!	!	!	!	!	!	!	!	!	!	!	!	!
4F 4FF/	4ff 4f\	.	4B-\	la	.	4f\	la	.	.	4f\	la	.	.	4F\	la	.	.	4c\	la	.	.	4f\	la	.	.	.
*	*	*	*	*	*	*	*Xij	*	*	*	*	*	*	*	*Xij	*	*	*	*Xij	*	*	*	*Xij	*	*	*
!LO:PB:g=original	!LO:PB:g=original	!	!	!	!	!LO:LB:g=original	!	!	!	!	!	!	!	!	!	!	!	!LO:LB:g=original	!	!	!	!LO:LB:g=original	!	!	!	!
=91	=91	=91	=91	=91	=91	=91	=91	=91	=91	=91	=91	=91	=91	=91	=91	=91	=91	=91	=91	=91	=91	=91	=91	=91	=91	=91
!	!	!	!	!	!LO:DY:rj:a	!	!	!	!LO:DY:rj:a	!	!	!	!LO:DY:rj:a	!	!	!	!LO:DY:rj:a	!	!	!	!LO:DY:rj:a	!LO:TX:a:i:t=a Tempo 1.o	!	!	!	!LO:DY:rj:a
8.FL 8.D 8.BB-\	8.b-L 8.B-/	.	8.BB-/	A	f	8.F 8.D/	A	.	f	8.B-\	A	.	f	8.BB-/	A	.	f	8.F 8.D/	A	.	f	8.B-\	A	.	.	f
16FJk 16D 16BB-\	16ddJk 16d/	.	16BB-/	więc	.	16F 16D/	więc	.	.	16d\	więc	.	.	16BB-/	więc	.	.	16F 16D/	więc	.	.	16d\	więc	.	.	.
4F 4D 4BB-\	4ff 4f/	.	4BB-/	niech	.	4F 4D/	niech	.	.	4f\	niech	.	.	4BB-/	niech	.	.	4F 4D/	niech	.	.	4f\	niech	.	.	.
4F 4D 4BB-\	4dd 4d/	.	4BB-/	nam	.	4F 4D/	nam	.	.	4d\	nam	.	.	4BB-/	nam	.	.	4F 4D/	nam	.	.	4d\	nam	.	.	.
!	!	!	!	!	!	!	!	!	!	!	!	!	!	!LO:LB:g=original	!	!	!	!	!	!	!	!	!	!	!	!
=92	=92	=92	=92	=92	=92	=92	=92	=92	=92	=92	=92	=92	=92	=92	=92	=92	=92	=92	=92	=92	=92	=92	=92	=92	=92	=92
*rep	*	*	*	*	*	*	*	*	*	*	*	*	*	*	*	*	*	*	*	*	*	*	*	*	*	*
8.FL 8.D 8.BB-\	8.b-L 8.B-/	.	8.BB-/	we-	.	8.F 8.D/	we-	.	.	8.B-\	we-	.	.	8.BB-/	we-	.	.	8.F 8.D/	we-	.	.	8.B-\	we-	.	.	.
16FJk 16D 16BB-\	16ddJk 16d/	.	16BB-/	-soł	.	16F 16D/	-sół	.	.	16d\	-soł	.	.	16BB-/	-soł	.	.	16F 16D/	-soł	.	.	16d\	-sół	.	.	.
4F 4D 4BB-\	4ff 4f/	.	4BB-/	ży-	.	4F 4D/	ży-	.	.	4f\	ży-	.	.	4BB-/	ży-	.	.	4F 4D/	ży-	.	.	4f\	ży-	.	.	.
4F 4D 4BB-\	4dd 4d/	.	4BB-/	-ie	.	4F 4D/	-ie	.	.	4d\	-ie	.	.	4BB-/	-ie	.	.	4F 4D/	-ie	.	.	4d\	-ie	.	.	.
*Xrep	*	*	*	*	*	*	*	*	*	*	*	*	*	*	*	*	*	*	*	*	*	*	*	*	*	*
!	!	!	!LO:LB:g=original	!	!	!	!	!	!	!LO:LB:g=original	!	!	!	!	!	!	!	!	!	!	!	!	!	!	!	!
=93	=93	=93	=93	=93	=93	=93	=93	=93	=93	=93	=93	=93	=93	=93	=93	=93	=93	=93	=93	=93	=93	=93	=93	=93	=93	=93
4E- 4EE-/	8.cc/L	.	8.E-\	Jan	.	8.G/	Jan	.	.	8.c\	Jan	.	.	8.E-\	Jan	.	.	8.G/	Jan	.	.	8.c\	Jan	.	.	.
.	16g/Jk	.	16E-\	co	.	16G/	co	.	.	16G/	co	.	.	16E-\	co	.	.	16G/	co	.	.	16G/	co	.	.	.
4c 4G 4C\	4ee- 4g\	.	4C/	z_na-	.	4G/	dzi-	.	.	4e-\	z_na-	.	.	4C/	dzi-	.	.	4G/	dzi-	.	.	4e-\	dzi-	.	.	.
4c 4G 4E-\	4cc 4g\	.	4E-\	-mi	.	4G/	-siaj	.	.	4c\	-mi	.	.	4E-\	-siaj	.	.	4G/	-siaj	.	.	4c\	-siaj	.	.	.
!	!	!	!	!	!	!	!	!	!	!	!	!	!	!	!	!	!	!LO:LB:g=original	!	!	!	!LO:LB:g=original	!	!	!	!
=94	=94	=94	=94	=94	=94	=94	=94	=94	=94	=94	=94	=94	=94	=94	=94	=94	=94	=94	=94	=94	=94	=94	=94	=94	=94	=94
8.FL 8.FF/	8.aL 8.f/	.	8.F\	dzi-	.	8.F/	z_na-	.	.	8.A\	dzi-	.	.	8.F\	z_na-	.	.	8.F/	z_na-	.	.	8.A\	z_na-	.	.	.
16E-Jk 16EE-/	16ccJk 16a 16f/	.	16E-\	-siaj	.	16A/	-mi	.	.	16c\	-siaj	.	.	16E-\	-mi	.	.	16A/	-mi	.	.	16c\	-mi	.	.	.
4D 4DD/	4b- 4f/	.	4D/	pi-	.	4B-/	pi-	.	.	4B-\	pi-	.	.	4D\	pi-	.	.	4B-/	pi-	.	.	4B-\	pi-	.	.	.
4BB- 4BBB-/	4dd 4b- 4f/	.	4BB-/	-ie	.	4F/	-ie	.	.	4d\	-ie	.	.	4BB-/	-ie	.	.	4F/	-ie	.	.	4d\	-ie	.	.	.
!LO:LB:g=original	!LO:LB:g=original	!	!	!	!	!LO:LB:g=original	!	!	!	!	!	!	!	!	!	!	!	!	!	!	!	!	!	!	!	!
=95	=95	=95	=95	=95	=95	=95	=95	=95	=95	=95	=95	=95	=95	=95	=95	=95	=95	=95	=95	=95	=95	=95	=95	=95	=95	=95
4E- 4EE-/	8.cc/L	.	8.E-\	Jan	.	8.G/	Jan	.	.	8.c\	Jan	.	.	8.E-\	Jan	.	.	8.G/	Jan	.	.	8.c\	Jan	.	.	.
.	16g/Jk	.	16E-\	co	.	16G/	co	.	.	16G/	co	.	.	16E-\	co	.	.	16G/	co	.	.	16G/	co	.	.	.
4c 4G 4C\	4ee- 4g/	.	4C/	z_na-	.	4G/	dzi-	.	.	4e-\	zna-	.	.	4C/	dzi-	.	.	4G/	dzi-	.	.	4e-\	dzi-	.	.	.
4c 4G 4E-\	4cc 4g/	.	4E-\	-mi	.	4G/	-siaj	.	.	4c\	-mi	.	.	4E-\	-siaj	.	.	4G/	-siaj	.	.	4c\	-siaj	.	.	.
!	!	!	!LO:LB:g=original	!	!	!	!	!	!	!LO:LB:g=original	!	!	!	!LO:LB:g=original	!	!	!	!	!	!	!	!	!	!	!	!
=96	=96	=96	=96	=96	=96	=96	=96	=96	=96	=96	=96	=96	=96	=96	=96	=96	=96	=96	=96	=96	=96	=96	=96	=96	=96	=96
8.FL 8.FF/	8.aL 8.f/	.	8.F\	dzi-	.	8.F/	z_na-	.	.	8.A\	dzi-	.	.	8.F\	z_na-	.	.	8.F/	z_na-	.	.	8.A\	z_na-	.	.	.
16E-Jk 16EE-/	16ccJk 16a 16f/	.	16E-\	-siaj	.	16A/	-mi	.	.	16c\	-siaj	.	.	16E-\	-mi	.	.	16A/	-mi	.	.	16c\	-mi	.	.	.
4D 4DD/	4b- 4f/	.	4D/	pi-	.	4B-/	pi-	.	.	4B-\	pi-	.	.	4D/	pi-	.	.	4B-/	pi-	.	.	4B-\	pi-	.	.	.
4BB- 4BBB-/	4dd 4b- 4f/	.	4BB-/	-ie	.	4F/	-ie	.	.	4d\	-ie	.	.	4BB-/	-ie	.	.	4F/	-ie	.	.	4d\	-ie	.	.	.
!	!	!	!	!	!	!	!	!	!	!	!	!	!	!	!	!	!	!	!	!	!	!LO:LB:g=original	!	!	!	!
=97	=97	=97	=97	=97	=97	=97	=97	=97	=97	=97	=97	=97	=97	=97	=97	=97	=97	=97	=97	=97	=97	=97	=97	=97	=97	=97
4E- 4EE-/	8.cc/L	.	8.E-\	Jan	.	8.G/	Jan	.	.	8.c\	Jan	.	.	8.E-\	Jan	.	.	8.G/	Jan	.	.	8.c\	Jan	.	.	.
.	16g/Jk	.	16E-\	co	.	16G/	co	.	.	16G/	co	.	.	16E-\	co	.	.	16G/	co	.	.	16G/	co	.	.	.
4c 4G 4C\	4ee- 4g/	.	4C/	z_na-	.	4G/	dzi-	.	.	4e-\	z_na-	.	.	4C/	dzi-	.	.	4G/	dzi-	.	.	4e-\	dzi-	.	.	.
4c 4G 4E-\	4cc 4g/	.	4E-\	-mi	.	4G/	-siaj	.	.	4c\	-mi	.	.	4E-\	-siaj	.	.	4G/	-siaj	.	.	4c\	-siaj	.	.	.
!	!	!	!	!	!	!	!	!	!	!	!	!	!	!	!	!	!	!LO:LB:g=original	!	!	!	!	!	!	!	!
=98	=98	=98	=98	=98	=98	=98	=98	=98	=98	=98	=98	=98	=98	=98	=98	=98	=98	=98	=98	=98	=98	=98	=98	=98	=98	=98
8.FL 8.FF/	8.aL 8.f/	.	8.F\	dzi-	.	8.F/	z_na-	.	.	8.A\	dzi-	.	.	8.F\	z_na-	.	.	8.F/	z_na-	.	.	8.A\	z_na-	.	.	.
16FJk 16FF/	16ccJk 16e-/	.	16FF/	-siaj	.	16E-/	-mi	.	.	16c\	-siaj	.	.	16FF/	-mi	.	.	16E-/	-mi	.	.	16c\	-mi	.	.	.
4F 4BB-/	4b- 4d/	.	4BB-/	pi-	.	4D/	pi-	.	.	4B-\	pi-	.	.	4BB-/	pi-	.	.	4D/	pi-	.	.	4B-\	pi-	.	.	.
!	!LO:TX:b:t=V&colon; S&colon;	!	!	!	!	!	!	!	!	!	!	!	!	!	!	!	!	!	!	!	!	!	!	!	!	!
!	!LO:TX:t=P:problem:skskreślone takty [6]	!	!	!	!	!	!	!	!	!	!	!	!	!	!	!	!	!	!	!	!	!	!	!	!	!
4B- 4F 4D 4BB-\	4bb- 4ff 4dd 4b-\	.	4BB-/	-ie	.	4D/	-ie	.	.	4B-\	-ie	.	.	4BB-/	-ie	.	.	4D/	-ie	.	.	4B-\	-ie	.	.	.
!LO:PB:g=original	!LO:PB:g=original	!	!LO:LB:g=original	!	!	!LO:LB:g=original	!	!	!	!	!	!	!	!LO:LB:g=original	!	!	!	!	!	!	!	!	!	!	!	!
=99||	=99||	=99||	=99||	=99||	=99||	=99||	=99||	=99||	=99||	=99||	=99||	=99||	=99||	=99||	=99||	=99||	=99||	=99||	=99||	=99||	=99||	=99||	=99||	=99||	=99||	=99||
*M4/4	*M4/4	*	*M4/4	*	*	*M4/4	*	*	*	*M4/4	*	*	*	*M4/4	*	*	*	*M4/4	*	*	*	*M4/4	*	*	*	*
*met(c)	*met(c)	*	*met(c)	*	*	*met(c)	*	*	*	*met(c)	*	*	*	*met(c)	*	*	*	*met(c)	*	*	*	*met(c)	*	*	*	*
!	!	!	!	!	!	!	!	!	!	!	!	!	!	!	!	!	!	!	!	!	!	!LO:TX:a:Bi:t=Adagio	!	!	!	!
16FF/LL	16f/LL	.	1r	.	.	1r	.	.	.	1r	.	.	.	2.F\	nie-	.	p	2.A\	Niech	.	p	2.c\	Niech	.	.	p
16AA/	16a/	.	.	.	.	.	.	.	.	.	.	.	.	.	.	.	.	.	.	.	.	.	.	.	.	.
16C/	16cc/	.	.	.	.	.	.	.	.	.	.	.	.	.	.	.	.	.	.	.	.	.	.	.	.	.
16F/JJ	16ff/JJ	.	.	.	.	.	.	.	.	.	.	.	.	.	.	.	.	.	.	.	.	.	.	.	.	.
16AA\LL	16a\LL	.	.	.	.	.	.	.	.	.	.	.	.	.	.	.	.	.	.	.	.	.	.	.	.	.
16C\	16cc\|	.	.	.	.	.	.	.	.	.	.	.	.	.	.	.	.	.	.	.	.	.	.	.	.	.
16F\	16ff\	.	.	.	.	.	.	.	.	.	.	.	.	.	.	.	.	.	.	.	.	.	.	.	.	.
16A\JJ	16aa\JJ	.	.	.	.	.	.	.	.	.	.	.	.	.	.	.	.	.	.	.	.	.	.	.	.	.
16C\LL	16cc\LL	.	.	.	.	.	.	.	.	.	.	.	.	.	.	.	.	.	.	.	.	.	.	.	.	.
16F\	16ff\	.	.	.	.	.	.	.	.	.	.	.	.	.	.	.	.	.	.	.	.	.	.	.	.	.
16A\	16aa\	.	.	.	.	.	.	.	.	.	.	.	.	.	.	.	.	.	.	.	.	.	.	.	.	.
16c\JJ	16ccc\JJ	.	.	.	.	.	.	.	.	.	.	.	.	.	.	.	.	.	.	.	.	.	.	.	.	.
16F\LL	16ff\LL	.	.	.	.	.	.	.	.	.	.	.	.	4F\	-chaj	.	.	4A\	nam	.	.	4c\	nam	.	.	.
16A\	16aa\	.	.	.	.	.	.	.	.	.	.	.	.	.	.	.	.	.	.	.	.	.	.	.	.	.
16c\	16ccc\	.	.	.	.	.	.	.	.	.	.	.	.	.	.	.	.	.	.	.	.	.	.	.	.	.
16f\JJ	16fff\JJ	.	.	.	.	.	.	.	.	.	.	.	.	.	.	.	.	.	.	.	.	.	.	.	.	.
!	!	!	!	!	!	!	!	!	!	!LO:LB:g=original	!	!	!	!	!	!	!	!	!	!	!	!	!	!	!	!
=100	=100	=100	=100	=100	=100	=100	=100	=100	=100	=100	=100	=100	=100	=100	=100	=100	=100	=100	=100	=100	=100	=100	=100	=100	=100	=100
4.d 4.B-\	4.ddd 4.bb- 4.ff\	.	8r	.	.	8r	.	.	.	8r	.	.	.	4BB-/	ży-	.	.	4B-\	ży-	.	.	4d\	zy-	.	.	.
.	.	.	8B-\	Niech	.	8B-\	niech	.	.	8B-\	Niech	.	.	.	.	.	.	.	.	.	.	.	.	.	.	.
.	.	.	8d\	Jan	.	8d\	Jan	.	.	8d\	Jan	.	.	8BB-/	-ie	.	.	8B-\	-ie	.	.	8d\	-ie	.	.	.
8r	8r	.	8F\	nam	.	8F/	nam	.	.	8F/	nam	.	.	8r	.	.	.	8r	.	.	.	8r	.	.	.	.
2r	2r	.	8B-\L	ży-	.	8B-/L	ży-	.	.	8B-\L	ży-	.	.	2r	.	.	.	4r	.	.	.	2r	.	.	.	.
.	.	.	8D\J	.	.	8D/J	.	.	.	8d\J	.	.	.	.	.	.	.	.	.	.	.	.	.	.	.	.
.	.	.	4F\	-ie	.	4F/	-ie	.	.	4f\	-ie	.	.	.	.	.	.	4r	.	.	.	.	.	.	.	.
=101	=101	=101	=101	=101	=101	=101	=101	=101	=101	=101	=101	=101	=101	=101	=101	=101	=101	=101	=101	=101	=101	=101	=101	=101	=101	=101
*	*^	*	*	*	*	*	*	*	*	*	*	*	*	*	*	*	*	*	*	*	*	*	*	*	*	*
!	!LO:N:vis=2	!	!	!	!	!	!	!	!	!	!	!	!	!	!	!	!	!	!	!	!	!	!	!	!	!	!
2.F 2.FF/	2.cc/	4b-\	.	1r	.	.	1r	.	.	.	1r	.	.	.	2.F\	[[Nie-	Jan	.	(4B-\	Jan	.	.	2.c\	Niech	.	.	.
.	.	8a\L	.	.	.	.	.	.	.	.	.	.	.	.	.	.	.	.	8A\L	.	.	.	.	.	.	.	.
.	.	8g\J	.	.	.	.	.	.	.	.	.	.	.	.	.	.	.	.	8G\J	.	.	.	.	.	.	.	.
.	.	4a\	.	.	.	.	.	.	.	.	.	.	.	.	.	.	.	.	4A\)	niech	.	.	.	.	.	.	.
4F 4FF/	4ff/	4a\	.	.	.	.	.	.	.	.	.	.	.	.	4F\	-chaj]]	niech	.	4A\	.	.	.	4f\	Jan	.	.	.
*	*v	*v	*	*	*	*	*	*	*	*	*	*	*	*	*	*	*	*	*	*	*	*	*	*	*	*	*
!!LO:LB:g=original
=102	=102	=102	=102	=102	=102	=102	=102	=102	=102	=102	=102	=102	=102	=102	=102	=102	=102	=102	=102	=102	=102	=102	=102	=102	=102	=102
4.F 4.BB-/	4.dd 4.b-/	.	4r	.	.	4r	.	.	.	4r	.	.	.	1BB-	ży-	.	.	1B-	ży-	.	.	1d	ży-	.	.	.
.	.	.	8.r	.	.	8.r	.	.	.	8.r	.	.	.	.	.	.	.	.	.	.	.	.	.	.	.	.
16r	16r	.	.	.	.	.	.	.	.	.	.	.	.	.	.	.	.	.	.	.	.	.	.	.	.	.
!	!	!LO:DY:rj	!	!	!	!	!	!	!	!	!	!	!	!	!	!	!	!	!	!	!	!	!	!	!	!
16B- 16F 16BB-\	16dd 16b- 16f 16d/	fz	16BB-/	niech	.	16B- 16F/	Niech	.	.	16d\	niech	.	.	.	.	.	.	.	.	.	.	.	.	.	.	.
2B- 2F 2BB-\	2dd 2b- 2f 2d/	.	2BB-/	ży-	.	2B- 2F/	ży-	.	.	2d\	ży-	.	.	.	.	.	.	.	.	.	.	.	.	.	.	.
=103	=103	=103	=103	=103	=103	=103	=103	=103	=103	=103	=103	=103	=103	=103	=103	=103	=103	=103	=103	=103	=103	=103	=103	=103	=103	=103
4B- 4F 4BB-\	4dd 4b- 4f 4d/	.	4BB-/	-ie	.	4B- 4F/	-ie	.	.	4d\	-ie	.	.	4BB-/	-ie,	.	.	4B-\	-ie	.	.	4d\	-ie	.	.	.
4r	4r	.	4r	.	.	4r	.	.	.	4r	.	.	.	4r	.	.	.	4r	.	.	.	4r	.	.	.	.
4r	4r	.	4r	.	.	4r	.	.	.	4r	.	.	.	4r	.	.	.	4r	.	.	.	4r	.	.	.	.
8.r	8.r	.	8.r	.	.	8.r	.	.	.	8.r	.	.	.	8.r	.	.	.	8.r	.	.	.	8.r	.	.	.	.
!	!	!	!	!	!	!	!	!	!LO:DY:rj:a	!	!	!	!	!	!	!	!LO:DY:rj:a:t=ffo	!	!	!	!LO:DY:rj:a:t=ffo	!	!	!	!	!LO:DY:rj:a:t=ffo
16F 16FF/	16ff 16a 16f/	.	16F\	niech	.	16f 16A/	niech	.	ff	16f\	Niech	.	.	16F\	niech	.	ff	16A\	niech	.	ff	16f\	niech	.	.	ff
=104	=104	=104	=104	=104	=104	=104	=104	=104	=104	=104	=104	=104	=104	=104	=104	=104	=104	=104	=104	=104	=104	=104	=104	=104	=104	=104
4B- 4BB-\	4b-\	.	4B-\	ży-	.	4B-\	ży-	.	.	4B-\	ży-	.	.	4B-\	zy-	.	.	4B-\	ży-	.	.	4B-\	ży-	.	.	.
!LO:N:n=1:vis=4.	!	!	!	!	!	!	!	!	!	!	!	!	!	!	!	!	!	!	!	!	!	!	!	!	!	!
4BB- 4BBB-/	4bb- 4ff 4dd 4b-\	.	4BB-/	-ie	.	4B-\	-ie.	.	.	4B-\	-ie.	.	.	4BB-/	-ie!	.	.	4B-\	-ie.	.	.	4B-\	-ie.	.	.	.
2r;	2r;	.	2r;	.	.	2r;	.	.	.	2r;	.	.	.	2r;	.	.	.	2r;	.	.	.	2r;	.	.	.	.
==	==	==	==	==	==	==	==	==	==	==	==	==	==	==	==	==	==	==	==	==	==	==	==	==	==	==
*-	*-	*-	*-	*-	*-	*-	*-	*-	*-	*-	*-	*-	*-	*-	*-	*-	*-	*-	*-	*-	*-	*-	*-	*-	*-	*-
!!!system-decoration: [(s1,s2,s3)][(s4,s5,s6)]{(s7,s8)}
!!!RDF**kern: > = above
!!!RDF**kern: < = below
!!!RDF**kern: | = vertical stroke
!!!AIN: 1 bass 1 empty 1 piano 4 tenor
!!!ENC: Andrzej Kubiczek
!!!END: 2021-06-03
!!!ENC: Berenika Jozajtis
!!!END: 2021-04-26
